/* XPM */
static char *attack1mv11739460972[] = {
/* columns rows colors chars-per-pixel */
"64 64 248 2 ",
"   c #2A0905",
".  c #3C0400",
"X  c #360900",
"o  c #3A1901",
"O  c #2F1813",
"+  c #3B2703",
"@  c #3B2517",
"#  c #3F301E",
"$  c #3E2B25",
"%  c #3A2C3D",
"&  c #430401",
"*  c #450B01",
"=  c #4C0B00",
"-  c #4C0600",
";  c #5D0400",
":  c #580802",
">  c #4A1700",
",  c #571702",
"<  c #511B11",
"1  c #6A0700",
"2  c #770601",
"3  c #6B1601",
"4  c #781805",
"5  c #6C1C13",
"6  c #472604",
"7  c #582703",
"8  c #4C3504",
"9  c #573704",
"0  c #4B2618",
"q  c #572D17",
"w  c #48361A",
"e  c #543819",
"r  c #692501",
"t  c #772A02",
"y  c #6A3504",
"u  c #7C3903",
"i  c #6B301A",
"p  c #452A25",
"a  c #542B27",
"s  c #483523",
"d  c #543829",
"f  c #5A3C36",
"g  c #6B3629",
"h  c #793729",
"j  c #683C34",
"k  c #773D35",
"l  c #6D2C27",
"z  c #33433D",
"x  c #584601",
"c  c #59510C",
"v  c #664706",
"b  c #794703",
"n  c #785606",
"m  c #664816",
"M  c #734A1B",
"N  c #62571B",
"B  c #7B5513",
"V  c #6A5609",
"C  c #7E6400",
"Z  c #7C7614",
"A  c #5D4427",
"S  c #5A4A31",
"D  c #67482D",
"F  c #6B562B",
"G  c #674D39",
"H  c #764637",
"J  c #75552E",
"K  c #5F6821",
"L  c #776C31",
"P  c #19396E",
"I  c #2F3B4A",
"U  c #344C5A",
"Y  c #77534A",
"T  c #72634E",
"R  c #860600",
"E  c #9A0C00",
"W  c #891902",
"Q  c #951901",
"!  c #A81603",
"~  c #B81D06",
"^  c #A61C11",
"/  c #852200",
"(  c #8B2802",
")  c #9C2302",
"_  c #8A3704",
"`  c #942E11",
"'  c #AB2406",
"]  c #B82606",
"[  c #B73703",
"{  c #B63813",
"}  c #A2340C",
"|  c #883A32",
" . c #C11D02",
".. c #C72504",
"X. c #D52A00",
"o. c #C83A0C",
"O. c #DB340C",
"+. c #D23615",
"@. c #EC3C01",
"#. c #E73803",
"$. c #F63D05",
"%. c #E13E14",
"&. c #8A4C07",
"*. c #8D5904",
"=. c #854B12",
"-. c #914F11",
";. c #AF4614",
":. c #886000",
">. c #98670B",
",. c #856919",
"<. c #957214",
"1. c #A47606",
"2. c #A67513",
"3. c #AA6F0D",
"4. c #885C2C",
"5. c #894837",
"6. c #8F4E33",
"7. c #A3513F",
"8. c #A74E30",
"9. c #947925",
"0. c #8B6B2D",
"q. c #B3742B",
"w. c #CA4515",
"e. c #DB4717",
"r. c #CC4609",
"t. c #E6440A",
"y. c #F84307",
"u. c #E64614",
"i. c #F44614",
"p. c #D45026",
"a. c #E74820",
"s. c #9D5545",
"d. c #975C5B",
"f. c #8B5346",
"g. c #A85849",
"h. c #B55C4C",
"j. c #B35E55",
"k. c #876746",
"l. c #9A6847",
"z. c #8A6557",
"x. c #977A56",
"c. c #926F4A",
"v. c #B46556",
"b. c #BE7555",
"n. c #B06F4C",
"m. c #946D6D",
"M. c #B97863",
"N. c #B07266",
"B. c #C77855",
"V. c #D07B6D",
"C. c #CA7869",
"Z. c #A78319",
"A. c #B38813",
"S. c #90902F",
"D. c #BA9629",
"F. c #AF8B32",
"G. c #C99B19",
"H. c #D5A61A",
"J. c #D3AE18",
"K. c #ECBC1D",
"L. c #E6B81A",
"P. c #EDB718",
"I. c #C6982A",
"U. c #CA9B2F",
"Y. c #DAA429",
"T. c #DCB72E",
"R. c #CCA53B",
"E. c #D8A935",
"W. c #DAB837",
"Q. c #C8A82E",
"!. c #E1AF2F",
"~. c #E7B627",
"^. c #E5B938",
"/. c #F0B429",
"(. c #DFCD32",
"). c #E8C82B",
"_. c #E7C837",
"`. c #F8D737",
"'. c #EFCF2D",
"]. c #FAE73C",
"[. c #F3EC3C",
"{. c #B48846",
"}. c #B1886F",
"|. c #AC936E",
" X c #D68C5A",
".X c #C78852",
"XX c #D8B849",
"oX c #CDAC45",
"OX c #C68765",
"+X c #C49A66",
"@X c #DC956B",
"#X c #C98577",
"$X c #D58778",
"%X c #C7997A",
"&X c #D29374",
"*X c #D0A772",
"=X c #F6B777",
"-X c #E9AD73",
";X c #EBAF64",
":X c #D7CE5B",
">X c #D5C84E",
",X c #F6DA46",
"<X c #EBD151",
"1X c #EBEA44",
"2X c #FCEC4C",
"3X c #F9E847",
"4X c #FDF44C",
"5X c #FDFA4C",
"6X c #FAF346",
"7X c #FDEB53",
"8X c #FAE759",
"9X c #FDF454",
"0X c #FEF854",
"qX c #FCF35C",
"wX c #F8F857",
"eX c #EFED5C",
"rX c #D8CF6B",
"tX c #F9D368",
"yX c #F9E964",
"uX c #FAF666",
"iX c #F2EC6E",
"pX c #29508A",
"aX c #287DB3",
"sX c #4D7290",
"dX c #416FAB",
"fX c #51808D",
"gX c #588696",
"hX c #558CB7",
"jX c #729395",
"kX c #368DC9",
"lX c #5C9FD2",
"zX c #71C2EF",
"xX c #A3A8A0",
"cX c #D9B486",
"vX c #D3AA86",
"bX c #E6B48C",
"nX c #C8BDA7",
"mX c #B8C2B7",
"MX c #F6C68B",
"NX c #F4D296",
"BX c #D3C9B1",
"VX c #F1D2A4",
"CX c #F9E4AF",
"ZX c #8ABDDD",
"AX c #A4E1FD",
"SX c #A6CADC",
"DX c #E5E7CE",
"FX c None",
/* pixels */
"FXFXFXFXFXFXFXFXFXFXFXFXFXFXFXFXFXFXFXFXFXFXFXFXFXFXFXFXFXFXFXFXFXFXFXFXFXFXFXFXFXFXFXFXFXFXFXFXFXFXFXFXFXFXFXFXFXFXFXFXFXFXFXFX",
"FXFXFXFXFXFXFXFXFXFXFXFXFXFXFXFXFXFXFXFXFXFXFXFXFXFXFXFXFXFXFXFXI FXFXFXFXFXFXFXFXFXFXFXFXFXFXFXFXFXFXFXFXFXFXFXFXFXFXFXFXFXFXFX",
"FXFXFXFXFXFXFXFXFXFXFXFXFXFXFXFXFXFXFXFXFXFXFXFXFXFXFXFXFXFXf % P pXP U FXFXFXFXFXFXFXFXFXFXFXFXFXFXFXFXFXFXFXFXFXFXFXFXFXFXFXFX",
"FXFXFXFXFXFXFXFXFXFXFXFXFXFXFXFXFXFXFXFXFXFXFXFXFXFXFXFXFXY m.m.sXP pXhXsXFXFXFXFXFXFXFXFXFXFXFXFXFXFXFXFXFXFXFXFXFXFXFXFXFXFXFX",
"FXFXFXFXFXFXFXFXFXFXFXFXFXFXFXFXFXFXFXFXFXFXFXFXFXFXFXFX6.&X&XcXnXxXpXdXZXsXFXFXFXFXFXFXFXFXFXFXFXFXFXFXFXFXFXFXFXFXFXFXFXFXFXFX",
"FXFXFXFXFXFXFXFXFXFXFXFXFXFXFXFXFXFXFXFXFXFXFXFXFXFXFXg b.@X;XNXVXDXSXhXlXAXsXFXFXFXFXFXFXFXFXFXFXFXFXFXFXFXFXFXFXFXFXFXFXFXFXFX",
"FXFXFXFXFXFXFXFXFXFXFXFXFXFXFXFXFXFXFXFXFXFXFXFXFXFXFXi B.@XbXNXCXDXSXzXaXzXSXz FXFXFXFXFXFXFXFXFXFXFXFXFXFXFXFXFXFXFXFXFXFXFXFX",
"FXFXFXFXFXFXFXFXFXFXFXFXFXFXFXFXFXFXFXFXFXFXFXFXFXFXFXq n. X=XMXVXBXjXfXkXlXfXz FXFXFXFXFXFXFXFXFXFXFXFXFXFXFXFXFXFXFXFXFXFXFXFX",
"FXFXFXFXFXFXFXFXFXFXFXFXFXFXFXFXFXFXFXFXFXFXFXFXFXFXd f.B.q.-XF.4.|.mXgXkXlXhXU FXFXFXFXFXFXFXFXFXFXFXFXFXFXFXFXFXFXFXFXFXFXFXFX",
"FXFXFXFXFXFXFXFXFXFXFXFXFXFXFXFXFXFXFXFXFXFXFXFXFXFXe n.@XB.=X@X0.T xXmXhXZXxXz FXFXFXFXFXFXFXFXFXFXFXFXFXFXFXFXFXFXFXFXFXFXFXFX",
"FXFXFXFXFXFXFXFXFXFXFXFXFXFXFXFXFXFXFXFXFXFXFXFXFXFXe OXB. X=X-Xk.|.F D |.BXT FXFXFXFXFXFXFXFXFXFXFXFXFXFXFXFXFXFXFXFXFXFXFXFXFX",
"FXFXFXFXFXFXFXFXFXFXFXFXFXFXFXFXFXFXFXFXFXFXFXFXFXFX- 6.B. X=XbX|.c.X 0.*Xx.Y FXFXFXFXFXFXFXFXFXFXFXFXFXFXFXFXFXFXFXFXFXFXFXFXFX",
"FXFXFXFXFXFXFXFXFXFXFXFXFXFXFXFXFXFXFXFXFX    . = - . = > l.@XbX|.0.6.+XVXJ FXFXFXFXFXFXFXFXFXFXFXFXFXFXFXFXFXFXFXFXFXFXFXFXFXFX",
"FXFXFXFXFXFXFXFXFXFXFXFXFXFXFXFXFXFXFXFX. , : 5 4 2 4 : r y OX-XMXbXbXvXvXx.FXFXFXFXFXFXFXFXFXFXFXFXFXFXFXFXFXFXFXFXFXFXFXFXFXFX",
"FXFXFXFXFXFXFXFXFXFXFXFXFXFXFXFXFXFX& : 2 W ^ Q ^ ~ ! ) 3 =.-. X@X-XbXM.6.M FXFXFXFXFXFXFXFXFXFXFXFXFXFXFXFXFXFXFXFXFXFXFXFXFXFX",
"FXFXFXFXFXFXFXFXFXFXFXFXFXFXFXFXFX- 1 ` ^ ^ ^  . .....{ } _ q.-.q.-X$X8.` u 0 FXFXFXFXFXFXFXFXFXFXFXFXFXFXFXFXFXFXFXFXFXFXFXFXFX",
"FXFXFXFXFXFXFXFXFXFXFXFXFXFXFX* ; W ' ' ~ ~ ..~  ...+.%.%.[ } &._ 8.' ;.{ ` > FXFXFXFXFXFXFXFXFXFXFXFXFXFXFXFXFXFXFXFXFXFXFXFXFX",
"FXFXFXFXFXFXFXFXFXFXFXFXFXFX& 2 ) ' ] ....O.O.] ! ~ ..X.X.t.r.) ) } r.e.+.W * FXFXFXFXFXFXFXFXFXFXFXFXFXFXFXFXFXFXFXFXFXFXFXFXFX",
"FXFXFXFXFXFXFXFXFXFXFXFXFX- 4 ` ! ..X.@.y.y.u.~ E ..#.@.@.#.t.e.w.Q ] e.p.W . FXFXFXFXFXFXFXFXFXFXFXFXFXFXFXFXFXFXFXFXFXFXFXFXFX",
"FXFXFXFXFXFXFXFXFXFXFXFXo & ( ^ ] O.$.y.y.t.o.Q R o.t.$.y.@.y.i.e.! E w.e.W FXFXFXFXFXFXFXFXFXFXFXFXFXFXFXFXFXFXFXFXFXFXFXFXFXFX",
"FXFXFXFXFXFXFXFXFXFXFXm 4.-.4 ) e.u.$.$.y.t.;.2 R ] #.$.$.$.y.@.%...E w.p./ FXFXFXFXFXFXFXFXFXFXFXFXFXFXFXFXFXFXFXFXFXFXFXFXFXFX",
"FXFXFXFXFXFXFXFXFXFXF S.XXE.u / [ t.y.y.t.;./ 1 R ! X.#.$.$.$.y.u.] 2 { p./ FXFXFXFXFXFXFXFXFXFXFXFXFXFXFXFXFXFXFXFXFXFXFXFXFXFX",
"FXFXFXFXFXFXFXFXFXFX0.XX8X,XQ.u / [ u.%.+.W 1 1 2 ! ....%.i.u.%.e.Q 1 W ;./ FXFXFXFXFXFXFXFXFXFXFXFXFXFXFXFXFXFXFXFXFXFXFXFXFXFX",
"FXFXFXFXFXFXFXFXFXc 9.E.,X3XyX<Xq.( ) { ` ` 5 ; 2 2 Q ' ' ' ' [ W &.q.r t 3 FXFXFXFXFXFXFXFXFXFXFXFXFXFXFXFXFXFXFXFXFXFXFXFXFXFX",
"FXFXFXFXFXFXFXFXFXFXB 2.T.`.7XqX8XU.t 3 f.FXd.& : ; 1 1 3 t t u 1.E.tXE.y B l.FXFXFXFXFXFXFXFXFXFXFXFXFXFXFXFXFXFXFXFXFXFXFXFXFX",
"FXFXFXFXFXFXFXFXFXFXFXB Z.^.<XqXyXI.9 i z.T Y   & - , r *.R.XX<XyXuX8XoXy +XVXk.FXFXFXFXFXFXFXFXFXFXFXFXFXFXFXFXFXFXFXFXFXFXFXFX",
"FXFXFXFXFXFXFXFXFXFXFXFXV ,.D.<XD.>.=.cXvXz.m x.7 -.q.Y.T.3X8X8XuXuXeXx S.cX|.J FXFXFXFXFXFXFXFXFXFXFXFXFXFXFXFXFXFXFXFXFXFXFXFX",
"FXFXFXFXFXFXFXFXFXFXFXFXFXFXn F.>.q.4.*X0.9 F x.M <.I._._.,X7X,XeXiX:Xx +XvXJ s FXFXFXFXFXFXFXFXFXFXFXFXFXFXFXFXFXFXFXFXFXFXFXFX",
"FXFXFXFXFXFXFXFXFXFXFXFXFXFXFXx M {.4.VXbXk.z.T o v 9.F.D.R.<X<XtXtXF.v c.A S FXFXFXFXFXFXFXFXFXFXFXFXFXFXFXFXFXFXFXFXFXFXFXFXFX",
"FXFXFXFXFXFXFXFXFXFXFXFXFXFXFXFX9 J 4.%XvXvX|.8 FX+ > > 7 r y t t u 6 c 6 + FXFXFXFXFXFXFXFXFXFXFXFXFXFXFXFXFXFXFXFXFXFXFXFXFXFX",
"FXFXFXFXFXFXFXFXFXFXFXFXFXFXFXFXFXFXq k.Y k.G FXFXo X > r t ( } w.;.7 FXFXFXFXFXFXFXFXFXFXFXFXFXFXFXFXFXFXFXFXFXFXFXFXFXFXFXFXFX",
"FXFXFXFXFXFXFXFXFXFXFXFXFXFXFXFXFXFXFXFXFXFXFXFXFX6 7 r 3 3 : 3 W _ u ,.x m FXFXFXFXFXFXFXFXFXFXFXFXFXFXFXFXFXFXFXFXFXFXFXFXFXFX",
"FXFXFXFXFXFXFXFXFXFXFXFXFXFXFXFXFXFXFXFXFXFXFXFXB D.U.E.U.Z.&.&.&.>.W.<X>XoXV K S FXFXFXFXFXFXFXFXFXFXFXFXFXFXFXFXFXFXFXFXFXFXFX",
"FXFXFXFXFXFXFXFXFXFXFXFXFXFXFXFXFXFXFXFXFXFXFXc <.^.).7X7X_.~.G.G.~.`.5X9XuXiX:XZ 9.K K FXFXFXFXFXFXFXFXFXFXFXFXFXFXFXFXFXFXFXFX",
"FXFXFXFXFXFXFXFXFXFXFXFXFXFXFXFXFXFXFXFXFXFXFXx Q._.,XqX7X3X`.~.K.K.).[.6X[.wXuXuXiXeXS.S.S.T FXFXFXFXFXFXFXFXFXFXFXFXFXFXFXFXFX",
"FXFXFXFXFXFXFXFXFXFXFXFXFXFXFXFXFXFXFXFXFXFXc C (.].9X9X4XqX`.K.P.P.P.'.[.[.[.5X0X2X7XeX:X:XS.c L FXFXFXFXFXFXFXFXFXFXFXFXFXFXFX",
"FXFXFXFXFXFXFXFXFXFXFXFXFXFXFXFXFXFXFXFXFXFXv Q.(.6X2XwX5X4X`.P.P./.P.K.'.].).(.6X5X0X0XqXqXeX:XZ S.FXFXFXFXFXFXFXFXFXFXFXFXFXFX",
"FXFXFXFXFXFXFXFXFXFXFXFXFXFXFXFXFXFXFXFXFXm <.(.,X5XwXwX5X2X`.).Y.Y./.~.L.).`.).(.wX2X].6X5X6XuXiXrXN FXFXFXFXFXFXFXFXFXFXFXFXFX",
"FXFXFXFXFXFXFXFXFXFXFXFXFXFXFXFXFXFXFXFX8 8 D._.6X6XwX1X[.9X'.G.*.:.A.^./.~._.~.G.).`.`.].2XqX7XuXrXL FXFXFXFXFXFXFXFXFXFXFXFXFX",
"FXFXFXFXFXFXFXFXFXFXFXFXFXFXFXFXFXFXFX+ M v A._.1X1XwX1X1X7XW.n x x x :.>.I.I.D.1.H.L.L.K.L.).7X1X>Xx FXFXFXFXFXFXFXFXFXFXFXFXFX",
"FXFXFXFXFXFXFXFXFXFXFXFXFXFXFXFXFXFXFX8 9.1.G.).2X5X5X[.,X<XR.x FXFXFXFXm v 8 9 9 *.!.~.K.K.L.'.W.2.m FXFXFXFXFXFXFXFXFXFXFXFXFX",
"FXFXFXFXFXFXFXFXFXFXFXFXFXFXFXFXFXFXw y R.G.H.`.4X6X5X[.W.>XC FXFXFXFXFXFXFX+ m ,.Z.U.E.!.^.G.A.2.9 M FXFXFXFXFXFXFXFXFXFXFXFXFX",
"FXFXFXFXFXFXFXFXFXFXFXFXFXFXFXFXFXFXw ,.Q.L.L.`.5X6X].].G.,.9 FXFXFXFXFXFXFXFXe F J v =.,.b b u 7 = H FXFXFXFXFXFXFXFXFXFXFXFXFX",
"FXFXFXFXFXFXFXFXFXFXFXFXFXFXFXFXFXFXq n G.K.L.'.4X5X5X,XZ.x FXFXFXFXFXFXFXFXFXFXFXe e + X * = , i 5.g FXFXFXFXFXFXFXFXFXFXFXFXFX",
"FXFXFXFXFXFXFXFXFXFXFXFXFXFXFXFXFX< o &.Y.~.L.'.3X2X,X<Xn FXFXFXFXFXFXFXFXFXFXFXFXFXFXFX0 g 5.s.h.#Xd.Y FXFXFXFXFXFXFXFXFXFXFXFX",
"FXFXFXFXFXFXFXFXFXFXFXFXFXFXFXFX0 l > 7 3.Y./.L./._._.XXV FXFXFXFXFXFXFXFXFXFXFXFXFXFXFXO g | s.v.$X#Xf.FXFXFXFXFXFXFXFXFXFXFXFX",
"FXFXFXFXFXFXFXFXFXFXFXFXFXFXFXa k 5.5.r u 3.E.!.!.T.R.v FXFXFXFXFXFXFXFXFXFXFXFXFXFXFXFXFXp f k g.C.vXm.T FXFXFXFXFXFXFXFXFXFXFX",
"FXFXFXFXFXFXFXFXFXFXFXFXFXp f j s.g.g.r > y >.2.<.<.y 6 FXFXFXFXFXFXFXFXFXFXFXFXFXFXFXFXFXFXFXa | v.OXM.z.FXFXFXFXFXFXFXFXFXFXFX",
"FXFXFXFXFXFXFXFXFXFXFXFXa g f.g.7.g.j.g.q X 7 e 8 8 FXFXFXFXFXFXFXFXFXFXFXFXFXFXFXFXFXFXFXFXFX$ g g.b.#XN.Y FXFXFXFXFXFXFXFXFXFX",
"FXFXFXFXFXFXFXFXFXFXO a l 7.g.h.C.C.V.N.0 @ FXFXFXFXFXFXFXFXFXFXFXFXFXFXFXFXFXFXFXFXFXFXFXFXFXFXq h v.#XV.f.FXFXFXFXFXFXFXFXFXFX",
"FXFXFXFXFXFXFXFXFXa * | g.g.C.V.vXM.H a FXFXFXFXFXFXFXFXFXFXFXFXFXFXFXFXFXFXFXFXFXFXFXFXFXFXFXFXFX5 j.s.g.5 g FXFXFXFXFXFXFXFXFX",
"FXFXFXFXFXFXFXFX0 H h l j.V.V.V.N.z.FXFXFXFXFXFXFXFXFXFXFXFXFXFXFXFXFXFXFXFXFXFXFXFXFXFXFXFXFXFXFX: l | 7.h.l.H s FXFXFXFXFXFXFX",
"FXFXFXFXFXFXFXO > g g.6.g.j.#Xd.f FXFXFXFXFXFXFXFXFXFXFXFXFXFXFXFXFXFXFXFXFXFXFXFXFXFXFXFXFXFXFXFXl f.j.V.V.N.g O s FXFXFXFXFXFX",
"FXFXFXFXFXFXFXp 0 7 H g.j.h 5.g FXFXFXFXFXFXFXFXFXFXFXFXFXFXFXFXFXFXFXFXFXFXFXFXFXFXFXFXFXFXFXFXFXa d.N.$XC.i q D Y f FXFXFXFXFX",
"FXFXFXFXFXFX@ s A 8 6 8 q D FXFXFXFXFXFXFXFXFXFXFXFXFXFXFXFXFXFXFXFXFXFXFXFXFXFXFXFXFXFXFXFXFXFXFXa j j f.a 0 w d A S p FXFXFXFX",
"FXFXFXFXFXFX@ S D F F F D w FXFXFXFXFXFXFXFXFXFXFXFXFXFXFXFXFXFXFXFXFXFXFXFXFXFXFXFXFXFXFXFXFXFXFXO $ f f @ p w # # $ $ FXFXFXFX",
"FXFXFXFXFXO d s s e w A # O   FXFXFXFXFXFXFXFXFXFXFXFXFXFXFXFXFXFXFXFXFXFXFXFXFXFXFXFXFXFXFXFXFXFXFXFXFXFXFXFXFXFXFXFXFXFXFXFXFX",
"FXFXFXFXFXFXFXFXFXFXFXFXFXFXFXFXFXFXFXFXFXFXFXFXFXFXFXFXFXFXFXFXFXFXFXFXFXFXFXFXFXFXFXFXFXFXFXFXFXFXFXFXFXFXFXFXFXFXFXFXFXFXFXFX",
"FXFXFXFXFXFXFXFXFXFXFXFXFXFXFXFXFXFXFXFXFXFXFXFXFXFXFXFXFXFXFXFXFXFXFXFXFXFXFXFXFXFXFXFXFXFXFXFXFXFXFXFXFXFXFXFXFXFXFXFXFXFXFXFX",
"FXFXFXFXFXFXFXFXFXFXFXFXFXFXFXFXFXFXFXFXFXFXFXFXFXFXFXFXFXFXFXFXFXFXFXFXFXFXFXFXFXFXFXFXFXFXFXFXFXFXFXFXFXFXFXFXFXFXFXFXFXFXFXFX",
"FXFXFXFXFXFXFXFXFXFXFXFXFXFXFXFXFXFXFXFXFXFXFXFXFXFXFXFXFXFXFXFXFXFXFXFXFXFXFXFXFXFXFXFXFXFXFXFXFXFXFXFXFXFXFXFXFXFXFXFXFXFXFXFX",
"FXFXFXFXFXFXFXFXFXFXFXFXFXFXFXFXFXFXFXFXFXFXFXFXFXFXFXFXFXFXFXFXFXFXFXFXFXFXFXFXFXFXFXFXFXFXFXFXFXFXFXFXFXFXFXFXFXFXFXFXFXFXFXFX",
"FXFXFXFXFXFXFXFXFXFXFXFXFXFXFXFXFXFXFXFXFXFXFXFXFXFXFXFXFXFXFXFXFXFXFXFXFXFXFXFXFXFXFXFXFXFXFXFXFXFXFXFXFXFXFXFXFXFXFXFXFXFXFXFX",
"FXFXFXFXFXFXFXFXFXFXFXFXFXFXFXFXFXFXFXFXFXFXFXFXFXFXFXFXFXFXFXFXFXFXFXFXFXFXFXFXFXFXFXFXFXFXFXFXFXFXFXFXFXFXFXFXFXFXFXFXFXFXFXFX"
};
