/* XPM */
static char *attack1mv31739460972[] = {
/* columns rows colors chars-per-pixel */
"64 64 244 2 ",
"   c #351A09",
".  c #2E0F01",
"X  c #372716",
"o  c #3E3324",
"O  c #570701",
"+  c #481601",
"@  c #551702",
"#  c #471715",
"$  c #591B1A",
"%  c #4B0809",
"&  c #680802",
"*  c #790604",
"=  c #681700",
"-  c #721710",
";  c #4A2800",
":  c #5E2300",
">  c #562A05",
",  c #5D3307",
"<  c #492C19",
"1  c #55281A",
"2  c #4A351C",
"3  c #5A3A14",
"4  c #6A2602",
"5  c #712300",
"6  c #623300",
"7  c #6D3D00",
"8  c #6C3705",
"9  c #783706",
"0  c #662717",
"q  c #6E3217",
"w  c #4A2622",
"e  c #562A24",
"r  c #473523",
"t  c #583824",
"y  c #533935",
"u  c #792D23",
"i  c #653829",
"p  c #74382D",
"a  c #663A33",
"s  c #71332A",
"d  c #684B07",
"f  c #734301",
"g  c #7E4D01",
"h  c #74480A",
"j  c #7B5101",
"k  c #7A560B",
"l  c #76471B",
"z  c #665A18",
"x  c #785518",
"c  c #6A4918",
"v  c #64620C",
"b  c #58452D",
"n  c #5B4A37",
"m  c #534E33",
"M  c #664629",
"N  c #744627",
"B  c #6A4837",
"V  c #784438",
"C  c #785738",
"Z  c #70562E",
"A  c #756A2A",
"S  c #57491D",
"D  c #3C3E6E",
"F  c #4F3C58",
"G  c #2C427C",
"H  c #49475D",
"J  c #6C4C42",
"K  c #794A42",
"L  c #775744",
"P  c #6D5749",
"I  c #776A50",
"U  c #626C70",
"Y  c #830600",
"T  c #841B01",
"R  c #931502",
"E  c #971A11",
"W  c #8C0F0A",
"Q  c #A81A06",
"!  c #B31800",
"~  c #AC1710",
"^  c #97230C",
"/  c #833D08",
"(  c #982A13",
")  c #8E310C",
"_  c #B92505",
"`  c #AE300C",
"'  c #87392D",
"]  c #A93A27",
"[  c #C22705",
"{  c #D22C03",
"}  c #D23A05",
"|  c #EC3E03",
" . c #F33F04",
".. c #895602",
"X. c #914D0D",
"o. c #A24811",
"O. c #896405",
"+. c #9B6D08",
"@. c #956917",
"#. c #997416",
"$. c #8B6F13",
"%. c #A16203",
"&. c #A87817",
"*. c #AE6C10",
"=. c #96552D",
"-. c #844738",
";. c #885838",
":. c #8D4C31",
">. c #897823",
",. c #947926",
"<. c #916532",
"1. c #B3712B",
"2. c #D04213",
"3. c #E54408",
"4. c #F44305",
"5. c #E94A10",
"6. c #C27F3B",
"7. c #CA711D",
"8. c #874842",
"9. c #885448",
"0. c #96564B",
"q. c #9C544B",
"w. c #A45B4F",
"e. c #966B49",
"r. c #827545",
"t. c #987748",
"y. c #946754",
"u. c #A36C4A",
"i. c #A97948",
"p. c #A96456",
"a. c #A87A55",
"s. c #B76E58",
"d. c #947565",
"f. c #B66B62",
"g. c #B97868",
"h. c #A96F64",
"j. c #C07249",
"k. c #C87A6D",
"l. c #C57D73",
"z. c #97881C",
"x. c #B78916",
"c. c #AB8514",
"v. c #9E8923",
"b. c #938F2E",
"n. c #A58E33",
"m. c #AF9130",
"M. c #B9A634",
"N. c #C89316",
"B. c #DDB61B",
"V. c #EBBC1B",
"C. c #E7B91B",
"Z. c #F1B919",
"A. c #E5AF1B",
"S. c #C59826",
"D. c #C99A36",
"F. c #C08D32",
"G. c #C9A627",
"H. c #D8A728",
"J. c #DAB628",
"K. c #D5B838",
"L. c #D0AF36",
"P. c #E3AD27",
"I. c #E7B727",
"U. c #F1BA22",
"Y. c #E8B735",
"T. c #E2AE34",
"R. c #DEC134",
"E. c #EBC825",
"W. c #F4D938",
"Q. c #EFCE31",
"!. c #FBE63B",
"~. c #FEF43D",
"^. c #B48A58",
"/. c #B3A94F",
"(. c #A98766",
"). c #B89668",
"_. c #B68C73",
"`. c #C98955",
"'. c #D3905A",
"]. c #CFB048",
"[. c #E9AD42",
"{. c #ECB648",
"}. c #CB9967",
"|. c #D59C66",
" X c #CA8476",
".X c #D38C7D",
"XX c #CE8F68",
"oX c #C9A576",
"OX c #D9A978",
"+X c #D9A069",
"@X c #E5AA6D",
"#X c #E8B278",
"$X c #F7B97D",
"%X c #EAAC76",
"&X c #C7C651",
"*X c #F6C645",
"=X c #F8D646",
"-X c #E4D758",
";X c #F4DB57",
":X c #EDD348",
">X c #FBE748",
",X c #FDF44C",
"<X c #FAF64A",
"1X c #FCEA56",
"2X c #FEF553",
"3X c #FEF459",
"4X c #FBF754",
"5X c #FDDE66",
"6X c #ECD767",
"7X c #EDE56C",
"8X c #F6E766",
"9X c #FCF263",
"0X c #FFFC70",
"qX c #385889",
"wX c #4D7092",
"eX c #807F9E",
"rX c #518498",
"tX c #6F8E91",
"yX c #4F8AAB",
"uX c #77A3BA",
"iX c #3582CA",
"pX c #5291D0",
"aX c #7DBEE4",
"sX c #93918D",
"dX c #B89FA5",
"fX c #AABEBC",
"gX c #A4A39E",
"hX c #CF9886",
"jX c #D2AD82",
"kX c #E5A986",
"lX c #E6B887",
"zX c #F1B387",
"xX c #FCC589",
"cX c #FBC892",
"vX c #FED89C",
"bX c #EFC891",
"nX c #E9CBA8",
"mX c #EFE8B4",
"MX c #83B7C4",
"NX c #BBBDC9",
"BX c #BFDAC9",
"VX c #A3D8E8",
"CX c #E0DCC1",
"ZX c None",
/* pixels */
"ZXZXZXZXZXZXZXZXZXZXZXZXZXZXZXZXZXZXZXZXZXZXZXZXZXZXZXZXZXZXZXZXZXZXZXZXZXZXZXZXZXZXZXZXZXZXZXZXZXZXZXZXZXZXZXZXZXZXZXZXZXZXZXZX",
"ZXZXZXZXZXZXZXZXZXZXZXZXZXZXZXZXZXZXZXZXZXZXZXZXZXZXZXZXZXZXZXZXZXZXZXZXZXZXZXZXZXZXZXZXZXZXZXZXZXZXZXZXZXZXZXZXZXZXZXZXZXZXZXZX",
"ZXZXZXZXZXZXZXZXZXZXZXZXZXZXZXZXZXZXZXZXZXZXZXZXZXZXZXZXZXZXZXZXZXZXZXZXZXZXZXZXZXZXZXZXZXZXZXZXZXZXZXZXZXZXZXZXZXZXZXZXZXZXZXZX",
"ZXZXZXZXZXZXZXZXZXZXZXZXZXZXZXZXZXZXZXZXZXZXZXZXZXZXZXZXZXZXZXZXZXZXZXZXZXZXZXZXZXZXZXZXZXZXZXZXZXZXZXZXZXZXZXZXZXZXZXZXZXZXZXZX",
"ZXZXZXZXZXZXZXZXZXZXZXZXZXZXZXZXZXZXZXZXZXZXZXZXZXZXZXZXZXZXZXZXZXZXZXZXZXZXZXZXZXZXZXZXZXZXZXZXZXZXZXZXZXZXZXZXZXZXZXZXZXZXZXZX",
"ZXZXZXZXZXZXZXZXZXZXZXZXZXZXZXZXZXZXZXZXZXZXZXZXZXZXZXZXZXZXZXZXZXZXZXZXZXZXZXZXZXZXZXZXZXZXZXZXZXZXZXZXZXZXZXZXZXZXZXZXZXZXZXZX",
"ZXZXZXZXZXZXZXZXZXZXZXZXZXZXZXZXZXZXZXZXZXZXZXZXZXZXZXZXZXZXZXZXZXZXZXZXZXZXZXZXZXZXZXZXZXZXZXZXZXZXZXZXZXZXZXZXZXZXZXZXZXZXZXZX",
"ZXZXZXZXZXZXZXZXZXZXZXZXZXZXZXZXZXZXZXZXZXZXZXZXZXZXZXZXZXZXZXZXZXZXZXZXZXZXZXZXZXZXZXZXZXZXZXZXZXZXZXZXZXZXZXZXZXZXZXZXZXZXZXZX",
"ZXZXZXZXZXZXZXZXZXZXZXZXZXZXZXZXZXZXZXZXZXZXZXZXZXZXZXZXZXZXZXZXZXZXZXZXZXZXZXZXZXZXZXZXZXZXZXZXZXZXZXZXZXZXZXZXZXZXZXZXZXZXZXZX",
"ZXZXZXZXZXZXZXZXZXZXZXZXZXZXZXZXZXZXZXZXZXZXZXZXZXZXZXZXZXZXZXZXZXZXH H qXZXZXZXZXZXZXZXZXZXZXZXZXZXZXZXZXZXZXZXZXZXZXZXZXZXZXZX",
"ZXZXZXZXZXZXZXZXZXZXZXZXZXZXZXZXZXZXZXZXZXZXZXZXZXZXZXZXZXZXZXZXB a F D qXqXU ZXZXZXZXZXZXZXZXZXZXZXZXZXZXZXZXZXZXZXZXZXZXZXZXZX",
"ZXZXZXZXZXZXZXZXZXZXZXZXZXZXZXZXZXZXZXZXZXZXZXZXZXZXZXZXZXZXZXB a.hXdXeXwXwXuXtXZXZXZXZXZXZXZXZXZXZXZXZXZXZXZXZXZXZXZXZXZXZXZXZX",
"ZXZXZXZXZXZXZXZXZXZXZXZXZXZXZXZXZXZXZXZXZXZXZXZXZXZXZXZXZXZXB y.}.kXnXCXfXrXyXVXtXZXZXZXZXZXZXZXZXZXZXZXZXZXZXZXZXZXZXZXZXZXZXZX",
"ZXZXZXZXZXZXZXZXZXZXZXZXZXZXZXZXZXZXZXZXZXZXZXZXZXZXZXZXZXZXB i.|.xXvXmXBXMXyXaXuXZXZXZXZXZXZXZXZXZXZXZXZXZXZXZXZXZXZXZXZXZXZXZX",
"ZXZXZXZXZXZXZXZXZXZXZXZXZXZXZXZXZXZXZXZXZXZXZXZXZXZXZXZXZXZXq w.'.$XzXnXfXyXiXpXrXZXZXZXZXZXZXZXZXZXZXZXZXZXZXZXZXZXZXZXZXZXZXZX",
"ZXZXZXZXZXZXZXZXZXZXZXZXZXZXZXZXZXZXZXZXZXZXZXZXZXZXZXZXZXt N s.j.%Xi.r.fXuXpXpXwXZXZXZXZXZXZXZXZXZXZXZXZXZXZXZXZXZXZXZXZXZXZXZX",
"ZXZXZXZXZXZXZXZXZXZXZXZXZXZXZXZXZXZXZXZXZXZXZXZXZXZXZXZXZXn e.'.`.$X^.r.I sXsXfXtXZXZXZXZXZXZXZXZXZXZXZXZXZXZXZXZXZXZXZXP ZXZXZX",
"ZXZXZXZXZXZXZXZXZXZXZXZXZXZXZXZXZXZXZXZXZXZXZXZXZXZXZXZXZXe s.`.'.zXoX).c 3 g.dXU ZXZXZXZXZXZXZXZXZXZXZXZXZXZXZXZXZXZXI (.C ZXZX",
"ZXZXZXZXZXZXZXZXZXZXZXZXZXZXZXZXZXZXZXZXZXZXZXZXZXZXZXZX$ % O ' j.%XkXu.q e.nXd.ZXZXZXZXZXZXZXZXZXP I ZXZXZXZXZXZXZXZXa.lXa.e.ZX",
"ZXZXZXZXZXZXZXZXZXZXZXZXZXZXZXZXZXZXZXZXZXZXZXZXZXZX$ - & - - & ( '.zXzXkXkXkXy.ZXZXZXZXZXZXZXI I P (.ZXZXZXZXZXP L ;.oXXXOXa.ZX",
"ZXZXZXZXZXZXZXZXZXZXZXZXZXZXZXZXZXZXZXZXZXZXZXZXZXZX$ W ( Q Q Q E ^ j.XXOX}.=.q ZXZXZXZXZXZXZXd.(.t.).ZXZXZXZXZXZ ^.^.xXzX+X^.(.",
"ZXZXZXZXZXZXZXZXZXZXZXZXZXZXZXZXZXZXZXZXZXZXZXZXZXe O E _ _ } [ [ ` T - =.:.9 =.:.ZXZXZXZXZXJ L oXoX).).ZXZXZXZXN @X^.$XxX+XoX(.",
"ZXZXZXZXZXZXZXZXZXZXZXZXZXZXZXZXZXZXZXZXZXZXZXZXZX$ * R ! { 4. .| | } } ` = % , ; S ZXZXZXZXM e.oX#X^.t.ZXM Z l 8 $X@X`.vXoXN ZX",
"ZXZXZXZXZXZXZXZXZXZXZXZXZXZXZXZXZXZXZXZXZXZXZXZX# O * W ! {  . .4. . .5.` 1.6.@././.z ZXZXZX6 @X|.6X#X^.C ;.r.u.8 `.#X}.xXe.ZXZX",
"ZXZXZXZXZXZXZXZXZXZXZXZXZXZXZXZXZXZXZXZXZXZXZXZX# & E ~ Q ! { 3.4.4.3.3.` o.%.Y.5X8X-Xv.v.m...=.@X@X+X^.).oXl :.l 1.OXjX(.ZXZXZX",
"ZXZXZXZXZXZXZXZXZXZXZXZXZXZXZXZXZXZXZXZXZXZXZXZX# & ~ ~ Q Q ! 2.3.5.5.} ) ) 7.[.*X*X:X5X8X6Xm.4 ^.xXxXOXnXjX> , 3 1 C L L ZXZXZX",
"ZXZXZXZXZXZXZXZXZXZXZXZXZXZXZXZXZXZXZXZXZXZXZXZX# O E ~ * * Y R _ 2.` * o.o.o.7.S.L.].{.{.D.&.X.g '.cXvX(.z M ZXZXZXZXZXZXZXZXZX",
"ZXZXZXZXZXZXZXZXZXZXZXZXZXZXZXZXZXZXZXZXZXZXZXZXZX@ = ( ^ ( E R Y ^ T = 8 O 5 5 f j j j ..g 7 x :.;.oXt.ZXZXZXZXZXZXZXZXZXZXZXZX",
"ZXZXZXZXZXZXZXZXZXZXZXZXZXZXZXZXZXZXZXZXZXZXZXZXZX1 @ O = ) ( ] T = O 4 9 = o./ ZXZXZXZXZXZXZXZXS M M ZXZXZXZXZXZXZXZXZXZXZXZXZX",
"ZXZXZXZXZXZXZXZXZXZXZXZXZXZXZXZXZXZXZXZXZXZXZXZXZXt l h = O & & 5 X.g j 1.*./ 0 ZXZXZXZXZXZXZXZXZXZXZXZXZXZXZXZXZXZXZXZXZXZXZXZX",
"ZXZXZXZXZXZXZXZXZXZXZXZXZXZXZXZXZXZXZXZXZXZXZXZXZXZXl <.&.%.X.%.N.*X:X;X5XM.:.ZXZXZXZXZXZXZXZXZXZXZXZXZXZXZXZXZXZXZXZXZXZXZXZXZX",
"ZXZXZXZXZXZXZXZXZXZXZXZXZXZXZXZXZXZXZXZXZXZXZXZXZXZX; h @.D.[.T.*X*X;X7X].>.ZXZXZXZXZXZXZXZXZXZXZXZXZXZXZXZXZXZXZXZXZXZXZXZXZXZX",
"ZXZXZXZXZXZXZXZXZXZXZXZXZXZXZXZXZXZXZXZXZXZXZXZXZXZX  + : : = @.m.].m.,.z ZXZXZXZXZXZXZXZXZXZXZXZXZXZXZXZXZXZXZXZXZXZXZXZXZXZXZX",
"ZXZXZXZXZXZXZXZXZXZXZXZXZXZXZXZXZXZXZXZXZXZXZXZXZX3 ; + + + : @ 8 @ $.ZXZXZXZXZXZXZXZXZXZXZXZXZXZXZXZXZXZXZXZXZXZXZXZXZXZXZXZXZX",
"ZXZXZXZXZXZXZXZXZXZXZXZXZXZXZXZXZXZXZXZXZXZXZXZXk O.&.*.f , , 7 ..6 O.>.ZXZXZXZXZXZXZXZXZXZXZXZXZXZXZXZXZXZXZXZXZXZXZXZXZXZXZXZX",
"ZXZXZXZXZXZXZXZXZXZXZXZXZXZXZXZXZXZXZXZXZXZXZXk &.P.I.V.G.x.+.&.H.H.G.M.b.v A ZXZXZXZXZXZXZXZXZXZXZXZXZXZXZXZXZXZXZXZXZXZXZXZXZX",
"ZXZXZXZXZXZXZXZXZXZXZXZXZXZXZXZXZXZXZXZXZXA @.D.P.U.V.E.B.I.G.T.Y.Y.R.1X4X-X&XM.v A ZXZXZXZXZXZXZXZXZXZXZXZXZXZXZXZXZXZXZXZXZXZX",
"ZXZXZXZXZXZXZXZXZXZXZXZXZXZXZXZXZXZXZXZXZX,.x.Y.I.E.E.!.E.C.I.H.P.I.V.E.!.4X4X0X7X&X/.A ZXZXZXZXZXZXZXZXZXZXZXZXZXZXZXZXZXZXZXZX",
"ZXZXZXZXZXZXZXZXZXZXZXZXZXZXZXZXZXZXZXx O.x.Y.I.=X1X,X~.~.C.H.*.U.U.U.V.V.E.>X1X9X7X7X&Xb.z ZXZXZXZXZXZXZXZXZXZXZXZXZXZXZXZXZXZX",
"ZXZXZXZXZXZXZXZXZXZXZXZXZXZXZXZXZXZXA v.L.I.Q.=X1X3X,X<XE.I.....N.P.C.V.Z.V.E.Q.W.9X9X8X7X].A ZXZXZXZXZXZXZXZXZXZXZXZXZXZXZXZXZX",
"ZXZXZXZXZXZXZXZXZXZXZXZXZXZXZXZX, h #.K.E.W.>X4X4X2X2X>XL.c.k k ..&.H.Z.Z.Z.Q.W.Q.!.>X4X1X-Xn.ZXZXZXZXZXZXZXZXZXZXZXZXZXZXZXZXZX",
"ZXZXZXZXZXZXZXZXZXZXZXZXZXZXZXr h +.x.R.W.<X<X4X<X4X>XK.$.ZXZXZXd d +.H.Y.P.A.Q.E.Q.Q.W.{.M.A ZXZXZXZXZXZXZXZXZXZXZXZXZXZXZXZXZX",
"ZXZXZXZXZXZXZXZXZXZXZXZXZXZXZXM @.S.N.C.:X4X4X<X~.<X>Xv.A ZXZXZXZXZXc f 7 7 #.m.].Y.K.S.#.>.ZXZXZXZXZXZXZXZXZXZXZXZXZXZXZXZXZXZX",
"ZXZXZXZXZXZXZXZXZXZXZXZXZXZXZX; #.H.A.V.!.4X<X4X~.Q.K.n.ZXZXZXZXZXZXZXZXZX> + . 7 7 ..6 , ZXZXZXZXZXZXZXZXZXZXZXZXZXZXZXZXZXZXZX",
"ZXZXZXZXZXZXZXZXZXZXZXZXZXZXe ; ..S.I.Z.E.!.1X3X>XL.z.ZXZXZXZXZXZXZXZXZXZX< 1 # @ = > + ZXZXZXZXZXZXZXZXZXZXZXZXZXZXZXZXZXZXZXZX",
"ZXZXZXZXZXZXZXZXZXZXZXZXZXa 0 O : &.H.I.C.Q.;X;X].v.ZXZXZXZXZXZXZXZXZXZXZXZXa 8.0.f.g.i ZXZXZXZXZXZXZXZXZXZXZXZXZXZXZXZXZXZXZXZX",
"ZXZXZXZXZXZXZXZXZXZXZXZXK 8.8.u = 9 c.L.P.H.H.D.,.ZXZXZXZXZXZXZXZXZXZXZXZXZXi w.f..Xh.V ZXZXZXZXZXZXZXZXZXZXZXZXZXZXZXZXZXZXZXZX",
"ZXZXZXZXZXZXZXZXZXZXZXa 9.p.p.8.q @ > O.&.O.g x ZXZXZXZXZXZXZXZXZXZXZXZXZXZXp w.k..Xd.ZXZXZXZXZXZXZXZXZXZXZXZXZXZXZXZXZXZXZXZXZX",
"ZXZXZXZXZXZXZXZXZXy M ;.p.l.k.p.9.t ZXZXZXZXZXZXZXZXZXZXZXZXZXZXZXZXZXZXZXe ' f.k.hXB ZXZXZXZXZXZXZXZXZXZXZXZXZXZXZXZXZXZXZXZXZX",
"ZXZXZXZXZXZXZXZX1 p :.s..Xg.g.9.J ZXZXZXZXZXZXZXZXZXZXZXZXZXZXZXZXZXZXZXZXa p f.hXh.P ZXZXZXZXZXZXZXZXZXZXZXZXZXZXZXZXZXZXZXZXZX",
"ZXZXZXZXZXZXZXe p p.g. Xg.w.9.ZXZXZXZXZXZXZXZXZXZXZXZXZXZXZXZXZXZXZXZXZXZXe 8.' q.-.ZXZXZXZXZXZXZXZXZXZXZXZXZXZXZXZXZXZXZXZXZXZX",
"ZXZXZXZXZXZX$ 0 q.p. Xg.K I ZXZXZXZXZXZXZXZXZXZXZXZXZXZXZXZXZXZXZXZXZXZXw $ ' u p ' ZXZXZXZXZXZXZXZXZXZXZXZXZXZXZXZXZXZXZXZXZXZX",
"ZXZXZXZXZXi -.u ' -.w.8.ZXZXZXZXZXZXZXZXZXZXZXZXZXZXZXZXZXZXZXZXZXZXZXZX# 0.f.l.l.V ZXZXZXZXZXZXZXZXZXZXZXZXZXZXZXZXZXZXZXZXZXZX",
"ZXZXZXX < p =.p.w.u $ ZXZXZXZXZXZXZXZXZXZXZXZXZXZXZXZXZXZXZXZXZXZXZXZXX a 0.l. Xw.a < o ZXZXZXZXZXZXZXZXZXZXZXZXZXZXZXZXZXZXZXZX",
"ZXZXo < < > > 1 0.0.y ZXZXZXZXZXZXZXZXZXZXZXZXZXZXZXZXZXZXZXZXZXZXZXZX  a K 0.p < t m m H ZXZXZXZXZXZXZXZXZXZXZXZXZXZXZXZXZXZXZX",
"ZXm b b M Z C C 1 # w ZXZXZXZXZXZXZXZXZXZXZXZXZXZXZXZXZXZXZXZXZXZXZXZX. X < r < r 2 r S o o ZXZXZXZXZXZXZXZXZXZXZXZXZXZXZXZXZXZX",
"ZXo n b n b n b X ZXZXZXZXZXZXZXZXZXZXZXZXZXZXZXZXZXZXZXZXZXZXZXZXZXZXZXZXZXZXZXZXZXZXZXZXZXZXZXZXZXZXZXZXZXZXZXZXZXZXZXZXZXZXZX",
"ZXZXZXZXZXZXZXZXZXZXZXZXZXZXZXZXZXZXZXZXZXZXZXZXZXZXZXZXZXZXZXZXZXZXZXZXZXZXZXZXZXZXZXZXZXZXZXZXZXZXZXZXZXZXZXZXZXZXZXZXZXZXZXZX",
"ZXZXZXZXZXZXZXZXZXZXZXZXZXZXZXZXZXZXZXZXZXZXZXZXZXZXZXZXZXZXZXZXZXZXZXZXZXZXZXZXZXZXZXZXZXZXZXZXZXZXZXZXZXZXZXZXZXZXZXZXZXZXZXZX",
"ZXZXZXZXZXZXZXZXZXZXZXZXZXZXZXZXZXZXZXZXZXZXZXZXZXZXZXZXZXZXZXZXZXZXZXZXZXZXZXZXZXZXZXZXZXZXZXZXZXZXZXZXZXZXZXZXZXZXZXZXZXZXZXZX",
"ZXZXZXZXZXZXZXZXZXZXZXZXZXZXZXZXZXZXZXZXZXZXZXZXZXZXZXZXZXZXZXZXZXZXZXZXZXZXZXZXZXZXZXZXZXZXZXZXZXZXZXZXZXZXZXZXZXZXZXZXZXZXZXZX",
"ZXZXZXZXZXZXZXZXZXZXZXZXZXZXZXZXZXZXZXZXZXZXZXZXZXZXZXZXZXZXZXZXZXZXZXZXZXZXZXZXZXZXZXZXZXZXZXZXZXZXZXZXZXZXZXZXZXZXZXZXZXZXZXZX",
"ZXZXZXZXZXZXZXZXZXZXZXZXZXZXZXZXZXZXZXZXZXZXZXZXZXZXZXZXZXZXZXZXZXZXZXZXZXZXZXZXZXZXZXZXZXZXZXZXZXZXZXZXZXZXZXZXZXZXZXZXZXZXZXZX",
"ZXZXZXZXZXZXZXZXZXZXZXZXZXZXZXZXZXZXZXZXZXZXZXZXZXZXZXZXZXZXZXZXZXZXZXZXZXZXZXZXZXZXZXZXZXZXZXZXZXZXZXZXZXZXZXZXZXZXZXZXZXZXZXZX"
};
