/* XPM */
static char *attack1mv3_left1739523275[] = {
/* columns rows colors chars-per-pixel */
"64 64 244 2 ",
"   c #351A09",
".  c #2E0F01",
"X  c #372716",
"o  c #3E3324",
"O  c #570701",
"+  c #481601",
"@  c #551702",
"#  c #471715",
"$  c #591B1A",
"%  c #4B0809",
"&  c #680802",
"*  c #790604",
"=  c #681700",
"-  c #721710",
";  c #4A2800",
":  c #5E2300",
">  c #562A05",
",  c #5D3307",
"<  c #492C19",
"1  c #55281A",
"2  c #4A351C",
"3  c #5A3A14",
"4  c #6A2602",
"5  c #712300",
"6  c #623300",
"7  c #6D3D00",
"8  c #6C3705",
"9  c #783706",
"0  c #662717",
"q  c #6E3217",
"w  c #4A2622",
"e  c #562A24",
"r  c #473523",
"t  c #583824",
"y  c #533935",
"u  c #792D23",
"i  c #653829",
"p  c #74382D",
"a  c #663A33",
"s  c #71332A",
"d  c #684B07",
"f  c #734301",
"g  c #7E4D01",
"h  c #74480A",
"j  c #7B5101",
"k  c #7A560B",
"l  c #76471B",
"z  c #665A18",
"x  c #785518",
"c  c #6A4918",
"v  c #64620C",
"b  c #58452D",
"n  c #5B4A37",
"m  c #534E33",
"M  c #664629",
"N  c #744627",
"B  c #6A4837",
"V  c #784438",
"C  c #785738",
"Z  c #70562E",
"A  c #756A2A",
"S  c #57491D",
"D  c #3C3E6E",
"F  c #4F3C58",
"G  c #2C427C",
"H  c #49475D",
"J  c #6C4C42",
"K  c #794A42",
"L  c #775744",
"P  c #6D5749",
"I  c #776A50",
"U  c #626C70",
"Y  c #830600",
"T  c #841B01",
"R  c #931502",
"E  c #971A11",
"W  c #8C0F0A",
"Q  c #A81A06",
"!  c #B31800",
"~  c #AC1710",
"^  c #97230C",
"/  c #833D08",
"(  c #982A13",
")  c #8E310C",
"_  c #B92505",
"`  c #AE300C",
"'  c #87392D",
"]  c #A93A27",
"[  c #C22705",
"{  c #D22C03",
"}  c #D23A05",
"|  c #EC3E03",
" . c #F33F04",
".. c #895602",
"X. c #914D0D",
"o. c #A24811",
"O. c #896405",
"+. c #9B6D08",
"@. c #956917",
"#. c #997416",
"$. c #8B6F13",
"%. c #A16203",
"&. c #A87817",
"*. c #AE6C10",
"=. c #96552D",
"-. c #844738",
";. c #885838",
":. c #8D4C31",
">. c #897823",
",. c #947926",
"<. c #916532",
"1. c #B3712B",
"2. c #D04213",
"3. c #E54408",
"4. c #F44305",
"5. c #E94A10",
"6. c #C27F3B",
"7. c #CA711D",
"8. c #874842",
"9. c #885448",
"0. c #96564B",
"q. c #9C544B",
"w. c #A45B4F",
"e. c #966B49",
"r. c #827545",
"t. c #987748",
"y. c #946754",
"u. c #A36C4A",
"i. c #A97948",
"p. c #A96456",
"a. c #A87A55",
"s. c #B76E58",
"d. c #947565",
"f. c #B66B62",
"g. c #B97868",
"h. c #A96F64",
"j. c #C07249",
"k. c #C87A6D",
"l. c #C57D73",
"z. c #97881C",
"x. c #B78916",
"c. c #AB8514",
"v. c #9E8923",
"b. c #938F2E",
"n. c #A58E33",
"m. c #AF9130",
"M. c #B9A634",
"N. c #C89316",
"B. c #DDB61B",
"V. c #EBBC1B",
"C. c #E7B91B",
"Z. c #F1B919",
"A. c #E5AF1B",
"S. c #C59826",
"D. c #C99A36",
"F. c #C08D32",
"G. c #C9A627",
"H. c #D8A728",
"J. c #DAB628",
"K. c #D5B838",
"L. c #D0AF36",
"P. c #E3AD27",
"I. c #E7B727",
"U. c #F1BA22",
"Y. c #E8B735",
"T. c #E2AE34",
"R. c #DEC134",
"E. c #EBC825",
"W. c #F4D938",
"Q. c #EFCE31",
"!. c #FBE63B",
"~. c #FEF43D",
"^. c #B48A58",
"/. c #B3A94F",
"(. c #A98766",
"). c #B89668",
"_. c #B68C73",
"`. c #C98955",
"'. c #D3905A",
"]. c #CFB048",
"[. c #E9AD42",
"{. c #ECB648",
"}. c #CB9967",
"|. c #D59C66",
" X c #CA8476",
".X c #D38C7D",
"XX c #CE8F68",
"oX c #C9A576",
"OX c #D9A978",
"+X c #D9A069",
"@X c #E5AA6D",
"#X c #E8B278",
"$X c #F7B97D",
"%X c #EAAC76",
"&X c #C7C651",
"*X c #F6C645",
"=X c #F8D646",
"-X c #E4D758",
";X c #F4DB57",
":X c #EDD348",
">X c #FBE748",
",X c #FDF44C",
"<X c #FAF64A",
"1X c #FCEA56",
"2X c #FEF553",
"3X c #FEF459",
"4X c #FBF754",
"5X c #FDDE66",
"6X c #ECD767",
"7X c #EDE56C",
"8X c #F6E766",
"9X c #FCF263",
"0X c #FFFC70",
"qX c #385889",
"wX c #4D7092",
"eX c #807F9E",
"rX c #518498",
"tX c #6F8E91",
"yX c #4F8AAB",
"uX c #77A3BA",
"iX c #3582CA",
"pX c #5291D0",
"aX c #7DBEE4",
"sX c #93918D",
"dX c #B89FA5",
"fX c #AABEBC",
"gX c #A4A39E",
"hX c #CF9886",
"jX c #D2AD82",
"kX c #E5A986",
"lX c #E6B887",
"zX c #F1B387",
"xX c #FCC589",
"cX c #FBC892",
"vX c #FED89C",
"bX c #EFC891",
"nX c #E9CBA8",
"mX c #EFE8B4",
"MX c #83B7C4",
"NX c #BBBDC9",
"BX c #BFDAC9",
"VX c #A3D8E8",
"CX c #E0DCC1",
"ZX c None",
/* pixels */
"ZXZXZXZXZXZXZXZXZXZXZXZXZXZXZXZXZXZXZXZXZXZXZXZXZXZXZXZXZXZXZXZXZXZXZXZXZXZXZXZXZXZXZXZXZXZXZXZXZXZXZXZXZXZXZXZXZXZXZXZXZXZXZXZX",
"ZXZXZXZXZXZXZXZXZXZXZXZXZXZXZXZXZXZXZXZXZXZXZXZXZXZXZXZXZXZXZXZXZXZXZXZXZXZXZXZXZXZXZXZXZXZXZXZXZXZXZXZXZXZXZXZXZXZXZXZXZXZXZXZX",
"ZXZXZXZXZXZXZXZXZXZXZXZXZXZXZXZXZXZXZXZXZXZXZXZXZXZXZXZXZXZXZXZXZXZXZXZXZXZXZXZXZXZXZXZXZXZXZXZXZXZXZXZXZXZXZXZXZXZXZXZXZXZXZXZX",
"ZXZXZXZXZXZXZXZXZXZXZXZXZXZXZXZXZXZXZXZXZXZXZXZXZXZXZXZXZXZXZXZXZXZXZXZXZXZXZXZXZXZXZXZXZXZXZXZXZXZXZXZXZXZXZXZXZXZXZXZXZXZXZXZX",
"ZXZXZXZXZXZXZXZXZXZXZXZXZXZXZXZXZXZXZXZXZXZXZXZXZXZXZXZXZXZXZXZXZXZXZXZXZXZXZXZXZXZXZXZXZXZXZXZXZXZXZXZXZXZXZXZXZXZXZXZXZXZXZXZX",
"ZXZXZXZXZXZXZXZXZXZXZXZXZXZXZXZXZXZXZXZXZXZXZXZXZXZXZXZXZXZXZXZXZXZXZXZXZXZXZXZXZXZXZXZXZXZXZXZXZXZXZXZXZXZXZXZXZXZXZXZXZXZXZXZX",
"ZXZXZXZXZXZXZXZXZXZXZXZXZXZXZXZXZXZXZXZXZXZXZXZXZXZXZXZXZXZXZXZXZXZXZXZXZXZXZXZXZXZXZXZXZXZXZXZXZXZXZXZXZXZXZXZXZXZXZXZXZXZXZXZX",
"ZXZXZXZXZXZXZXZXZXZXZXZXZXZXZXZXZXZXZXZXZXZXZXZXZXZXZXZXZXZXZXZXZXZXZXZXZXZXZXZXZXZXZXZXZXZXZXZXZXZXZXZXZXZXZXZXZXZXZXZXZXZXZXZX",
"ZXZXZXZXZXZXZXZXZXZXZXZXZXZXZXZXZXZXZXZXZXZXZXZXZXZXZXZXZXZXZXZXZXZXZXZXZXZXZXZXZXZXZXZXZXZXZXZXZXZXZXZXZXZXZXZXZXZXZXZXZXZXZXZX",
"ZXZXZXZXZXZXZXZXZXZXZXZXZXZXZXZXZXZXZXZXZXZXZXZXZXZXZXwXH H ZXZXZXZXZXZXZXZXZXZXZXZXZXZXZXZXZXZXZXZXZXZXZXZXZXZXZXZXZXZXZXZXZXZX",
"ZXZXZXZXZXZXZXZXZXZXZXZXZXZXZXZXZXZXZXZXZXZXZXZXZXwXqXG G F y K ZXZXZXZXZXZXZXZXZXZXZXZXZXZXZXZXZXZXZXZXZXZXZXZXZXZXZXZXZXZXZXZX",
"ZXZXZXZXZXZXZXZXZXZXZXZXZXZXZXZXZXZXZXZXZXZXZXZXtXMXwXwXtXhXhXa.B ZXZXZXZXZXZXZXZXZXZXZXZXZXZXZXZXZXZXZXZXZXZXZXZXZXZXZXZXZXZXZX",
"ZXZXZXZXZXZXZXZXZXZXZXZXZXZXZXZXZXZXZXZXZXZXZXtXVXyXrXNXCXnXOX}.e.B ZXZXZXZXZXZXZXZXZXZXZXZXZXZXZXZXZXZXZXZXZXZXZXZXZXZXZXZXZXZX",
"ZXZXZXZXZXZXZXZXZXZXZXZXZXZXZXZXZXZXZXZXZXZXZXuXaXyXuXBXmXvXxX|.u.V ZXZXZXZXZXZXZXZXZXZXZXZXZXZXZXZXZXZXZXZXZXZXZXZXZXZXZXZXZXZX",
"ZXZXZXZXZXZXZXZXZXZXZXZXZXZXZXZXZXZXZXZXZXZXZXrXpXiXyXfXnXbX$X'.e.i ZXZXZXZXZXZXZXZXZXZXZXZXZXZXZXZXZXZXZXZXZXZXZXZXZXZXZXZXZXZX",
"ZXZXZXZXZXZXZXZXZXZXZXZXZXZXZXZXZXZXZXZXZXZXZXwXpXpXuXfXy.1.%X6.s.N t ZXZXZXZXZXZXZXZXZXZXZXZXZXZXZXZXZXZXZXZXZXZXZXZXZXZXZXZXZX",
"ZXZXZXP ZXZXZXZXZXZXZXZXZXZXZXZXZXZXZXZXZXZXZXtXNXsXsXI r.^.zX'.XXe.a ZXZXZXZXZXZXZXZXZXZXZXZXZXZXZXZXZXZXZXZXZXZXZXZXZXZXZXZXZX",
"ZXZXC (.y.ZXZXZXZXZXZXZXZXZXZXZXZXZXZXZXZXZXZXI sX_.q M ).oXzX'.'.a.w ZXZXZXZXZXZXZXZXZXZXZXZXZXZXZXZXZXZXZXZXZXZXZXZXZXZXZXZXZX",
"ZXe.a.lXa.ZXZXZXZXZXZXZXZXI P ZXZXZXZXZXZXZXZXZXd.nXe.q i.%X%Xj.' O % $ ZXZXZXZXZXZXZXZXZXZXZXZXZXZXZXZXZXZXZXZXZXZXZXZXZXZXZXZX",
"ZXa.OX}.oX;.L P ZXZXZXZXZX(.P I I ZXZXZXZXZXZXZXy.kXkXkXkXzXXX( & - - & - $ ZXZXZXZXZXZXZXZXZXZXZXZXZXZXZXZXZXZXZXZXZXZXZXZXZXZX",
"(.^.+X$XbXa.a.L ZXZXZXZXZX).t.(.d.ZXZXZXZXZXZXZXq =.XXjXXXj.T R Q Q Q ( W $ ZXZXZXZXZXZXZXZXZXZXZXZXZXZXZXZXZXZXZXZXZXZXZXZXZXZX",
"(.oX+XxX6X`.OXN ZXZXZXZXoX).oXoXL J ZXZXZXZXZXV :.9 X.=.5 T ` [ [ { _ _ E O e ZXZXZXZXZXZXZXZXZXZXZXZXZXZXZXZXZXZXZXZXZXZXZXZXZX",
"ZXN oXvX'.@X$X8 l M M ZXt.^.6X}.t.M ZXZXZXZXS ; , % = ] } | 3.3. .4.{ ! R * $ ZXZXZXZXZXZXZXZXZXZXZXZXZXZXZXZXZXZXZXZXZXZXZXZXZX",
"ZXZX<.bX}.#X`.9 a.<.C A ^.#X#X|.OX6 ZXZXZXz /./.@.j.7.] | 5.4.4. . .{ ! W * O # ZXZXZXZXZXZXZXZXZXZXZXZXZXZXZXZXZXZXZXZXZXZXZXZX",
"ZXZXZX(.jXOXi.9 :.N oX).^.+X@X@X1.g n.z.v.-X0X5X[.7.` ` 3.3.4.4.3.} ! ! ~ E & # ZXZXZXZXZXZXZXZXZXZXZXZXZXZXZXZXZXZXZXZXZXZXZXZX",
"ZXZXZXL L C > q 3 > jXbXOXxXxX^.4 m.6X5X8X:X*X*X{.7.) ) } 5.3.3.2.Q Q ! ~ ~ & # ZXZXZXZXZXZXZXZXZXZXZXZXZXZXZXZXZXZXZXZXZXZXZXZX",
"ZXZXZXZXZXZXZXZXZXM Z (.vXcX}.f X.&.D.[.{.].L.S.7.X.o.o.* ` 2._ R Y * * Q E O # ZXZXZXZXZXZXZXZXZXZXZXZXZXZXZXZXZXZXZXZXZXZXZXZX",
"ZXZXZXZXZXZXZXZXZXZXZXZXt.}.:.:.k 7 g ..g j g 7 4 5 @ 4 & T ( Y R ^ ^ ^ ( & @ ZXZXZXZXZXZXZXZXZXZXZXZXZXZXZXZXZXZXZXZXZXZXZXZXZX",
"ZXZXZXZXZXZXZXZXZXZXZXZXZXZ M M ZXZXZXZXZXZXZXZX/ o.4 9 4 O = ^ ] ( ) = O @ 1 ZXZXZXZXZXZXZXZXZXZXZXZXZXZXZXZXZXZXZXZXZXZXZXZXZX",
"ZXZXZXZXZXZXZXZXZXZXZXZXZXZXZXZXZXZXZXZXZXZXZXZX0 / *.&.g g / = & = O = h N t ZXZXZXZXZXZXZXZXZXZXZXZXZXZXZXZXZXZXZXZXZXZXZXZXZX",
"ZXZXZXZXZXZXZXZXZXZXZXZXZXZXZXZXZXZXZXZXZXZXZXZXZX:.m.8X;X:X*XN.%...%.1.<.l ZXZXZXZXZXZXZXZXZXZXZXZXZXZXZXZXZXZXZXZXZXZXZXZXZXZX",
"ZXZXZXZXZXZXZXZXZXZXZXZXZXZXZXZXZXZXZXZXZXZXZXZXZXZX>.].7X;X=X*XT.[.D.+.h ; ZXZXZXZXZXZXZXZXZXZXZXZXZXZXZXZXZXZXZXZXZXZXZXZXZXZX",
"ZXZXZXZXZXZXZXZXZXZXZXZXZXZXZXZXZXZXZXZXZXZXZXZXZXZXZXz ,./.D.m.=.@ @ : +   ZXZXZXZXZXZXZXZXZXZXZXZXZXZXZXZXZXZXZXZXZXZXZXZXZXZX",
"ZXZXZXZXZXZXZXZXZXZXZXZXZXZXZXZXZXZXZXZXZXZXZXZXZXZXZXZXZX$.: 4 @ 4 + +   ; 3 ZXZXZXZXZXZXZXZXZXZXZXZXZXZXZXZXZXZXZXZXZXZXZXZXZX",
"ZXZXZXZXZXZXZXZXZXZXZXZXZXZXZXZXZXZXZXZXZXZXZXZXZXZXZXZX>.O.7 ..f , , g &.&.O...ZXZXZXZXZXZXZXZXZXZXZXZXZXZXZXZXZXZXZXZXZXZXZXZX",
"ZXZXZXZXZXZXZXZXZXZXZXZXZXZXZXZXZXZXZXZXZXZXZXZXZXA v z.M.G.H.H.&.+.x.G.V.I.P.&.k ZXZXZXZXZXZXZXZXZXZXZXZXZXZXZXZXZXZXZXZXZXZXZX",
"ZXZXZXZXZXZXZXZXZXZXZXZXZXZXZXZXZXZXZXZXZXZXr.v /.&X-X<X3XI.Y.Y.T.G.I.B.E.V.U.I.D.@.;.ZXZXZXZXZXZXZXZXZXZXZXZXZXZXZXZXZXZXZXZXZX",
"ZXZXZXZXZXZXZXZXZXZXZXZXZXZXZXZXZXZXZXZXZ /.&X7X0X4X<X!.E.I.U.P.H.I.C.E.!.E.E.I.Y.&.#.ZXZXZXZXZXZXZXZXZXZXZXZXZXZXZXZXZXZXZXZXZX",
"ZXZXZXZXZXZXZXZXZXZXZXZXZXZXZXZXZXZXz b.&X7X7X9X>X!.E.C.V.U.U.I.%.H.C.!.~.,X1X:XI.Y.S.O.x ZXZXZXZXZXZXZXZXZXZXZXZXZXZXZXZXZXZXZX",
"ZXZXZXZXZXZXZXZXZXZXZXZXZXZXZXZXZXA /.7X9X2X4XW.W.E.V.V.Z.A.P.x.O...I.Q.,X,X1X1X>XQ.J.G.v.A ZXZXZXZXZXZXZXZXZXZXZXZXZXZXZXZXZXZX",
"ZXZXZXZXZXZXZXZXZXZXZXZXZXZXZXZXZX^.6X1X2X<X!.Q.W.Q.Z.Z.Z.P.c.O.g h x.K.>X<X4X3X2X1XW.J.K.#.f 3 ZXZXZXZXZXZXZXZXZXZXZXZXZXZXZXZX",
"ZXZXZXZXZXZXZXZXZXZXZXZXZXZXZXZXZX>.M.R.=XQ.E.R.Q.P.A.Y.H.%.d d ZXZXZX$.K.>X2X<X<X4X<XW.Q.x.+.h r ZXZXZXZXZXZXZXZXZXZXZXZXZXZXZX",
"ZXZXZXZXZXZXZXZXZXZXZXZXZXZXZXZXZXZX>.#.S.K.K.L.m.@.7 f h c ZXZXZXZXZXA v.:X~.~.<X4X4XW.C.N.N.@.Z ZXZXZXZXZXZXZXZXZXZXZXZXZXZXZX",
"ZXZXZXZXZXZXZXZXZXZXZXZXZXZXZXZXZXZXZX, 8 ..f f . + ; ZXZXZXZXZXZXZXZXZXn.K.Q.<X<X<X2X>XI.A.H.@.; ZXZXZXZXZXZXZXZXZXZXZXZXZXZXZX",
"ZXZXZXZXZXZXZXZXZXZXZXZXZXZXZXZXZXZXZXZX+ : : @ # 1 < ZXZXZXZXZXZXZXZXZXZXn.J.W.3X1X>XE.Z.V.S...+ e ZXZXZXZXZXZXZXZXZXZXZXZXZXZX",
"ZXZXZXZXZXZXZXZXZXZXZXZXZXZXZXZXZXZXZXZXi g.f.q.8.a ZXZXZXZXZXZXZXZXZXZXZXZXz.&X;X1XQ.I.V.H.&.4 @ 0 B ZXZXZXZXZXZXZXZXZXZXZXZXZX",
"ZXZXZXZXZXZXZXZXZXZXZXZXZXZXZXZXZXZXZXZXJ h. Xf.w.a ZXZXZXZXZXZXZXZXZXZXZXZXZXv.m.H.H.J.H.&.h @ u 8.8.J ZXZXZXZXZXZXZXZXZXZXZXZX",
"ZXZXZXZXZXZXZXZXZXZXZXZXZXZXZXZXZXZXZXZXZXh..Xk.p.p ZXZXZXZXZXZXZXZXZXZXZXZXZXZXx ....&.O.> @ u 8.p.p.9.M ZXZXZXZXZXZXZXZXZXZXZX",
"ZXZXZXZXZXZXZXZXZXZXZXZXZXZXZXZXZXZXZXZXZXB hXk.p.' e ZXZXZXZXZXZXZXZXZXZXZXZXZXZXZXZXZXZXZXt 9.p.l.l.p.;.V t ZXZXZXZXZXZXZXZXZX",
"ZXZXZXZXZXZXZXZXZXZXZXZXZXZXZXZXZXZXZXZXZXI p..Xk.u a ZXZXZXZXZXZXZXZXZXZXZXZXZXZXZXZXZXZXZXZXB 8.f.k.hXs.-.p 1 ZXZXZXZXZXZXZXZX",
"ZXZXZXZXZXZXZXZXZXZXZXZXZXZXZXZXZXZXZXZXZXZX8.q.' 8.e ZXZXZXZXZXZXZXZXZXZXZXZXZXZXZXZXZXZXZXZXZXZX9.w.g. Xg.w.p e ZXZXZXZXZXZXZX",
"ZXZXZXZXZXZXZXZXZXZXZXZXZXZXZXZXZXZXZXZXZXZXV p ' 8.$ w ZXZXZXZXZXZXZXZXZXZXZXZXZXZXZXZXZXZXZXZXZXZX9.K g. Xp.q.0 $ ZXZXZXZXZXZX",
"ZXZXZXZXZXZXZXZXZXZXZXZXZXZXZXZXZXZXZXZXZXZXV g.k.f.0.# ZXZXZXZXZXZXZXZXZXZXZXZXZXZXZXZXZXZXZXZXZXZXZXZX9.w.:.' u -.i ZXZXZXZXZX",
"ZXZXZXZXZXZXZXZXZXZXZXZXZXZXZXZXZXZXZXZXX < B y.l.g.0.i   ZXZXZXZXZXZXZXZXZXZXZXZXZXZXZXZXZXZXZXZXZXZXZXZX$ u w.p.;.p <   ZXZXZX",
"ZXZXZXZXZXZXZXZXZXZXZXZXZXZXZXZXZXZXZXm m Z t 1 K 9.8.a   ZXZXZXZXZXZXZXZXZXZXZXZXZXZXZXZXZXZXZXZXZXZXZXZXe 0.8.0 6 > < < o ZXZX",
"ZXZXZXZXZXZXZXZXZXZXZXZXZXZXZXZXZXZXo o o b w r w w w X . ZXZXZXZXZXZXZXZXZXZXZXZXZXZXZXZXZXZXZXZXZXZXZXZXw w e C C Z b b m y ZX",
"ZXZXZXZXZXZXZXZXZXZXZXZXZXZXZXZXZXZXZXZXZXZXZXZXZXZXZXZXZXZXZXZXZXZXZXZXZXZXZXZXZXZXZXZXZXZXZXZXZXZXZXZXZXZXZXX y b n n b n r ZX",
"ZXZXZXZXZXZXZXZXZXZXZXZXZXZXZXZXZXZXZXZXZXZXZXZXZXZXZXZXZXZXZXZXZXZXZXZXZXZXZXZXZXZXZXZXZXZXZXZXZXZXZXZXZXZXZXZXZXZXZXZXZXZXZXZX",
"ZXZXZXZXZXZXZXZXZXZXZXZXZXZXZXZXZXZXZXZXZXZXZXZXZXZXZXZXZXZXZXZXZXZXZXZXZXZXZXZXZXZXZXZXZXZXZXZXZXZXZXZXZXZXZXZXZXZXZXZXZXZXZXZX",
"ZXZXZXZXZXZXZXZXZXZXZXZXZXZXZXZXZXZXZXZXZXZXZXZXZXZXZXZXZXZXZXZXZXZXZXZXZXZXZXZXZXZXZXZXZXZXZXZXZXZXZXZXZXZXZXZXZXZXZXZXZXZXZXZX",
"ZXZXZXZXZXZXZXZXZXZXZXZXZXZXZXZXZXZXZXZXZXZXZXZXZXZXZXZXZXZXZXZXZXZXZXZXZXZXZXZXZXZXZXZXZXZXZXZXZXZXZXZXZXZXZXZXZXZXZXZXZXZXZXZX",
"ZXZXZXZXZXZXZXZXZXZXZXZXZXZXZXZXZXZXZXZXZXZXZXZXZXZXZXZXZXZXZXZXZXZXZXZXZXZXZXZXZXZXZXZXZXZXZXZXZXZXZXZXZXZXZXZXZXZXZXZXZXZXZXZX",
"ZXZXZXZXZXZXZXZXZXZXZXZXZXZXZXZXZXZXZXZXZXZXZXZXZXZXZXZXZXZXZXZXZXZXZXZXZXZXZXZXZXZXZXZXZXZXZXZXZXZXZXZXZXZXZXZXZXZXZXZXZXZXZXZX",
"ZXZXZXZXZXZXZXZXZXZXZXZXZXZXZXZXZXZXZXZXZXZXZXZXZXZXZXZXZXZXZXZXZXZXZXZXZXZXZXZXZXZXZXZXZXZXZXZXZXZXZXZXZXZXZXZXZXZXZXZXZXZXZXZX"
};
