/* XPM */
static char *attack1mv21739460972[] = {
/* columns rows colors chars-per-pixel */
"64 64 252 2 ",
"   c #3C1901",
".  c #351E16",
"X  c #3C2B1A",
"o  c #470D00",
"O  c #5B0900",
"+  c #4B1500",
"@  c #581903",
"#  c #680401",
"$  c #7B0600",
"%  c #730A01",
"&  c #7E0A01",
"*  c #750500",
"=  c #681603",
"-  c #7B1B00",
";  c #691A14",
":  c #472405",
">  c #562606",
",  c #482B18",
"<  c #562A17",
"1  c #533107",
"2  c #662700",
"3  c #782900",
"4  c #663703",
"5  c #7E3602",
"6  c #682917",
"7  c #70321B",
"8  c #4B3C2A",
"9  c #5A3827",
"0  c #5B2F24",
"q  c #782822",
"w  c #683826",
"e  c #78372B",
"r  c #6B3833",
"t  c #7B3C35",
"y  c #672921",
"u  c #764402",
"i  c #784A1B",
"p  c #745712",
"a  c #4E4538",
"s  c #5A4B37",
"d  c #5B452B",
"f  c #744A2B",
"g  c #694736",
"h  c #7A463A",
"j  c #6D5131",
"k  c #776633",
"l  c #6F5308",
"z  c #38496C",
"x  c #584C4C",
"c  c #784C47",
"v  c #775A47",
"b  c #695A47",
"n  c #7C6647",
"m  c #756859",
"M  c #78776C",
"N  c #565871",
"B  c #891407",
"V  c #951705",
"C  c #900E03",
"Z  c #A51602",
"A  c #B71D00",
"S  c #852903",
"D  c #9C2309",
"F  c #933704",
"G  c #863813",
"H  c #90300B",
"J  c #AB2108",
"K  c #B92302",
"L  c #B9320A",
"P  c #8D352B",
"I  c #A52B20",
"U  c #C52C07",
"Y  c #D73911",
"T  c #CB3E20",
"R  c #8B5B06",
"E  c #965807",
"W  c #884819",
"Q  c #845418",
"!  c #904B0F",
"~  c #AB430C",
"^  c #986B09",
"/  c #886916",
"(  c #94671A",
")  c #987617",
"_  c #8A6B08",
"`  c #A76B15",
"'  c #A87719",
"]  c #AF7412",
"[  c #885629",
"{  c #874537",
"}  c #95463A",
"|  c #95582F",
" . c #936C25",
".. c #987826",
"X. c #8B6637",
"o. c #95673A",
"O. c #85702C",
"+. c #A76B3B",
"@. c #AA7131",
"#. c #D84212",
"$. c #E8430F",
"%. c #DA5C29",
"&. c #874846",
"*. c #885849",
"=. c #985648",
"-. c #935650",
";. c #A7564F",
":. c #9E695A",
">. c #967558",
",. c #8E6E4E",
"<. c #A66C45",
"1. c #A47948",
"2. c #AA6556",
"3. c #A87C58",
"4. c #B97358",
"5. c #966C68",
"6. c #987766",
"7. c #91746B",
"8. c #A47868",
"9. c #B77568",
"0. c #A9736C",
"q. c #C57867",
"w. c #CD7E7A",
"e. c #C77D5A",
"r. c #B79609",
"t. c #AB8218",
"y. c #B88617",
"u. c #B48805",
"i. c #958534",
"p. c #B48F27",
"a. c #C28605",
"s. c #C69607",
"d. c #C99A16",
"f. c #CB8B1A",
"g. c #C9AC14",
"h. c #D1A810",
"j. c #E6B618",
"k. c #F0B31C",
"l. c #C79927",
"z. c #CD9C39",
"x. c #D99239",
"c. c #D5A937",
"v. c #D0B031",
"b. c #E6A926",
"n. c #E9B72A",
"m. c #E8B935",
"M. c #E7AE36",
"N. c #EBC427",
"B. c #E6C437",
"V. c #F3CA37",
"C. c #F8D536",
"Z. c #DECE3B",
"A. c #988A53",
"S. c #A88458",
"D. c #AC8D4C",
"F. c #B5A55A",
"G. c #968668",
"H. c #968775",
"J. c #8C8276",
"K. c #A98867",
"L. c #A6996A",
"P. c #A7857B",
"I. c #BA8477",
"U. c #A99376",
"Y. c #B9946E",
"T. c #B4A575",
"R. c #CA9357",
"E. c #C5B758",
"W. c #CDAC45",
"Q. c #E5AE54",
"!. c #C78963",
"~. c #C69766",
"^. c #D79964",
"/. c #C58476",
"(. c #D28B71",
"). c #DAA26A",
"_. c #C5A67A",
"`. c #D5A87B",
"'. c #D2B56C",
"]. c #EAA978",
"[. c #E5AD72",
"{. c #D8C649",
"}. c #E5D443",
"|. c #F9D946",
" X c #EAC859",
".X c #F3D755",
"XX c #F1CB4E",
"oX c #FDE94B",
"OX c #FBE955",
"+X c #FEF354",
"@X c #FEF459",
"#X c #FBF048",
"$X c #DBC669",
"%X c #F7D366",
"&X c #F1D16A",
"*X c #FDEA6C",
"=X c #397FB2",
"-X c #59798F",
";X c #6F7488",
":X c #5684AB",
">X c #6A94AA",
",X c #3E8AC4",
"<X c #4592C9",
"1X c #7DB3D9",
"2X c #958C85",
"3X c #87969B",
"4X c #A48A84",
"5X c #A99687",
"6X c #A89897",
"7X c #B49B96",
"8X c #B19287",
"9X c #B6A89B",
"0X c #B3A991",
"qX c #AB9CA2",
"wX c #9BA9AE",
"eX c #ACA9A6",
"rX c #B8A9A5",
"tX c #B2B3AF",
"yX c #9DA29E",
"uX c #CF8D88",
"iX c #D38D8B",
"pX c #C4A987",
"aX c #C9B98A",
"sX c #C5A597",
"dX c #CBB295",
"fX c #D7B993",
"gX c #DAAC85",
"hX c #EDB48A",
"jX c #C9B6A9",
"kX c #C8BEB7",
"lX c #CFB3AF",
"zX c #B9C3B5",
"xX c #D3C195",
"cX c #E4C495",
"vX c #F7C793",
"bX c #F6C78D",
"nX c #D8C8AA",
"mX c #CAC1B7",
"MX c #DAC9B8",
"NX c #E3D4A9",
"BX c #E4D6B7",
"VX c #E5CDAC",
"CX c #FFE0B7",
"ZX c #97B4C9",
"AX c #A8C2CC",
"SX c #E5DAC8",
"DX c #EBDBD8",
"FX c #F4E7CA",
"GX c #F5E4D7",
"HX c #F8E6E4",
"JX c #CFD6CE",
"KX c None",
/* pixels */
"KXKXKXKXKXKXKXKXKXKXKXKXKXKXKXKXKXKXKXKXKXKXKXKXKXKXKXKXKXKXKXKXKXKXKXKXKXKXKXKXKXKXKXKXKXKXKXKXKXKXKXKXKXKXKXKXKXKXKXKXKXKXKXKX",
"KXKXKXKXKXKXKXKXKXKXKXKXKXKXKXKXKXKXKXKXKXKXKXKXKXKXKXKXKXKXKXKXKXKXKXKXKXKXKXKXKXKXKXKXKXKXKXKXKXKXKXKXKXKXKXKXKXKXKXKXKXKXKXKX",
"KXKXKXKXKXKXKXKXKXKXKXKXKXKXKXKXKXKXKXKXKXKXKXKXKXKXKXKXKXKXKXKXKXKXKXKXKXKXKXKXKXKXKXKXKXKXKXKXKXKXKXKXKXKXKXKXKXKXKXKXKXKXKXKX",
"KXKXKXKXKXKXKXKXKXKXKXKXKXKXKXKXKXKXKXKXKXKXKXKXKXKXKXKXKXKXKXKXKXKXKXKXKXKXKXKXKXKXKXKXKXKXKXKXKXKXKXKXKXKXKXKXKXKXKXKXKXKXKXKX",
"KXKXKXKXKXKXKXKXKXKXKXKXKXKXKXKXKXKXKXKXKXKXKXKXKXKXKXKXKXKXKXKXKXKXKXKXKXKXKXKXKXKXKXKXKXKXKXKXKXKXKXKXKXKXKXKXKXKXKXKXKXKXKXKX",
"KXKXKXKXKXKXKXKXKXKXKXKXKXKXKXKXKXKXKXKXKXKXKXKXKXKXKXKXKXKXKXKXKXKXKXKXKXKXKXKXKXKXKXKXKXKXKXKXKXKXKXKXKXKXKXKXKXKXKXKXKXKXKXKX",
"KXKXKXKXKXKXKXKXKXKXKXKXKXKXKXKXKXKXKXKXKXKXKXKXKXKXKXKXKXKXKXKXKXKXKXKXKXKXKXKXKXKXKXKXKXKXKXKXKXKXKXKXKXKXKXKXKXKXKXKXKXKXKXKX",
"KXKXKXKXKXKXKXKXKXKXKXKXKXKXKXKXKXKXKXKXKXKXKXKXKXKXKXKXKXKXKXKXKXKXKXKXKXKXKXKXKXKXKXKXKXKXKXKXKXKXKXKXKXKXKXKXKXKXKXKXKXKXKXKX",
"KXKXKXKXKXKXKXKXKXKXKXKXKXKXKXKXKXKXKXKXKXKXKXKXKXKXKXKXKXKXKXKXKXKXKXKXKXKXKXKXKXKXKXKXKXKXKXKXKXKXKXKXKXKXKXKXKXKXKXKXKXKXKXKX",
"KXKXKXKXKXKXKXKXKXKXKXKXKXKXKXKXKXKXKXKXKXKXKXKXKXKXKXKXKXKXKXKXKXKXKXKXKXKXKXKXKXKXKXKXKXKXKXKXKXKXKXKXKXKXKXKXKXKXKXKXKXKXKXKX",
"KXKXKXKXKXKXKXKXKXKXKXKXKXKXKXKXKXKXKXKXKXKXKXKXKXKXKXKXKXKXKXKXKXKX;Xz z ZXKXKXKXKXKXKXKXKXKXKXKXKXKXKXKXKXKXKXKXKXKXKXKXKXKXKX",
"KXKXKXKXKXKXKXKXKXKXKXKXKXKXKXKXKXKXKXKXKXKXKXKXKXKXKXKXKXKXKXKXP.c x N z z ;XwXKXKXKXKXKXKXKXKXKXKXKXKXKXKXKXKXKXKXKXKXKXKXKXKX",
"KXKXKXKXKXKXKXKXKXKXKXKXKXKXKXKXKXKXKXKXKXKXKXKXKXKXKXKXKXKXKXH.1.~.aX9X3X-X-XAXtXKXKXKXKXKXKXKXKXKXKXKXKXKXKXKXKXKXKXKXKXKXKXKX",
"KXKXKXKXKXKXKXKXKXKXKXKXKXKXKXKXKXKXKXKXKXKXKXKXKXKXKXKXKXKXKXg !.^.bXFXJXZX=X1XAXAXKXKXKXKXKXKXKXKXKXKXKXKXKXKXKXKXKXKXKXKXKXKX",
"KXKXKXKXKXKXKXKXKXKXKXKXKXKXKXKXKXKXKXKXKXKXKXKXKXKXKXKXKXKXKXg !.].vXCXSXAX<X<XAXyXKXKXKXKXKXKXKXKXKXKXKXKXKXKXKXKXKXKXKXKXKXKX",
"KXKXKXKXKXKXKXKXKXKXKXKXKXKXKXKXKXKXKXKXKXKXKXKXKXKXKXKXKXKX5Xw <.[.].^.nX>X=X<X-XyXKXKXKXKXKXKXKXKXKXKXKXKXKXKXKXKXKXKXKXKXKXKX",
"KXKXKXKXKXKXKXKXKXKXKXKXKXKXKXKXKXKXKXKXKXKXKXKXKXKXKXKXKXKXg K.e.R.^.| ,.mX>X>XwXeXKXKXKXKXKXKXKXKXKXKXKXKXKXKXKXKXKXKXKXKXKXKX",
"KXKXKXKXKXKXKXKXKXKXKXKXKXKXKXKXKXKXKXKXKXKXKXKXKXKXKXKXKXKX*.Y.R.^.vXS.o.,.M wXyXtXKXKXKXKXKXKXKXKXKXKXKXKXKXKXKXKXKXKXm 5XKXKX",
"KXKXKXKXKXKXKXKXKXKXKXKXKXKXKXKXKXKXKXKXKXKXKXKXKXKXKXKXKXKX< <.e.].hX!.X.: ,.pXJ.KXKXKXKXKXKXKXKXKXJ.KXKXKXKXKXKXKXKX>._.v 9XKX",
"KXKXKXKXKXKXKXKXKXKXKXKXKXKXKXKXKXKXKXKXKX6X7X7X7X4X6Xc r 6 O # D e.`._.X.1.].gXJ.KXKXKXKXKXKXKX7X5XG.5XKXrXjXsXK.,.o.| | S.6.KX",
"KXKXKXKXKXKXKXKXKXKXKXKXKXKXKXKXKXKXKXKXKXKXKXKXKX5.&.; # B Z C $ P R.hXhXgXhX:.KXKXKXKXKXKXKXM 6.j U.G.KXKXKXKX6.[ @.^.~._.3.dX",
"KXKXKXKXKXKXKXKXKXKXKXKXKXKXKXKXKXKXKXKXKXKXKXKXKXiXq # I J K A A V H ! +.gX&.t P.KXKXKXKXKXKXH._.3.fXU.KXKXKXKX3.S.+.hXbX'.pX,.",
"KXKXKXKXKXKXKXKXKXKXKXKXKXKXKXKXKXKXKXKXKXKX5.c &.P O B V K U Y Y $.L D H G @ e { 6.KXKXKXKXG.1 3.gX_.A.KX6.9 w 7 W | ).vXcXG.9X",
"KXKXKXKXKXKXKXKXKXKXKXKXKXKXKXKXKXKXKXKXKXKXKXKXiXq * $ V K $.$.$.$.#.#.~ H S 2 4 4 KXpXfXfX<.<.4.bX~.Y.K.*.i o.3 @.^.D.vX_.m KX",
"KXKXKXKXKXKXKXKXKXKXKXKXKXKXKXKXKXKXKXKXKXKXKXKXiX; % V C Z A Y U A Z Z $ 3 %.] a.z./ i.'.[.<.! +.^.[.^.+.S.[ +.u +.hX`.fX6.KXKX",
"KXKXKXKXKXKXKXKXKXKXKXKXKXKXKXKXKXKXKXKXKXKXKXc 6 # * I J C Z Z U U U J * B ~ x.XXXX.X*X%X%XQ.S @.].bXR.^.vXQ i i [ 3.Y.G.KXKXKX",
"KXKXKXKXKXKXKXKXKXKXKXKXKXKXKXKXKXqX6XqXKX0.t q # # & I D C C V U #.T L 3 | ! x.W.m.m.V..X Xx.F ! ).bXbXcXT.j g v H.7.H.KXKXKXKX",
"KXKXKXKXKXKXKXKXKXKXKXKXKXKXKXKXKXKXKXKXKXKX0.w.P # $ V B & * B C A T C # i 3 S E t.t.t.p...( ! W X.cXcXY.P.KXKXKXKXKXKXKXKXKXKX",
"KXKXKXKXKXKXKXKXKXKXKXKXKXKXKXKXKXKXKXKXKXKXKXKX} * * $ D B B $ $ % - # G 3 F 3 w A.A.G.G.H.7.,.v j k ,.KXKXKXKXKXKXKXKXKXKXKXKX",
"KXKXKXKXKXKXKXKXKXKXKXKXKXKXKXKXKXKXKXKXKX2X5X0.-.} = - - # % 3 3 S 2 O F 3 3 G H.KXKXKXKXKXKXKXKXKXKXKXKXKXKXKXKXKXKXKXKXKXKXKX",
"KXKXKXKXKXKXKXKXKXKXKXKXKXKXKXKXKXKXKXKXKXKXKXKXKXKXQ ` ! G 2 2 2 ' W.] ' W.i >.KXKXKXKXKXKXKXKXKXKXKXKXKXKXKXKXKXKXKXKXKXKXKXKX",
"KXKXKXKXKXKXKXKXKXKXKXKXKXKXKXKXKXKXKXKXKXKXKXKXKX8X,. .( p.z.z.c.Q.%X&X*XE.0XKXKXKXKXKXKXKXKXKXKXKXKXKXKXKXKXKXKXKXKXKXKXKXKXKX",
"KXKXKXKXKXKXKXKXKXKXKXKXKXKXKXKXKXKXKXKXKXKXKXMXKXKX5X1 4 W ( ' W. X&X$XF.A.KXKXKXKXKXKXKXKXKXKXKXKXKXKXKXKXKXKXKXKXKXKXKXKXKXKX",
"KXKXKXKXKXKXKXKXKXKXKXKXKXKXKXKXKXKXKXKXKXKXKXKXKXKXL.    o o @ u R p D.L.KXKXKXKXKXKXKXKXKXKXKXKXKXKXKXKXKXKXKXKXKXKXKXKXKXKXKX",
"KXKXKXKXKXKXKXKXKXKXKXKXKXKXKXKXKXKXKXKXBXxXaX~.~.@.Q u 4 + @ 2 = > p KXKXKXKXKXKXKXKXKXKXKXKXKXKXKXKXKXKXKXKXKXKXKXKXKXKXKXKXKX",
"KXKXKXKXKXKXKXKXKXKXKXKXKXKXKXmXmXmXmXzXaXT.F...R ) l.Q.p.^ E E ] p.( ..k L.KXKXKXKXKXKXKXKXKXKXKXKXKXKXKXKXKXKXKXKXKXKXKXKXKXKX",
"KXKXKXKXKXKXKXKXKXKXKXKXKXKXKXDXHXGXGXSX0X_...^ f.f.d.s.d.d.a.a.h.N.B.}..X{.i.A.T.KXKXKXKXKXKXKXKXKXKXKXKXKXKXKXKXKXKXKXKXKXKXKX",
"KXKXKXKXKXKXKXKXKXKXKXKXKXKXKXKXKXKXKXKXKX'.R f.M.n.m.V.C.n.b.n.n.j.j.N.OX.X{.E.D.j k L.KXKXKXKXKXKXKXKXKXKXKXKXKXKXKXKXKXKXKXKX",
"KXKXKXKXKXKXKXKXKXKXKXKXKXGXMXnXnXNXBXNX'._ y.y.d.g.h.m.v.v.z.y.a.a.s.s.r.g.{.}.{..Xt.p k L.KXKXKXKXKXKXKXKXKXKXKXKXKXKXKXKXKXKX",
"KXKXKXKXKXKXKXKXKXKXKXKXKXGXNXNXNXNXaXk ) p.u.r.r.r.r.r.r.^ / u ] M.n.h.r.r.g.g.g.g.g.y.) l k KXKXKXKXKXKXKXKXKXKXKXKXKXKXKXKXKX",
"KXKXKXKXKXKXKXKXKXKXKXKXFXnXnXNXcXA.O.) c.B.|.|.*X@X+XOX}.v.p 4 ( t.l.N.n.j.N.C.N.oXoX|..X'.k KXKXKXKXKXKXKXKXKXKXKXKXKXKXKXKXKX",
"KXKXKXKXKXKXKXKXKXKXKXKXnXdXfX_./ l ) l.B.B.oX@X@X@X@X#Xv.i.KXKXO.u ) l.m.B.v.B.V.V.|.oX.X$XA.KXKXKXKXKXKXKXKXKXKXKXKXKXKXKXKXKX",
"KXKXKXKXKXKXKXKXKXKXKXSXnXVXfX1. .^ u.s.N.oX@X+X#X+X#XZ.t.KXKXKXdX,.D.D./ ) ' p.c.m.n.m.z.O.0XKXKXKXKXKXKXKXKXKXKXKXKXKXKXKXKXKX",
"KXKXKXKXKXKXKXKXKXKXKXKXBXdXfXo.u ] n.k.j.oX+X+X+X+X}.{.F.KXKXKXKXKXKXKXxXS.> > u ' ` ^ l L.KXKXKXKXKXKXKXKXKXKXKXKXKXKXKXKXKXKX",
"KXKXKXKXKXKXKXKXKXKXKXGXBXdXS.2 2 ` b.k.j.C.+X#X#XZ.v.F.KXKXKXKXKXKXKX9XsX8.< @ o + + : k KXKXKXKXKXKXKXKXKXKXKXKXKXKXKXKXKXKXKX",
"KXKXKXKXKXKXKXKXKXtXsX7X-.w w 6 o S f.n.k.N.C.+X@X{.D.KXKXKXKXKXKXKXKXKXKX8.c y { } 8.*.KXKXKXKXKXKXKXKXKXKXKXKXKXKXKXKXKXKXKXKX",
"KXKXKXKXKXKXKXKXKXKXKXHXsXr w w 6 2 ) f.b.N.m. XF.i.KXKXKXKXKXKXKXKXKXKXKX4Xt { =./.I.5.KXKXKXKXKXKXKXKXKXKXKXKXKXKXKXKXKXKXKXKX",
"KXKXKXKXKXKXKXeXeXqXrX7.h h h { e 6 u R ' ^ ) p A.KXKXKXKXKXKXKXKXKXeXrX7X8.r P 4./.I.5.KXKXKXKXKXKXKXKXKXKXKXKXKXKXKXKXKXKXKXKX",
"KXKXKXKXKXKXKXKXKXHXMXt P 2.q.q.:.c g v *.k U.KXKXKXKXKXKXKXKXKXKXKXKXKXlX0.P &.q.uX6.KXKXKXKXKXKXKXKXKXKXKXKXKXKXKXKXKXKXKXKXKX",
"KXKXKXKXKX6XeXsX5X5.r &.0.q.(.9.r 4XKXKXKXKXKXKXKXKXKXKXKXKXKXKXKXKXKXtX4X5.t ;.w.uX5.KXKXKXKXKXKXKXKXKXKXKXKXKXKXKXKXKXKXKXKXKX",
"KXKXKXKXKXDXMX5.&.e =.q././.:.*.KXKXKXKXKXKXKXKXKXKXKXKXKXKXKXKXKXKXKXKXlX8.e =.;.-.4XKXKXKXKXKXKXKXKXKXKXKXKXKXKXKXKXKXKXKXKXKX",
"KXKXKXrXrX7X0.t t ;.2.w.9.*.5.KXKXKXKXKXKXKXKXKXKXKXKXKXKXKXKXKXjXrX6Xm m 0 { q ; @ KXKXKXKXKXKXKXKXKXKXKXKXKXKXKXKXKXKXKXKXKXKX",
"KXKXKXKXGX8X< e = P ;.;.-.KXKXKXKXKXKXKXKXKXKXKXKXKXKXKXKXKXKXKXKXKXKXKX5.0 &.9.9.c 8XKXKXKXKXKXKXKXKXKXKXKXKXKXKXKXKXKXKXKXKXKX",
"KXKXrX5Xv d w :.2.} q 0 KXKXKXKXKXKXKXKXKXKXKXKXKXKXKXKXKXKXKXKXKXKXKX4Xg r 2.I.8X*.8 8 KXKXKXKXKXKXKXKXKXKXKXKXKXKXKXKXKXKXKXKX",
"KXKX2Xb X   : > w 2.c 5.KXKXKXKXKXKXKXKXKXKXKXKXKXKXKXKXKXKXKXqX7X4X8.c w f *.:.9 0 w j a J.KXKXKXKXKXKXKXKXKXKXKXKXKXKXKXKXKXKX",
"mX2Xa x d d k h g 8 . KXKXKXKXKXKXKXKXKXKXKXKXKXKXKXKXKXKXKXKXKXKXKXv c g 9 < , : , , 8 8 8 KXKXKXKXKXKXKXKXKXKXKXKXKXKXKXKXKXKX",
"eX2Xa a 8 8 s 8 8 x KXKXKXKXKXKXKXKXKXKXKXKXKXKXKXKXKXKXKXKXKXKXKXKXKXKXKXKXKXKXKXKXKXKXKXKXKXKXKXKXKXKXKXKXKXKXKXKXKXKXKXKXKXKX",
"KXKXKXKXKXKXKXKXKXKXKXKXKXKXKXKXKXKXKXKXKXKXKXKXKXKXKXKXKXKXKXKXKXKXKXKXKXKXKXKXKXKXKXKXKXKXKXKXKXKXKXKXKXKXKXKXKXKXKXKXKXKXKXKX",
"KXKXKXKXKXKXKXKXKXKXKXKXKXKXKXKXKXKXKXKXKXKXKXKXKXKXKXKXKXKXKXKXKXKXKXKXKXKXKXKXKXKXKXKXKXKXKXKXKXKXKXKXKXKXKXKXKXKXKXKXKXKXKXKX",
"KXKXKXKXKXKXKXKXKXKXKXKXKXKXKXKXKXKXKXKXKXKXKXKXKXKXKXKXKXKXKXKXKXKXKXKXKXKXKXKXKXKXKXKXKXKXKXKXKXKXKXKXKXKXKXKXKXKXKXKXKXKXKXKX",
"KXKXKXKXKXKXKXKXKXKXKXKXKXKXKXKXKXKXKXKXKXKXKXKXKXKXKXKXKXKXKXKXKXKXKXKXKXKXKXKXKXKXKXKXKXKXKXKXKXKXKXKXKXKXKXKXKXKXKXKXKXKXKXKX",
"KXKXKXKXKXKXKXKXKXKXKXKXKXKXKXKXKXKXKXKXKXKXKXKXKXKXKXKXKXKXKXKXKXKXKXKXKXKXKXKXKXKXKXKXKXKXKXKXKXKXKXKXKXKXKXKXKXKXKXKXKXKXKXKX",
"KXKXKXKXKXKXKXKXKXKXKXKXKXKXKXKXKXKXKXKXKXKXKXKXKXKXKXKXKXKXKXKXKXKXKXKXKXKXKXKXKXKXKXKXKXKXKXKXKXKXKXKXKXKXKXKXKXKXKXKXKXKXKXKX",
"KXKXKXKXKXKXKXKXKXKXKXKXKXKXKXKXKXKXKXKXKXKXKXKXKXKXKXKXKXKXKXKXKXKXKXKXKXKXKXKXKXKXKXKXKXKXKXKXKXKXKXKXKXKXKXKXKXKXKXKXKXKXKXKX"
};
