/* XPM */
static char *attack1mv1_left1739523275[] = {
/* columns rows colors chars-per-pixel */
"64 64 248 2 ",
"   c #2A0905",
".  c #3C0400",
"X  c #360900",
"o  c #3A1901",
"O  c #2F1813",
"+  c #3B2703",
"@  c #3B2517",
"#  c #3F301E",
"$  c #3E2B25",
"%  c #3A2C3D",
"&  c #430401",
"*  c #450B01",
"=  c #4C0B00",
"-  c #4C0600",
";  c #5D0400",
":  c #580802",
">  c #4A1700",
",  c #571702",
"<  c #511B11",
"1  c #6A0700",
"2  c #770601",
"3  c #6B1601",
"4  c #781805",
"5  c #6C1C13",
"6  c #472604",
"7  c #582703",
"8  c #4C3504",
"9  c #573704",
"0  c #4B2618",
"q  c #572D17",
"w  c #48361A",
"e  c #543819",
"r  c #692501",
"t  c #772A02",
"y  c #6A3504",
"u  c #7C3903",
"i  c #6B301A",
"p  c #452A25",
"a  c #542B27",
"s  c #483523",
"d  c #543829",
"f  c #5A3C36",
"g  c #6B3629",
"h  c #793729",
"j  c #683C34",
"k  c #773D35",
"l  c #6D2C27",
"z  c #33433D",
"x  c #584601",
"c  c #59510C",
"v  c #664706",
"b  c #794703",
"n  c #785606",
"m  c #664816",
"M  c #734A1B",
"N  c #62571B",
"B  c #7B5513",
"V  c #6A5609",
"C  c #7D6B07",
"Z  c #5D4427",
"A  c #5A4A31",
"S  c #67482D",
"D  c #6B562B",
"F  c #674D39",
"G  c #764637",
"H  c #75552E",
"J  c #5F6821",
"K  c #776C31",
"L  c #19396E",
"P  c #2F3B4A",
"I  c #344C5A",
"U  c #77534A",
"Y  c #72634E",
"T  c #860600",
"R  c #9A0C00",
"E  c #891902",
"W  c #951901",
"Q  c #A81603",
"!  c #B81D06",
"~  c #A61C11",
"^  c #852200",
"/  c #8B2802",
"(  c #9C2302",
")  c #8A3704",
"_  c #942E11",
"`  c #AB2406",
"'  c #B82606",
"]  c #B73703",
"[  c #B63813",
"{  c #A2340C",
"}  c #883A32",
"|  c #C11D02",
" . c #C72504",
".. c #D52A00",
"X. c #C83A0C",
"o. c #DB340C",
"O. c #D23615",
"+. c #EC3C01",
"@. c #E73803",
"#. c #F63D05",
"$. c #E13E14",
"%. c #8A4C07",
"&. c #8D5904",
"*. c #854B12",
"=. c #914F11",
"-. c #AF4614",
";. c #856100",
":. c #98670B",
">. c #856919",
",. c #957214",
"<. c #A47606",
"1. c #A67513",
"2. c #AA6F0D",
"3. c #885C2C",
"4. c #894837",
"5. c #8F4E33",
"6. c #A3513F",
"7. c #A74E30",
"8. c #947925",
"9. c #8B6B2D",
"0. c #B3742B",
"q. c #CA4515",
"w. c #DB4717",
"e. c #CC4609",
"r. c #E6440A",
"t. c #F84307",
"y. c #E64614",
"u. c #F44614",
"i. c #D45026",
"p. c #E74820",
"a. c #9D5545",
"s. c #975C5B",
"d. c #8B5346",
"f. c #A85849",
"g. c #B55C4C",
"h. c #B35E55",
"j. c #876746",
"k. c #9A6847",
"l. c #8A6557",
"z. c #977A56",
"x. c #926F4A",
"c. c #B46556",
"v. c #BE7555",
"b. c #B06F4C",
"n. c #946D6D",
"m. c #B97863",
"M. c #B07266",
"N. c #C77855",
"B. c #D07B6D",
"V. c #CA7869",
"C. c #A78319",
"Z. c #B38813",
"A. c #90902F",
"S. c #BA9629",
"D. c #AF8B32",
"F. c #C99B19",
"G. c #D5A61A",
"H. c #D3AE18",
"J. c #ECBC1D",
"K. c #E6B81A",
"L. c #EDB718",
"P. c #C6982A",
"I. c #CA9B2F",
"U. c #DAA429",
"Y. c #DCB72E",
"T. c #CCA53B",
"R. c #D8A935",
"E. c #DAB837",
"W. c #C8A82E",
"Q. c #E1AF2F",
"!. c #E7B627",
"~. c #E5B938",
"^. c #F0B429",
"/. c #DFCD32",
"(. c #E8C82B",
"). c #E7C837",
"_. c #F8D737",
"`. c #EFCF2D",
"'. c #FAE73C",
"]. c #F3EC3C",
"[. c #B48846",
"{. c #BA8174",
"}. c #AC8C6C",
"|. c #AC936E",
" X c #D68C5A",
".X c #C78852",
"XX c #D8B849",
"oX c #CDAC45",
"OX c #C68765",
"+X c #C49A66",
"@X c #DC956B",
"#X c #C98577",
"$X c #D58778",
"%X c #C7997A",
"&X c #D29374",
"*X c #D0A772",
"=X c #F6B777",
"-X c #E9AD73",
";X c #EBAF64",
":X c #D7CE5B",
">X c #D5C84E",
",X c #F6DA46",
"<X c #EBD151",
"1X c #EBEA44",
"2X c #FCEC4C",
"3X c #F9E847",
"4X c #FDF44C",
"5X c #FDFA4C",
"6X c #FAF346",
"7X c #FDEB53",
"8X c #FAE759",
"9X c #FDF454",
"0X c #FEF854",
"qX c #FCF35C",
"wX c #F8F857",
"eX c #EFED5C",
"rX c #D8CF6B",
"tX c #F9D368",
"yX c #F9E964",
"uX c #FAF666",
"iX c #F2EC6E",
"pX c #29508A",
"aX c #287DB3",
"sX c #4D7290",
"dX c #416FAB",
"fX c #51808D",
"gX c #588696",
"hX c #558CB7",
"jX c #729395",
"kX c #368DC9",
"lX c #5C9FD2",
"zX c #71C2EF",
"xX c #A3A8A0",
"cX c #D9B486",
"vX c #D3AA86",
"bX c #E6B48C",
"nX c #C8BDA7",
"mX c #B8C2B7",
"MX c #F6C68B",
"NX c #F4D296",
"BX c #D3C9B1",
"VX c #F1D2A4",
"CX c #F9E4AF",
"ZX c #8ABDDD",
"AX c #A4E1FD",
"SX c #A6CADC",
"DX c #E5E7CE",
"FX c None",
/* pixels */
"FXFXFXFXFXFXFXFXFXFXFXFXFXFXFXFXFXFXFXFXFXFXFXFXFXFXFXFXFXFXFXFXFXFXFXFXFXFXFXFXFXFXFXFXFXFXFXFXFXFXFXFXFXFXFXFXFXFXFXFXFXFXFXFX",
"FXFXFXFXFXFXFXFXFXFXFXFXFXFXFXFXFXFXFXFXFXFXFXFXFXFXFXFXFXFXFXP FXFXFXFXFXFXFXFXFXFXFXFXFXFXFXFXFXFXFXFXFXFXFXFXFXFXFXFXFXFXFXFX",
"FXFXFXFXFXFXFXFXFXFXFXFXFXFXFXFXFXFXFXFXFXFXFXFXFXFXFXFXI L L L % f FXFXFXFXFXFXFXFXFXFXFXFXFXFXFXFXFXFXFXFXFXFXFXFXFXFXFXFXFXFX",
"FXFXFXFXFXFXFXFXFXFXFXFXFXFXFXFXFXFXFXFXFXFXFXFXFXFXFXsXlXpXL sXn.n.U FXFXFXFXFXFXFXFXFXFXFXFXFXFXFXFXFXFXFXFXFXFXFXFXFXFXFXFXFX",
"FXFXFXFXFXFXFXFXFXFXFXFXFXFXFXFXFXFXFXFXFXFXFXFXFXFXfXZXdXsXxXnXcX&X&X4.FXFXFXFXFXFXFXFXFXFXFXFXFXFXFXFXFXFXFXFXFXFXFXFXFXFXFXFX",
"FXFXFXFXFXFXFXFXFXFXFXFXFXFXFXFXFXFXFXFXFXFXFXFXFXsXAXkXhXZXDXCXNX-X@XN.j FXFXFXFXFXFXFXFXFXFXFXFXFXFXFXFXFXFXFXFXFXFXFXFXFXFXFX",
"FXFXFXFXFXFXFXFXFXFXFXFXFXFXFXFXFXFXFXFXFXFXFXFXz SXzXaXzXSXCXCXNXbX@X.Xg FXFXFXFXFXFXFXFXFXFXFXFXFXFXFXFXFXFXFXFXFXFXFXFXFXFXFX",
"FXFXFXFXFXFXFXFXFXFXFXFXFXFXFXFXFXFXFXFXFXFXFXFXz fXlXkXsXjXBXVXMX=X X6.q FXFXFXFXFXFXFXFXFXFXFXFXFXFXFXFXFXFXFXFXFXFXFXFXFXFXFX",
"FXFXFXFXFXFXFXFXFXFXFXFXFXFXFXFXFXFXFXFXFXFXFXFXz hXlXkXgXmXvX3.[.;X0.v.5.Z FXFXFXFXFXFXFXFXFXFXFXFXFXFXFXFXFXFXFXFXFXFXFXFXFXFX",
"FXFXFXFXFXFXFXFXFXFXFXFXFXFXFXFXFXFXFXFXFXFXFXFXz xXZXhXmXxXF 9.;X-XN.@Xb.d FXFXFXFXFXFXFXFXFXFXFXFXFXFXFXFXFXFXFXFXFXFXFXFXFXFX",
"FXFXFXFXFXFXFXFXFXFXFXFXFXFXFXFXFXFXFXFXFXFXFXFXFXY BX}.Z A }.x.-X=X XN.OXd FXFXFXFXFXFXFXFXFXFXFXFXFXFXFXFXFXFXFXFXFXFXFXFXFXFX",
"FXFXFXFXFXFXFXFXFXFXFXFXFXFXFXFXFXFXFXFXFXFXFXFXFXY M.*X9.o j.}.MX-X XN.a.. FXFXFXFXFXFXFXFXFXFXFXFXFXFXFXFXFXFXFXFXFXFXFXFXFXFX",
"FXFXFXFXFXFXFXFXFXFXFXFXFXFXFXFXFXFXFXFXFXFXFXFXFXFXY VXOX3.9.+X-X@Xk., = . : * X X   FXFXFXFXFXFXFXFXFXFXFXFXFXFXFXFXFXFXFXFXFX",
"FXFXFXFXFXFXFXFXFXFXFXFXFXFXFXFXFXFXFXFXFXFXFXFXFXFXz.vXvXbXbXMX-XOXy r : 4 2 2 5 : < . FXFXFXFXFXFXFXFXFXFXFXFXFXFXFXFXFXFXFXFX",
"FXFXFXFXFXFXFXFXFXFXFXFXFXFXFXFXFXFXFXFXFXFXFXFXFXFXM 5.v.vX;X@X.X>.*.r / R ' ~ W E E 2 ; . FXFXFXFXFXFXFXFXFXFXFXFXFXFXFXFXFXFX",
"FXFXFXFXFXFXFXFXFXFXFXFXFXFXFXFXFXFXFXFXFXFXFXFXFX6 ) _ 7.$X-XN.7.-.) {  .O. .| ' ! ~ ~ _ 2 - FXFXFXFXFXFXFXFXFXFXFXFXFXFXFXFXFX",
"FXFXFXFXFXFXFXFXFXFXFXFXFXFXFXFXFXFXFXFXFXFXFXFXFX> _ [ [ ( 7.) { ) e.w.$.o. .! !  .' ! ~ ` E ; * FXFXFXFXFXFXFXFXFXFXFXFXFXFXFX",
"FXFXFXFXFXFXFXFXFXFXFXFXFXFXFXFXFXFXFXFXFXFXFXFXFX* E X.y.q.{ / ( e.r... . .! Q ! o.o. . .' ` ( 3 - FXFXFXFXFXFXFXFXFXFXFXFXFXFX",
"FXFXFXFXFXFXFXFXFXFXFXFXFXFXFXFXFXFXFXFXFXFXFXFXFX. E i.w.' R q.w.r.@.+.@.@. .R ` r.t.t.+... .~ ~ 4 & FXFXFXFXFXFXFXFXFXFXFXFXFX",
"FXFXFXFXFXFXFXFXFXFXFXFXFXFXFXFXFXFXFXFXFXFXFXFXFXFXE i.q.Q R w.u.t.+.t.#.r.X.T W O.t.t.t.+.o.' ~ / . > FXFXFXFXFXFXFXFXFXFXFXFX",
"FXFXFXFXFXFXFXFXFXFXFXFXFXFXFXFXFXFXFXFXFXFXFXFXFXFX/ i.O.R  .$.+.t.t.t.#.@. .R 2 -.y.r.t.#.r.w.( 3 =.3.m FXFXFXFXFXFXFXFXFXFXFX",
"FXFXFXFXFXFXFXFXFXFXFXFXFXFXFXFXFXFXFXFXFXFXFXFXFXFX^ i.[ T [ y.u.t.#.#.@...Q 2 1 E e.r.t.t.r.] ^ u oXXXA.H FXFXFXFXFXFXFXFXFXFX",
"FXFXFXFXFXFXFXFXFXFXFXFXFXFXFXFXFXFXFXFXFXFXFXFXFXFXt [ 4 1 W w.y.y.y.@. .! Q 2 1 ; E X.y.r.] / b I.,X8XXX>.FXFXFXFXFXFXFXFXFXFX",
"FXFXFXFXFXFXFXFXFXFXFXFXFXFXFXFXFXFXFXFXFXFXFXFXFXFX3 t r 0.%.^ ] ' ` ` ' R 2 1 ; 5 } { ] ` / 0.<XyX3X,XE.8.m FXFXFXFXFXFXFXFXFX",
"FXFXFXFXFXFXFXFXFXFXFXFXFXFXFXFXFXFXFXFXFXFXFXFXFXx.b y T.tXR.<.u r t 3 3 1 ; : & s.FX4.3 t I.tXuX9X).Y.1.B FXFXFXFXFXFXFXFXFXFX",
"FXFXFXFXFXFXFXFXFXFXFXFXFXFXFXFXFXFXFXFXFXFXFXFXj.VX+X9 oX8XuXyX<XXXT.&.t , - &   U U l.M 7 S.yX7X<X).C.B FXFXFXFXFXFXFXFXFXFXFX",
"FXFXFXFXFXFXFXFXFXFXFXFXFXFXFXFXFXFXFXFXFXFXFXFXD %X-X8.x eXiXuXeX7X3XY.U.0.*.7 z.m l.vXcXB :.P.<XS.,.V FXFXFXFXFXFXFXFXFXFXFXFX",
"FXFXFXFXFXFXFXFXFXFXFXFXFXFXFXFXFXFXFXFXFXFXFXFXz D cX+Xx :XuX8X3X7X,X).~.P.8.M z.D e j.*X3.0.=.D.V FXFXFXFXFXFXFXFXFXFXFXFXFXFX",
"FXFXFXFXFXFXFXFXFXFXFXFXFXFXFXFXFXFXFXFXFXFXFXFXFXF S x.V D.tXtX;X<XR.D.S.8.y o K j.j.bXVX3.[.n y FXFXFXFXFXFXFXFXFXFXFXFXFXFXFX",
"FXFXFXFXFXFXFXFXFXFXFXFXFXFXFXFXFXFXFXFXFXFXFXFXFXFXo 6 c 6 b ) t t r 7 , o + FXw |.vXvX|.3.H 9 FXFXFXFXFXFXFXFXFXFXFXFXFXFXFXFX",
"FXFXFXFXFXFXFXFXFXFXFXFXFXFXFXFXFXFXFXFXFXFXFXFXFXFXFXFXFX7 -.-.-./ t r , o o FXFXF j.j.j.q FXFXFXFXFXFXFXFXFXFXFXFXFXFXFXFXFXFX",
"FXFXFXFXFXFXFXFXFXFXFXFXFXFXFXFXFXFXFXFXFXFXFXFXFXFXm x B b / E 1 : 3 r , 7 6 FXFXFXFXFXFXFXFXFXFXFXFXFXFXFXFXFXFXFXFXFXFXFXFXFX",
"FXFXFXFXFXFXFXFXFXFXFXFXFXFXFXFXFXFXFXFXFXFXFXN J V oX>X<XR.2.%.%.&.C.P.W.I.P.n FXFXFXFXFXFXFXFXFXFXFXFXFXFXFXFXFXFXFXFXFXFXFXFX",
"FXFXFXFXFXFXFXFXFXFXFXFXFXFXFXFXFXFXFXFXJ J K 8.:XiXuX5X7X_.Q.F.F.Y.).7X7X).~.,.c FXFXFXFXFXFXFXFXFXFXFXFXFXFXFXFXFXFXFXFXFXFXFX",
"FXFXFXFXFXFXFXFXFXFXFXFXFXFXFXFXFXY A.K A.eXiXuXwXwX].].'.`.L.L.!.).2X7XqX,X).P.x FXFXFXFXFXFXFXFXFXFXFXFXFXFXFXFXFXFXFXFXFXFXFX",
"FXFXFXFXFXFXFXFXFXFXFXFXFXFXFXK V A.>XeXeX9X9X9X9X].].].`.L.L.L.J._.0X9X9X9X3X/.C x FXFXFXFXFXFXFXFXFXFXFXFXFXFXFXFXFXFXFXFXFXFX",
"FXFXFXFXFXFXFXFXFXFXFXFXFXFX9.C 1XeXeXwX9X4X4X4X/./.'.`.J.L.^.L.J._.4XwXwX6X6X(.W.v FXFXFXFXFXFXFXFXFXFXFXFXFXFXFXFXFXFXFXFXFXFX",
"FXFXFXFXFXFXFXFXFXFXFXFXFXN rXNXwXwX5X5X'.6X0X/.(._.(.K.!.Q.Q.Q.(._.6X4XwXwX5X3X/.,.m FXFXFXFXFXFXFXFXFXFXFXFXFXFXFXFXFXFXFXFXFX",
"FXFXFXFXFXFXFXFXFXFXFXFXFXK :XuX7X0X2X'._._.!.F.Q.`.!.!.~.Z.;.;.F.(.4X1X1XwX1X6X).S.8 w FXFXFXFXFXFXFXFXFXFXFXFXFXFXFXFXFXFXFXFX",
"FXFXFXFXFXFXFXFXFXFXFXFXFXx >X<X3X(.K.(.K.!.G.<.F.P.P.:.;.x x x n ~.2X1X1XwX5X3X(.Z.y B @ FXFXFXFXFXFXFXFXFXFXFXFXFXFXFXFXFXFXFX",
"FXFXFXFXFXFXFXFXFXFXFXFXFXm C.E.).H.L.J.J.Q.&.9 9 8 v m FXFXFXFXv T.8X_.].5X5X6X).F.<.8.8 FXFXFXFXFXFXFXFXFXFXFXFXFXFXFXFXFXFXFX",
"FXFXFXFXFXFXFXFXFXFXFXFXFXM y 1.Z.G.~.E.R.I.D.>.c + FXFXFXFXFXFXFXn XX/.].5X6X4X`.H.F.I.x w FXFXFXFXFXFXFXFXFXFXFXFXFXFXFXFXFXFX",
"FXFXFXFXFXFXFXFXFXFXFXFXFXG * , b b b =.B v M D e FXFXFXFXFXFXFXFX8 >.P.'.'.6X4X'.K.H.U.B e FXFXFXFXFXFXFXFXFXFXFXFXFXFXFXFXFXFX",
"FXFXFXFXFXFXFXFXFXFXFXFXFXg 4.t , > > X o e Z FXFXFXFXFXFXFXFXFXFXFXx C.,X5X5X2X`.J.^.F.n q FXFXFXFXFXFXFXFXFXFXFXFXFXFXFXFXFXFX",
"FXFXFXFXFXFXFXFXFXFXFXFXU s.B.h.f.} l 0 FXFXFXFXFXFXFXFXFXFXFXFXFXFXFXn <X,X2X3X`.K.!.U.b * < FXFXFXFXFXFXFXFXFXFXFXFXFXFXFXFXFX",
"FXFXFXFXFXFXFXFXFXFXFXFXd.M.vXc.a.k g @ FXFXFXFXFXFXFXFXFXFXFXFXFXFXFXV XX).).(.K.^.U.2.r > g 0 FXFXFXFXFXFXFXFXFXFXFXFXFXFXFXFX",
"FXFXFXFXFXFXFXFXFXFXFXU n.vXV.f.k a p FXFXFXFXFXFXFXFXFXFXFXFXFXFXFXFXFXy T.U.Q.Y.Q.2.b 7 4.4.k d FXFXFXFXFXFXFXFXFXFXFXFXFXFXFX",
"FXFXFXFXFXFXFXFXFXFXFXl.m.V.v.} a FXFXFXFXFXFXFXFXFXFXFXFXFXFXFXFXFXFXFX6 v ,.,.1.&.y , r f.6.a.j j p FXFXFXFXFXFXFXFXFXFXFXFXFX",
"FXFXFXFXFXFXFXFXFXFXU M.#Xm.a.g p FXFXFXFXFXFXFXFXFXFXFXFXFXFXFXFXFXFXFXFXFX8 8 9 6 X q f.c.g.f.f.d.l a FXFXFXFXFXFXFXFXFXFXFXFX",
"FXFXFXFXFXFXFXFXFXFXk B.$Xc.h q FXFXFXFXFXFXFXFXFXFXFXFXFXFXFXFXFXFXFXFXFXFXFXFXFXFX0 0 M.V.V.h.h.f.4.l a @ FXFXFXFXFXFXFXFXFXFX",
"FXFXFXFXFXFXFXFXFXg l f.} h.< FXFXFXFXFXFXFXFXFXFXFXFXFXFXFXFXFXFXFXFXFXFXFXFXFXFXFXFXFXa G #XvXB.V.f.f.} & a FXFXFXFXFXFXFXFXFX",
"FXFXFXFXFXFXFX# G k.g.6.} } < FXFXFXFXFXFXFXFXFXFXFXFXFXFXFXFXFXFXFXFXFXFXFXFXFXFXFXFXFXFXFXl.M.B.B.B.h.l h G 0 FXFXFXFXFXFXFXFX",
"FXFXFXFXFXFXd o k m.V.V.V.a.l FXFXFXFXFXFXFXFXFXFXFXFXFXFXFXFXFXFXFXFXFXFXFXFXFXFXFXFXFXFXFXFXf s.$Xh.f.5.f.g + O FXFXFXFXFXFXFX",
"FXFXFXFXFXJ F A q 5 c.vXh.s.a FXFXFXFXFXFXFXFXFXFXFXFXFXFXFXFXFXFXFXFXFXFXFXFXFXFXFXFXFXFXFXFXFXj 4.h b.f.h 7 0 s FXFXFXFXFXFXFX",
"FXFXFXFXs A A d s q a d.j f a FXFXFXFXFXFXFXFXFXFXFXFXFXFXFXFXFXFXFXFXFXFXFXFXFXFXFXFXFXFXFXFXFXFXFXS q 8 6 q e w @ FXFXFXFXFXFX",
"FXFXFXFX% $ $ # # w @ f f p O FXFXFXFXFXFXFXFXFXFXFXFXFXFXFXFXFXFXFXFXFXFXFXFXFXFXFXFXFXFXFXFXFXFXFXw S D D D S A @ FXFXFXFXFXFX",
"FXFXFXFXFXFXFXFXFXFXFXFXFXFXFXFXFXFXFXFXFXFXFXFXFXFXFXFXFXFXFXFXFXFXFXFXFXFXFXFXFXFXFXFXFXFXFXFXFXO O s c w e d a p O FXFXFXFXFX",
"FXFXFXFXFXFXFXFXFXFXFXFXFXFXFXFXFXFXFXFXFXFXFXFXFXFXFXFXFXFXFXFXFXFXFXFXFXFXFXFXFXFXFXFXFXFXFXFXFXFXFXFXFXFXFXFXFXFXFXFXFXFXFXFX",
"FXFXFXFXFXFXFXFXFXFXFXFXFXFXFXFXFXFXFXFXFXFXFXFXFXFXFXFXFXFXFXFXFXFXFXFXFXFXFXFXFXFXFXFXFXFXFXFXFXFXFXFXFXFXFXFXFXFXFXFXFXFXFXFX",
"FXFXFXFXFXFXFXFXFXFXFXFXFXFXFXFXFXFXFXFXFXFXFXFXFXFXFXFXFXFXFXFXFXFXFXFXFXFXFXFXFXFXFXFXFXFXFXFXFXFXFXFXFXFXFXFXFXFXFXFXFXFXFXFX",
"FXFXFXFXFXFXFXFXFXFXFXFXFXFXFXFXFXFXFXFXFXFXFXFXFXFXFXFXFXFXFXFXFXFXFXFXFXFXFXFXFXFXFXFXFXFXFXFXFXFXFXFXFXFXFXFXFXFXFXFXFXFXFXFX",
"FXFXFXFXFXFXFXFXFXFXFXFXFXFXFXFXFXFXFXFXFXFXFXFXFXFXFXFXFXFXFXFXFXFXFXFXFXFXFXFXFXFXFXFXFXFXFXFXFXFXFXFXFXFXFXFXFXFXFXFXFXFXFXFX",
"FXFXFXFXFXFXFXFXFXFXFXFXFXFXFXFXFXFXFXFXFXFXFXFXFXFXFXFXFXFXFXFXFXFXFXFXFXFXFXFXFXFXFXFXFXFXFXFXFXFXFXFXFXFXFXFXFXFXFXFXFXFXFXFX",
"FXFXFXFXFXFXFXFXFXFXFXFXFXFXFXFXFXFXFXFXFXFXFXFXFXFXFXFXFXFXFXFXFXFXFXFXFXFXFXFXFXFXFXFXFXFXFXFXFXFXFXFXFXFXFXFXFXFXFXFXFXFXFXFX"
};
