/* XPM */
static char *attack1mv2_left1739523275[] = {
/* columns rows colors chars-per-pixel */
"64 64 252 2 ",
"   c #3C1901",
".  c #351E16",
"X  c #3C2B1A",
"o  c #470D00",
"O  c #5B0900",
"+  c #4B1500",
"@  c #581903",
"#  c #680401",
"$  c #7B0600",
"%  c #730A01",
"&  c #7E0A01",
"*  c #750500",
"=  c #681603",
"-  c #7B1B00",
";  c #691A14",
":  c #472405",
">  c #562606",
",  c #482B18",
"<  c #562A17",
"1  c #533107",
"2  c #662700",
"3  c #782900",
"4  c #663703",
"5  c #7E3602",
"6  c #682917",
"7  c #70321B",
"8  c #4B3C2A",
"9  c #5A3827",
"0  c #5B2F24",
"q  c #782822",
"w  c #683826",
"e  c #78372B",
"r  c #6B3833",
"t  c #7B3C35",
"y  c #672921",
"u  c #764402",
"i  c #784A1B",
"p  c #745712",
"a  c #4E4538",
"s  c #5A4B37",
"d  c #5B452B",
"f  c #744A2B",
"g  c #694736",
"h  c #7A463A",
"j  c #6D5131",
"k  c #776633",
"l  c #6F5308",
"z  c #38496C",
"x  c #584C4C",
"c  c #784C47",
"v  c #775A47",
"b  c #695A47",
"n  c #7C6647",
"m  c #75685A",
"M  c #78776C",
"N  c #565871",
"B  c #891407",
"V  c #951705",
"C  c #900E03",
"Z  c #A51602",
"A  c #B71D00",
"S  c #852903",
"D  c #9C2309",
"F  c #933704",
"G  c #863813",
"H  c #90300B",
"J  c #AB2108",
"K  c #B92302",
"L  c #B9320A",
"P  c #8D352B",
"I  c #A52B20",
"U  c #C52C07",
"Y  c #D73911",
"T  c #CB3E20",
"R  c #8B5B06",
"E  c #965807",
"W  c #884819",
"Q  c #845418",
"!  c #904B0F",
"~  c #AB430C",
"^  c #986B09",
"/  c #886916",
"(  c #94671A",
")  c #987617",
"_  c #8A6B08",
"`  c #A76B15",
"'  c #A87719",
"]  c #AF7412",
"[  c #885629",
"{  c #874537",
"}  c #95463A",
"|  c #95582F",
" . c #936C25",
".. c #987826",
"X. c #8B6637",
"o. c #95673A",
"O. c #85702C",
"+. c #A76B3B",
"@. c #AA7131",
"#. c #D84212",
"$. c #E8430F",
"%. c #DA5C29",
"&. c #874846",
"*. c #885849",
"=. c #985648",
"-. c #935650",
";. c #A7564F",
":. c #9E695A",
">. c #967558",
",. c #8E6D4E",
"<. c #A66C45",
"1. c #A47948",
"2. c #AA6556",
"3. c #A87C58",
"4. c #B97358",
"5. c #966C68",
"6. c #987766",
"7. c #937269",
"8. c #A47868",
"9. c #B77568",
"0. c #A9736C",
"q. c #C57867",
"w. c #CD7E7A",
"e. c #C77D5A",
"r. c #B79609",
"t. c #AB8218",
"y. c #B88617",
"u. c #B48805",
"i. c #958534",
"p. c #B48F27",
"a. c #C28605",
"s. c #C69607",
"d. c #C99A16",
"f. c #CB8B1A",
"g. c #C9AC14",
"h. c #D1A810",
"j. c #E6B618",
"k. c #F0B31C",
"l. c #C79927",
"z. c #CD9C39",
"x. c #D99239",
"c. c #D5A937",
"v. c #D0B031",
"b. c #E6A926",
"n. c #E9B72A",
"m. c #E8B935",
"M. c #E7AE36",
"N. c #EBC427",
"B. c #E6C437",
"V. c #F3CA37",
"C. c #F8D536",
"Z. c #DECE3B",
"A. c #978952",
"S. c #A88458",
"D. c #AC8D4C",
"F. c #B5A55A",
"G. c #968668",
"H. c #968775",
"J. c #888176",
"K. c #A98867",
"L. c #A6996A",
"P. c #A8857A",
"I. c #BA8477",
"U. c #A99376",
"Y. c #B9946E",
"T. c #B4A575",
"R. c #CA9357",
"E. c #C5B758",
"W. c #CDAC45",
"Q. c #E5AE54",
"!. c #C78963",
"~. c #C69766",
"^. c #D79964",
"/. c #C58476",
"(. c #D28B71",
"). c #DAA26A",
"_. c #C5A67A",
"`. c #D5A87B",
"'. c #D2B56C",
"]. c #EAA978",
"[. c #E5AD72",
"{. c #D8C649",
"}. c #E5D443",
"|. c #F9D946",
" X c #EAC859",
".X c #F3D755",
"XX c #F1CB4E",
"oX c #FDE94B",
"OX c #FBE955",
"+X c #FEF354",
"@X c #FEF459",
"#X c #FBF048",
"$X c #DBC669",
"%X c #F7D366",
"&X c #F1D16A",
"*X c #FDEA6C",
"=X c #397FB2",
"-X c #59798F",
";X c #6F7488",
":X c #5684AB",
">X c #6A94AA",
",X c #3E8AC4",
"<X c #4592C9",
"1X c #7DB3D9",
"2X c #958C85",
"3X c #87969B",
"4X c #A58A83",
"5X c #A99687",
"6X c #A89897",
"7X c #B49B96",
"8X c #B19287",
"9X c #B6A89B",
"0X c #B3A991",
"qX c #AB9CA2",
"wX c #9BA9AE",
"eX c #ACA9A6",
"rX c #B8A9A5",
"tX c #B2B3AF",
"yX c #9DA29E",
"uX c #CF8D88",
"iX c #D38D8B",
"pX c #C4A987",
"aX c #C9B98A",
"sX c #C5A597",
"dX c #CBB295",
"fX c #D7B993",
"gX c #DAAC85",
"hX c #EDB48A",
"jX c #C9B6A9",
"kX c #C8BEB7",
"lX c #CFB3AF",
"zX c #B9C3B5",
"xX c #D3C195",
"cX c #E4C495",
"vX c #F7C793",
"bX c #F6C78D",
"nX c #D8C8AA",
"mX c #CAC1B7",
"MX c #DAC9B8",
"NX c #E3D4A9",
"BX c #E4D6B7",
"VX c #E5CDAC",
"CX c #FFE0B7",
"ZX c #97B4C9",
"AX c #A8C2CC",
"SX c #E5DAC8",
"DX c #EBDBD8",
"FX c #F4E7CA",
"GX c #F5E4D7",
"HX c #F8E6E4",
"JX c #CFD6CE",
"KX c None",
/* pixels */
"KXKXKXKXKXKXKXKXKXKXKXKXKXKXKXKXKXKXKXKXKXKXKXKXKXKXKXKXKXKXKXKXKXKXKXKXKXKXKXKXKXKXKXKXKXKXKXKXKXKXKXKXKXKXKXKXKXKXKXKXKXKXKXKX",
"KXKXKXKXKXKXKXKXKXKXKXKXKXKXKXKXKXKXKXKXKXKXKXKXKXKXKXKXKXKXKXKXKXKXKXKXKXKXKXKXKXKXKXKXKXKXKXKXKXKXKXKXKXKXKXKXKXKXKXKXKXKXKXKX",
"KXKXKXKXKXKXKXKXKXKXKXKXKXKXKXKXKXKXKXKXKXKXKXKXKXKXKXKXKXKXKXKXKXKXKXKXKXKXKXKXKXKXKXKXKXKXKXKXKXKXKXKXKXKXKXKXKXKXKXKXKXKXKXKX",
"KXKXKXKXKXKXKXKXKXKXKXKXKXKXKXKXKXKXKXKXKXKXKXKXKXKXKXKXKXKXKXKXKXKXKXKXKXKXKXKXKXKXKXKXKXKXKXKXKXKXKXKXKXKXKXKXKXKXKXKXKXKXKXKX",
"KXKXKXKXKXKXKXKXKXKXKXKXKXKXKXKXKXKXKXKXKXKXKXKXKXKXKXKXKXKXKXKXKXKXKXKXKXKXKXKXKXKXKXKXKXKXKXKXKXKXKXKXKXKXKXKXKXKXKXKXKXKXKXKX",
"KXKXKXKXKXKXKXKXKXKXKXKXKXKXKXKXKXKXKXKXKXKXKXKXKXKXKXKXKXKXKXKXKXKXKXKXKXKXKXKXKXKXKXKXKXKXKXKXKXKXKXKXKXKXKXKXKXKXKXKXKXKXKXKX",
"KXKXKXKXKXKXKXKXKXKXKXKXKXKXKXKXKXKXKXKXKXKXKXKXKXKXKXKXKXKXKXKXKXKXKXKXKXKXKXKXKXKXKXKXKXKXKXKXKXKXKXKXKXKXKXKXKXKXKXKXKXKXKXKX",
"KXKXKXKXKXKXKXKXKXKXKXKXKXKXKXKXKXKXKXKXKXKXKXKXKXKXKXKXKXKXKXKXKXKXKXKXKXKXKXKXKXKXKXKXKXKXKXKXKXKXKXKXKXKXKXKXKXKXKXKXKXKXKXKX",
"KXKXKXKXKXKXKXKXKXKXKXKXKXKXKXKXKXKXKXKXKXKXKXKXKXKXKXKXKXKXKXKXKXKXKXKXKXKXKXKXKXKXKXKXKXKXKXKXKXKXKXKXKXKXKXKXKXKXKXKXKXKXKXKX",
"KXKXKXKXKXKXKXKXKXKXKXKXKXKXKXKXKXKXKXKXKXKXKXKXKXKXKXKXKXKXKXKXKXKXKXKXKXKXKXKXKXKXKXKXKXKXKXKXKXKXKXKXKXKXKXKXKXKXKXKXKXKXKXKX",
"KXKXKXKXKXKXKXKXKXKXKXKXKXKXKXKXKXKXKXKXKXKXKXKXKXKXwX-Xz ;XKXKXKXKXKXKXKXKXKXKXKXKXKXKXKXKXKXKXKXKXKXKXKXKXKXKXKXKXKXKXKXKXKXKX",
"KXKXKXKXKXKXKXKXKXKXKXKXKXKXKXKXKXKXKXKXKXKXKXKXwX;Xz z N x v P.KXKXKXKXKXKXKXKXKXKXKXKXKXKXKXKXKXKXKXKXKXKXKXKXKXKXKXKXKXKXKXKX",
"KXKXKXKXKXKXKXKXKXKXKXKXKXKXKXKXKXKXKXKXKXKXKXtXZX:X-X>X9XaX~.<.U.KXKXKXKXKXKXKXKXKXKXKXKXKXKXKXKXKXKXKXKXKXKXKXKXKXKXKXKXKXKXKX",
"KXKXKXKXKXKXKXKXKXKXKXKXKXKXKXKXKXKXKXKXKXKXzXAX1X:XZXJXFXvX).R.g KXKXKXKXKXKXKXKXKXKXKXKXKXKXKXKXKXKXKXKXKXKXKXKXKXKXKXKXKXKXKX",
"KXKXKXKXKXKXKXKXKXKXKXKXKXKXKXKXKXKXKXKXKXKXeXZX<X<XAXSXCXvX[.!.b KXKXKXKXKXKXKXKXKXKXKXKXKXKXKXKXKXKXKXKXKXKXKXKXKXKXKXKXKXKXKX",
"KXKXKXKXKXKXKXKXKXKXKXKXKXKXKXKXKXKXKXKXKXKX3X-X<X=X3XnX^.].^.+.9 4XKXKXKXKXKXKXKXKXKXKXKXKXKXKXKXKXKXKXKXKXKXKXKXKXKXKXKXKXKXKX",
"KXKXKXKXKXKXKXKXKXKXKXKXKXKXKXKXKXKXKXKXKXKXeXwX>X>XmX>.[ ).R.e.K.g KXKXKXKXKXKXKXKXKXKXKXKXKXKXKXKXKXKXKXKXKXKXKXKXKXKXKXKXKXKX",
"KXKX6X,.KXKXKXKXKXKXKXKXKXKXKXKXKXKXKXKXKXKXtXyXwXM n o.D.bX^.(.!.*.KXKXKXKXKXKXKXKXKXKXKXKXKXKXKXKXKXKXKXKXKXKXKXKXKXKXKXKXKXKX",
"KX7Xk pX>.KXKXKXKXKXKXKXKX7.KXKXKXKXKXKXKXKXKXJ.0X1.+ X.!.hX].e.2.> KXKXKXKXKXKXKXKXKXKXKXKXKXKXKXKXKXKXKXKXKXKXKXKXKXKXKXKXKXKX",
"KX6.3.X.| | ,.K.dXjXrXKX5XH.5X9XKXKXKXKXKXKXKXJ.`.`.1.,.`.gXq.D = O y r c 8X4XqX7X6X6XKXKXKXKXKXKXKXKXKXKXKXKXKXKXKXKXKXKXKXKXKX",
"dX3.`.R.~.+.f 8.KXKXKXKXG.U.j 8.M KXKXKXKXKXKXKX2.hXgXhXhXR.I $ C Z B # ; &.5.KXKXKXKXKXKXKXKXKXKXKXKXKXKXKXKXKXKXKXKXKXKXKXKXKX",
">.T.'.bXbX+.S.>.KXKXKXKXU.fX3._.H.KXKXKXKXKXKXP.e { gX<.W S V A A J I D * q iXKXKXKXKXKXKXKXKXKXKXKXKXKXKXKXKXKXKXKXKXKXKXKXKXKX",
"9XG.cXvX).| ! 7 f w 6.KXG._.gXS.1 6.KXKXKXKX8.{ f @ G S D L $.Y $.U K V B O P -.c 5.KXKXKXKXKXKXKXKXKXKXKXKXKXKXKXKXKXKXKXKXKXKX",
"KXm _.bXR.^.+.5 X.i *.S.Y.~.bX4.o.<.cXxXpXKX4 2 2 S G ~ #.$.$.$.$.Y U V $ # q iXKXKXKXKXKXKXKXKXKXKXKXKXKXKXKXKXKXKXKXKXKXKXKXKX",
"KXKX6.fX`.hX@.u +.| 3.+.^.[.R.+.Q <.[.'.i./ z.y.] %.S - Z Z A U Y K Z C C % ; uXKXKXKXKXKXKXKXKXKXKXKXKXKXKXKXKXKXKXKXKXKXKXKXKX",
"KXKXKXG.U.3.[ 7 Q i vX^.R.bXhX@.3 Q.%X%X*X.XZ.XXx.L S % Z U K U Z Z Z D I * O q &.KXKXKXKXKXKXKXKXKXKXKXKXKXKXKXKXKXKXKXKXKXKXKX",
"KXKXKXKXH.7.H.n g j T.cXbXbX^.! F x.%X.XXXm.M.M.x.! | 3 L T T Y Z C C D I $ # # q h 5.KXqX6XqXKXKXKXKXKXKXKXKXKXKXKXKXKXKXKXKXKX",
"KXKXKXKXKXKXKXKXKXKXU.K.cXcX[ Q ! ( ..p.t.t.' ( 3 2 W # C T A C B * * B V $ * P w.9.KXKXKXKXKXKXKXKXKXKXKXKXKXKXKXKXKXKXKXKXKXKX",
"KXKXKXKXKXKXKXKXKXKXKXKX>.k g v ,.6.H.G.G.A.G.4 S F - G # - - * * B B D $ * % } KXKXKXKXKXKXKXKXKXKXKXKXKXKXKXKXKXKXKXKXKXKXKXKX",
"KXKXKXKXKXKXKXKXKXKXKXKXKXKXKXKXKXKXKXKXKXKXKXH.7 S 3 G @ = S 3 3 % # & - = } -.5.5X4XKXKXKXKXKXKXKXKXKXKXKXKXKXKXKXKXKXKXKXKXKX",
"KXKXKXKXKXKXKXKXKXKXKXKXKXKXKXKXKXKXKXKXKXKXKXKX>.i W.p.' c.` 4 2 3 R E  .[ KXKXKXKXKXKXKXKXKXKXKXKXKXKXKXKXKXKXKXKXKXKXKXKXKXKX",
"KXKXKXKXKXKXKXKXKXKXKXKXKXKXKXKXKXKXKXKXKXKXKXKXKXT.F.*X%X%XQ.c.z.z.@.(  .o.8XKXKXKXKXKXKXKXKXKXKXKXKXKXKXKXKXKXKXKXKXKXKXKXKXKX",
"KXKXKXKXKXKXKXKXKXKXKXKXKXKXKXKXKXKXKXKXKXKXKXKXKXKXA.F.$X$XQ.W.'  .Q 4 1 5XKXKXMXKXKXKXKXKXKXKXKXKXKXKXKXKXKXKXKXKXKXKXKXKXKXKX",
"KXKXKXKXKXKXKXKXKXKXKXKXKXKXKXKXKXKXKXKXKXKXKXKXKXKXKXT.F./ E u @ o o +   U.KXKXKXKXKXKXKXKXKXKXKXKXKXKXKXKXKXKXKXKXKXKXKXKXKXKX",
"KXKXKXKXKXKXKXKXKXKXKXKXKXKXKXKXKXKXKXKXKXKXKXKXKXKXKXKXKXp 2 @ = @ + 4 u p i.~.E.aXxXBXKXKXKXKXKXKXKXKXKXKXKXKXKXKXKXKXKXKXKXKX",
"KXKXKXKXKXKXKXKXKXKXKXKXKXKXKXKXKXKXKXKXKXKXKXKXKXKXL.j ..( p.] E E ^ p.W.l.` ^ i.F.T.0XjXmXmXmXmXKXKXKXKXKXKXKXKXKXKXKXKXKXKXKX",
"KXKXKXKXKXKXKXKXKXKXKXKXKXKXKXKXKXKXKXKXKXKXKX0XL.i.E..XXXB.N.h.u.u.d.d.a.d.f.f.^  ._.dXSXHXDXGXDXKXKXKXKXKXKXKXKXKXKXKXKXKXKXKX",
"KXKXKXKXKXKXKXKXKXKXKXKXKXKXKXKXKXKXKXKXL.k p D.E.{..XoXn.j.j.j.M.b.N.V.V.m.n.M.y.R '.KXKXKXKXKXKXKXKXKXKXKXKXKXKXKXKXKXKXKXKXKX",
"KXKXKXKXKXKXKXKXKXKXKXKXKXKXKXKXKXKXL.p p ) .X{.Z.Z.g.r.s.s.a.a.y.x.v.m.m.g.d.h.a.y._ E.NXVXNXnXMXMXFXKXKXKXKXKXKXKXKXKXKXKXKXKX",
"KXKXKXKXKXKXKXKXKXKXKXKXKXKXKXKXKXb p ) p.g.g.g.g.g.s.r.h.m.M.] u _ _ r.r.r.r.s.r.u.p.) k xXNXNXNXMXFXKXKXKXKXKXKXKXKXKXKXKXKXKX",
"KXKXKXKXKXKXKXKXKXKXKXKXKXKXKXKXKXO.E. XOXoX|.N.C.N.h.n.n.l.t.( 1 Q v.|.#X@XOX*XOX}.B.c...O.A.cXNXnXnXFXKXKXKXKXKXKXKXKXKXKXKXKX",
"KXKXKXKXKXKXKXKXKXKXKXKXKXKXKXKXKXA.$X}.OXC.V.V.B.m.B.m.l.) l O.KXKXi.v.#X@X@X@X+XOXB.B.l.^ R k _.fXdXnXKXKXKXKXKXKXKXKXKXKXKXKX",
"KXKXKXKXKXKXKXKXKXKXKXKXKXKXKXKXKX0Xi.W.m.m.m.c.p.' ) ( D.D.,.dXKXKXKXt.Z.#X+X+X+X+X#XN.s.u.^ ( @.xXVXlXSXKXKXKXKXKXKXKXKXKXKXKX",
"KXKXKXKXKXKXKXKXKXKXKXKXKXKXKXKXKXKXL.l ^ ] ' u > 1 S.fXKXKXKXKXKXKXKXF.v.}.+X#X#X#X#Xj.j.M.] u o.fXdXCXKXKXKXKXKXKXKXKXKXKXKXKX",
"KXKXKXKXKXKXKXKXKXKXKXKXKXKXKXKXKXKXKXk : + + o @ < 8.9XsXKXKXKXKXKXKXKXF.v.}.#X+X+XC.j.j.b.` 2 4 S.dXVXHXKXKXKXKXKXKXKXKXKXKXKX",
"KXKXKXKXKXKXKXKXKXKXKXKXKXKXKXKXKXKXKXKX*.8.{ { y c 8.KXKXKXKXKXKXKXKXKXKXD.{.+XOX|.N.n.b.f.! o < w g -.8XrXtXKXKXKXKXKXKXKXKXKX",
"KXKXKXKXKXKXKXKXKXKXKXKXKXKXKXKXKXKXKXKX5.I./.=.P h P.KXKXKXKXKXKXKXKXKXKXKXD.F. Xv.n.j.f.` 2 @ 7 r w sXHXKXKXKXKXKXKXKXKXKXKXKX",
"KXKXKXKXKXKXKXKXKXKXKXKXKXKXKXKXKXKXKXKX7.I./.4.{ r 0.7X9XeXKXKXKXKXKXKXKXKXKXA./ ) ^ ] R u 6 t P { t c 5.rXqXeXtXKXKXKXKXKXKXKX",
"KXKXKXKXKXKXKXKXKXKXKXKXKXKXKXKXKXKXKXKXKX5.uX9.=.P 5.lXKXKXKXKXKXKXKXKXKXKXKXKXKXL.n *.v g c 5.9.e.2.h r MXHXKXKXKXKXKXKXKXKXKX",
"KXKXKXKXKXKXKXKXKXKXKXKXKXKXKXKXKXKXKXKXKX5.uXw.;.e 5.4XtXKXKXKXKXKXKXKXKXKXKXKXKXKXKXKXKXKXP.r 9.(.q.4.&.r -.6XjXqXqXKXKXKXKXKX",
"KXKXKXKXKXKXKXKXKXKXKXKXKXKXKXKXKXKXKXKXKXP.:.2.=.e 0.kXKXKXKXKXKXKXKXKXKXKXKXKXKXKXKXKXKXKXKXKX*.5././.q.-.t &.5.MXDXKXKXKXKXKX",
"KXKXKXKXKXKXKXKXKXKXKXKXKXKXKXKXKXKXKXKXKXKX+ ; q &.0 *.m 6XrXtXKXKXKXKXKXKXKXKXKXKXKXKXKXKXKXKXKX7.-.9.w.4.;.P t 0.7XrXrXKXKXKX",
"KXKXKXKXKXKXKXKXKXKXKXKXKXKXKXKXKXKXKXKXKXU.h I.9.&.0 7.KXKXKXKXKXKXKXKXKXKXKXKXKXKXKXKXKXKXKXKXKXKXKX*.;.;.P = e < 5XGXKXKXKXKX",
"KXKXKXKXKXKXKXKXKXKXKXKXKXKXKXKXKXKXKXKXa 9 v I.w.:.g r 4XKXKXKXKXKXKXKXKXKXKXKXKXKXKXKXKXKXKXKXKXKXKXKXy q } 2.=.e d k 5XrXKXKX",
"KXKXKXKXKXKXKXKXKXKXKXKXKXKXKXKXKXKXJ.9 j 9 < w :.-.h w c 8.4X7X6XKXKXKXKXKXKXKXKXKXKXKXKXKXKXKXKXKXKXKX5.c :.w > +   X b 2XKXKX",
"KXKXKXKXKXKXKXKXKXKXKXKXKXKXKXKXKXKX8 8 8 8 , , : , 0 g c v KXKXKXKXKXKXKXKXKXKXKXKXKXKXKXKXKXKXKXKXKXKXKX. 8 g j n d d x a 2XmX",
"KXKXKXKXKXKXKXKXKXKXKXKXKXKXKXKXKXKXKXKXKXKXKXKXKXKXKXKXKXKXKXKXKXKXKXKXKXKXKXKXKXKXKXKXKXKXKXKXKXKXKXKXKXKXa 8 8 s 8 8 a a 2XtX",
"KXKXKXKXKXKXKXKXKXKXKXKXKXKXKXKXKXKXKXKXKXKXKXKXKXKXKXKXKXKXKXKXKXKXKXKXKXKXKXKXKXKXKXKXKXKXKXKXKXKXKXKXKXKXKXKXKXKXKXKXKXKXKXKX",
"KXKXKXKXKXKXKXKXKXKXKXKXKXKXKXKXKXKXKXKXKXKXKXKXKXKXKXKXKXKXKXKXKXKXKXKXKXKXKXKXKXKXKXKXKXKXKXKXKXKXKXKXKXKXKXKXKXKXKXKXKXKXKXKX",
"KXKXKXKXKXKXKXKXKXKXKXKXKXKXKXKXKXKXKXKXKXKXKXKXKXKXKXKXKXKXKXKXKXKXKXKXKXKXKXKXKXKXKXKXKXKXKXKXKXKXKXKXKXKXKXKXKXKXKXKXKXKXKXKX",
"KXKXKXKXKXKXKXKXKXKXKXKXKXKXKXKXKXKXKXKXKXKXKXKXKXKXKXKXKXKXKXKXKXKXKXKXKXKXKXKXKXKXKXKXKXKXKXKXKXKXKXKXKXKXKXKXKXKXKXKXKXKXKXKX",
"KXKXKXKXKXKXKXKXKXKXKXKXKXKXKXKXKXKXKXKXKXKXKXKXKXKXKXKXKXKXKXKXKXKXKXKXKXKXKXKXKXKXKXKXKXKXKXKXKXKXKXKXKXKXKXKXKXKXKXKXKXKXKXKX",
"KXKXKXKXKXKXKXKXKXKXKXKXKXKXKXKXKXKXKXKXKXKXKXKXKXKXKXKXKXKXKXKXKXKXKXKXKXKXKXKXKXKXKXKXKXKXKXKXKXKXKXKXKXKXKXKXKXKXKXKXKXKXKXKX",
"KXKXKXKXKXKXKXKXKXKXKXKXKXKXKXKXKXKXKXKXKXKXKXKXKXKXKXKXKXKXKXKXKXKXKXKXKXKXKXKXKXKXKXKXKXKXKXKXKXKXKXKXKXKXKXKXKXKXKXKXKXKXKXKX"
};
