/* XPM */
static char *avatarmv2_no_bg1739392765[] = {
/* columns rows colors chars-per-pixel */
"64 64 252 2 ",
"   c #340E02",
".  c #3C240E",
"X  c #3B3228",
"o  c #1D0803",
"O  c #570701",
"+  c #471A01",
"@  c #5B1B00",
"#  c #490907",
"$  c #680800",
"%  c #651B04",
"&  c #791801",
"*  c #7A0D00",
"=  c #492605",
"-  c #572603",
";  c #4A2816",
":  c #592817",
">  c #54370B",
",  c #642B00",
"<  c #652703",
"1  c #762705",
"2  c #663704",
"3  c #773B04",
"4  c #682F1A",
"5  c #7B2C15",
"6  c #603B11",
"7  c #473929",
"8  c #5A3829",
"9  c #573D33",
"0  c #4D2E2B",
"q  c #6A3729",
"w  c #7A3527",
"e  c #67342F",
"r  c #5F4308",
"t  c #694603",
"y  c #764704",
"u  c #775504",
"i  c #6B4914",
"p  c #794618",
"a  c #745718",
"s  c #56432A",
"d  c #5B4A35",
"f  c #674728",
"g  c #754827",
"h  c #684636",
"j  c #724735",
"k  c #77583B",
"l  c #6F582E",
"z  c #797138",
"x  c #293668",
"c  c #402E46",
"v  c #695547",
"b  c #785948",
"n  c #795D54",
"m  c #6B4E44",
"M  c #796549",
"N  c #7A6659",
"B  c #72715D",
"V  c #766B62",
"C  c #7A7572",
"Z  c #50515A",
"A  c #8C1C01",
"S  c #851900",
"D  c #981B02",
"F  c #890600",
"G  c #A91D01",
"H  c #BB1C08",
"J  c #872504",
"K  c #972602",
"L  c #982D12",
"P  c #AA2708",
"I  c #B42502",
"U  c #BB2405",
"Y  c #AB390E",
"T  c #873529",
"R  c #C62703",
"E  c #C93709",
"W  c #DA3704",
"Q  c #D53713",
"!  c #CC2F10",
"~  c #EA3C03",
"^  c #EA3C0B",
"/  c #F43C04",
"(  c #E63A16",
")  c #F03A15",
"_  c #854703",
"`  c #8A5B03",
"'  c #945B03",
"]  c #855A14",
"[  c #8B4F17",
"{  c #8A6616",
"}  c #986718",
"|  c #956D0D",
" . c #AB7B14",
".. c #A97E08",
"X. c #89583A",
"o. c #8B4F30",
"O. c #AF5230",
"+. c #966B29",
"@. c #987939",
"#. c #876E2F",
"$. c #A76527",
"%. c #A67624",
"&. c #BA7634",
"*. c #B4431B",
"=. c #C74216",
"-. c #DD4613",
";. c #DD440A",
":. c #E9440C",
">. c #FA4203",
",. c #F44407",
"<. c #ED4517",
"1. c #DC4F21",
"2. c #934D43",
"3. c #895846",
"4. c #895952",
"5. c #955B55",
"6. c #945348",
"7. c #A35A50",
"8. c #896A4A",
"9. c #896959",
"0. c #986956",
"q. c #977658",
"w. c #94704A",
"e. c #A97847",
"r. c #A56757",
"t. c #B66B56",
"y. c #A67756",
"u. c #B7785A",
"i. c #897669",
"p. c #947A66",
"a. c #8A7A76",
"s. c #8E7166",
"d. c #AB7A68",
"f. c #B67468",
"g. c #BC6A61",
"h. c #C87B73",
"j. c #C57C6D",
"k. c #C37A59",
"l. c #B98918",
"z. c #AE8410",
"x. c #BFA11D",
"c. c #888238",
"v. c #B8883C",
"b. c #B2922F",
"n. c #BBA83D",
"m. c #C7920C",
"M. c #CBA418",
"N. c #D9B319",
"B. c #E7B61A",
"V. c #E4A716",
"C. c #C79723",
"Z. c #C69435",
"A. c #CAA425",
"S. c #D6A622",
"D. c #DDB826",
"F. c #D3A734",
"G. c #E9B926",
"H. c #EDB627",
"J. c #E1C318",
"K. c #DAC431",
"L. c #EAC628",
"P. c #F5D32E",
"I. c #EDD735",
"U. c #F0CE31",
"Y. c #F9E53C",
"T. c #FEF23C",
"R. c #9A8556",
"E. c #9B884C",
"W. c #A5964A",
"Q. c #B48A58",
"!. c #BA9656",
"~. c #AB894D",
"^. c #B7AB52",
"/. c #B6AE53",
"(. c #9A8767",
"). c #988878",
"_. c #9C9476",
"`. c #8F8C74",
"'. c #A68467",
"]. c #A58777",
"[. c #B98577",
"{. c #B49672",
"}. c #A8AA6F",
"|. c #CE8E52",
" X c #D3B658",
".X c #D0AA4C",
"XX c #C3886E",
"oX c #C69364",
"OX c #C98479",
"+X c #D38579",
"@X c #DD9D77",
"#X c #D19A6B",
"$X c #E49867",
"%X c #D3AD75",
"&X c #D6AB6E",
"*X c #EDB473",
"=X c #E8AD52",
"-X c #D6C858",
";X c #CBC44E",
":X c #E7C754",
">X c #E6D049",
",X c #FDEC4B",
"<X c #F9E846",
"1X c #FCF444",
"2X c #F8F54B",
"3X c #F8E957",
"4X c #FCF453",
"5X c #FBF95C",
"6X c #F8F758",
"7X c #EDEF51",
"8X c #D7CD65",
"9X c #E8C865",
"0X c #F5C968",
"qX c #E8D66E",
"wX c #FDEC66",
"eX c #F9F867",
"rX c #FBE877",
"tX c #F1EC6C",
"yX c #475C8E",
"uX c #556D93",
"iX c #817681",
"pX c #788C9D",
"aX c #518BAB",
"sX c #6685A7",
"dX c #7990A5",
"fX c #3991D0",
"gX c #438ECD",
"hX c #62ABE0",
"jX c #9B8B83",
"kX c #9D9389",
"lX c #8F9398",
"zX c #AE928F",
"xX c #B8AE83",
"cX c #95ADAD",
"vX c #A7AEA9",
"bX c #9591AC",
"nX c #D88A82",
"mX c #D09087",
"MX c #D6A986",
"NX c #ECB98C",
"BX c #C3BBA6",
"VX c #A8C3B3",
"CX c #C8C291",
"ZX c #FFD498",
"AX c #FFE483",
"SX c #D7CBB7",
"DX c #FCDEAD",
"FX c #89B3D1",
"GX c #B8C1C0",
"HX c #A8D9E6",
"JX c #D7DDCD",
"KX c None",
/* pixels */
"KXKXKXKXKXKXKXKXKXKXKXKXKXKXKXKXKXKXKXKXKXKXKXKXKXKXKXKXKXKXKXKXKXKXKXKXKXKXKXKXKXKXKXKXKXKXKXKXKXKXKXKXKXKXKXKXKXKXKXKXKXKXKXKX",
"KXKXKXKXKXKXKXKXKXKXKXKXKXKXKXKXKXKXKXKXKXKXKXKXKXKXKXKXKXKXKXKXKXKXKXKXKXKXKXKXKXKXKXKXKXKXKXKXKXKXKXKXKXKXKXKXKXKXKXKXKXKXKXKX",
"KXKXKXKXKXKXKXKXKXKXKXKXKXKXKXKXKXKXKXKXKXKXKXKXKXKXKXKXKXKXKXKXKXKXKXKXKXKXKXKXKXKXKXKXKXKXKXKXKXKXKXKXKXKXKXKXKXKXKXKXKXKXKXKX",
"KXKXKXKXKXKXKXKXKXKXKXKXKXKXKXKXKXKXKXKXKXKXKXKXKXKXKXKXKXiXZ iXKXKXKXKXKXKXKXKXKXKXKXKXKXKXKXKXKXKXKXKXKXKXKXKXKXKXKXKXKXKXKXKX",
"KXKXKXKXKXKXKXKXKXKXKXKXKXKXKXKXKXKXKXKXKXKXKXKXKXKXKXV 0 c x x x dXKXKXKXKXKXKXKXKXKXKXKXKXKXKXKXKXKXKXKXKXKXKXKXKXKXKXKXKXKXKX",
"KXKXKXKXKXKXKXKXKXKXKXKXKXKXKXKXKXKXKXKXKXKXKXKXKXKX9.p.zXzXbXyXyXsXcXKXKXKXKXKXKXKXKXKXKXKXKXKXKXKXKXKXKXKXKXKXKXKXKXKXKXKXKXKX",
"KXKXKXKXKXKXKXKXKXKXKXKXKXKXKXKXKXKXKXKXKXKXKXKXKXp.y.oX@XZXSXGXaXaXcXVXKXKXKXKXKXKXKXKXKXKXKXKXKXKXKXKXKXKXKXKXKXKXKXKXKXKXKXKX",
"KXKXKXKXKXKXKXKXKXKXKXKXKXKXKXKXKXKXKXKXKXKXKXKXKX3.u.$XNXZXDXJXHXgXaXHXbXKXKXKXKXKXKXKXKXKXKXKXKXKXKXKXKXKXKXKXKXKXKXKXKXKXKXKX",
"KXKXKXKXKXKXKXKXKXKXKXKXKXKXKXKXKXKXKXKXKXKXKXKXKX4.t.$X*XZXDXSXFXgXfXhXsXKXKXKXKXKXKXKXKXKXKXKXKXKXKXKXKXKXKXKXKXKXKXKXKXKXKXKX",
"KXKXKXKXKXKXKXKXKXKXKXKXKXKXKXKXKXKXKXKXKXKXKXKXkXf O.|.*X&X{.BXsXaXgXgXuXKXKXKXKXKXKXKXKXKXKXKXKXKXKXKXKXKXKXKXKXKXKXKXKXKXKXKX",
"KXKXKXKXKXKXKXKXKXKXKXKXKXKXKXKXKXKXKXKXKXKXKXKX8 u.|.&. X!.i (.JXdXsXFXpXKXKXKXKXKXKXKXKXKXKXKXKXKXKXKXKXKXKXKXKXKXKXKXKXKXKXKX",
"KXKXKXKXKXKXKXKXKXKXKXKXKXKXKXKXKXKXKXKXKXKXKXKXb y.|.|.*X*Xw.8.M B vXvXlXKXKXKXKXKXKXKXKXKXKXKXKXKXKXKXKXKXKXKXKXKXKXKXKXKXKXKX",
"KXKXKXKXKXKXKXKXKXKXKXKXKXKXKXKXKXKXKXKXKXKXKXKXs y.oX#X*XNX'.k ; 8.MXd.KXKXKXKXKXKXKXKXKXKXKXKXKXKXKXKXKXKXKXKXKXKXKXKXKXKXKXKX",
"KXKXKXKXKXKXKXKXKXKXKXKXKXKXKXKXKXKXKXKXKXKXKXKXb + , e.*X*XQ.f f %XMXy.KXKXKXKXKXKXKXKXKXKXKXKXKXKXKXKXKXKXKXKXKXKXKXKXKXKXKXKX",
"KXKXKXKXKXKXKXKXKXKXKXKXKXKXKXKXKXKXKXKXKXKX9.  + i - p $X$XNX%X%XNXMX].KXKXKXKXKXKXKXKXKXKXKXKXKXKXKXKXKXKXKXKXKXKXKXKXKXKXKXKX",
"KXKXKXKXKXKXKXKXKXKXKXKXKXKXKXKXKXKXKXKXa.= O 1 @ p |.] $.$X*XZX#XQ.- q KXKXKXKXKXKXKXKXKXKXKXKXKXkXV C KXKXKXKXKXKXKXKXKXKXKXKX",
"KXKXKXKXKXKXKXKXKXKXKXKXKXKXKXKXKXKXKXm & S L H S 1 9X X` | |.|.k.1 J J 5 2.s.KXKXKXKXKXKXKXKXKXM h i.M ).KXKXKXKXKXKXKXKXKXKXKX",
"KXKXKXKXKXKXKXKXKXKXKXKXKXKXKXKXKXKX0 % L P H H G J ` 9X9X} $.7.& D =.-.=.J 1 q zXKXKXKXKXKXKXN b y.k M N kXKXKXKXKXKXKXKXKXKXKX",
"KXKXKXKXKXKXKXKXKXKXKXKXKXKXKXKXKXKX4 5 L H H H U I A 1 } } 1 * I W / ~ :.E E *.5 KXKXKXKXKXKXM 0.e.y.j n v zXKXKXKXKXKXKXKXKXKX",
"KXKXKXKXKXKXKXKXKXKXKXKXKXKXKXKXKXKX: & A L H ! ( W U A % O S E ;.,./ ~ W :.W ;.*.5 KXKXKXKXKX; o.2 7.f : n V KXKXKXKXKXKXKXKXKX",
"KXKXKXKXKXKXKXKXKXKXKXKXKXKXKXKXKXKX4 % * D H Q ,.>.,.-.P S 1./ ,.,./ ~ R H W / ;.*.5 KXKXKXxXX., 3 X.X.8 9 KXKXKXKXKXKXKXKXKXKX",
"KXKXKXKXKXKXKXKXKXKXKXKXb 9.M i.KXKX: @ $ D H ( >./ >.:.P D ( / >.,.~ ^ G F W ~ ,.-.*.4 ]._.> @.!.g X.'.9.KXKXKXKXKXKXKXKXKXKXKX",
"KXKXKXKXKXKXKXKXKXKXKXv q d.w.{.j b = + O K H W / >.,.;.K $ E ) ) ) ) Q D * ;.:.^ -.Y - ~.^.` 3 Q.w.> (.KXKXKXKXKXKXKXKXKXKXKXKX",
"KXKXKXKXKXKXKXKXKXKXKX8 0.@XoXl - g &Xa # J G R ^ ,.,.Q & O D R ) ) ( ! F S I W <.E S %.AXrX0X+.> (.KXKXKXKXKXKXKXKXKXKXKXKXKXKX",
"KXKXKXKXKXKXKXKXKXKXKXf u.@XQ.2 a y  X9Xi % P U W ,.( I 1 ' $ P R <.Q I * S G U E K y >XeXwX8XE.KXKXKXKXKXKXKXKXKXKXKXKXKXKXKXKX",
"KXKXKXKXKXKXKXKXKXKXKXs XX@X!.+.&X3 .XAX.X, J P I U U D 3 Z._ J K P D & O $ D G K 3 F.3X3X-XW.KXKXKXKXKXKXKXKXKXKXKXKXKXKXKXKXKX",
"KXKXKXKXKXKXKXKXKXKXKX9 0.XXR.o.u.3 }  X&X> % J J J J $ J :XF._ < - @ : n 0 O T 1 J  XeX XW.KXKXKXKXKXKXKXKXKXKXKXKXKXKXKXKXKXKX",
"KXKXKXKXKXKXKXKXKXKXKX].8.9.3.g p - i a f = 4.4 : < 1 [ Z.0XrX0X|.v.l KXKXKXe # # 2 b.b.e.KXKXKXKXKXKXKXKXKXKXKXKXKXKXKXKXKXKXKX",
"KXKXKXKXKXKXKXKXKXKXKXKXKXKXKXKXKXKXKXKXKXKXKXKXN M i } $.&.~.Z.Q.] f KXKXKXKXn o   . l KXKXKXKXKXKXKXKXKXKXKXKXKXKXKXKXKXKXKXKX",
"KXKXKXKXKXKXKXKXKXKXKXKXKXKXKXKXKXKXKXKXKXKXKXKXKXM . = , 3 _ _ 3 , t R.KXKXKXKXKXKXKXKXKXKXKXKXKXKXKXKXKXKXKXKXKXKXKXKXKXKXKXKX",
"KXKXKXKXKXKXKXKXKXKXKXKXKXKXKXKXKXKXKXKXKXKXKXKXW.b.z.` 2 % < < < ` b.n.}.KXKXKXKXKXKXKXKXKXKXKXKXKXKXKXKXKXKXKXKXKXKXKXKXKXKXKX",
"KXKXKXKXKXKXKXKXKXKXKXKXKXKXKXKXKXKXKXKXKXKXKXR.+.>X>XG.C.| ' _ l.=XK.7X8X}.KXKXKXKXKXKXKXKXKXKXKXKXKXKXKXKXKXKXKXKXKXKXKXKXKXKX",
"KXKXKXKXKXKXKXKXKXKXKXKXKXKXKXKXKXKXKXKXKXKX9.{ ;X,X<XL.H.H.M.A.L.G.<X2XeX;X}.KXKXKXKXKXKXKXKXKXKXKXKXKXKXKXKXKXKXKXKXKXKXKXKXKX",
"KXKXKXKXKXKXKXKXKXKXKXKXKXKXKXKXKXKXKXKXKX_.a -X3X1XY.Y.P.P.G.N.N.U.,X2X5XeX-XW.CXKXKXKXKXKXKXKXKXKXKXKXKXKXKXKXKXKXKXKXKXKXKXKX",
"KXKXKXKXKXKXKXKXKXKXKXKXKXKXKXKXKXKXKXKXKXz ^.3X4X,X2X1X2X<XD.M.B.U.,XwX7X6XeX7X/.xXKXKXKXKXKXKXKXKXKXKXKXKXKXKXKXKXKXKXKXKXKXKX",
"KXKXKXKXKXKXKXKXKXKXKXKXKXKXKXKXKXKXKXKX_.c.>X6X4X4X2X1XT.I.x.z.D.L.U.3X4X6X6X7XtX XCXKXKXKXKXKXKXKXKXKXKXKXKXKXKXKXKXKXKXKXKXKX",
"KXKXKXKXKXKXKXKXKXKXKXKXKXKXKXKXKXKXKXKXc..X5X<X6XeX7X2X1XK.u ` M.B.G.P.,X4X2X6X6XtX^.CXKXKXKXKXKXKXKXKXKXKXKXKXKXKXKXKXKXKXKXKX",
"KXKXKXKXKXKXKXKXKXKXKXKXKXKXKXKXKXKXKX_.u ;X6X4X6X6X6X5X7Xb.t u C.H.H.B.P.2X2X6X6X6XrX/.xXKXKXKXKXKXKXKXKXKXKXKXKXKXKXKXKXKXKXKX",
"KXKXKXKXKXKXKXKXKXKXKXKXKXKXKXKXKXKXi.r ..L.2X2X6X6X3XtX/.E.KX'.{ l.G.J.J.I.7X2X2X6XeXtXW.z KXKXKXKXKXKXKXKXKXKXKXKXKXKXKXKXKXKX",
"KXKXKXKXKXKXKXKXKXKXKXKXKXKXKXKXKXzXf t z.Y.T.2X7X6XrX XR.KXKXKX{.] ..A.D.D.I.,X<X<X7X7XqXc.KXKXKXKXKXKXKXKXKXKXKXKXKXKXKXKXKXKX",
"KXKXKXKXKXKXKXKXKXKXKXKXKXKXKXKXKXk +.` m.H.P.T.1X7X>X{ KXKXKXKXKXKX#.u  .A.m.N.L.I.Y.3XqXc.KXKXKXKXKXKXKXKXKXKXKXKXKXKXKXKXKXKX",
"KXKXKXKXKXKXKXKXKXKXKXKXKXKXKXKXKXl %.l.m.V.L.B.L.K...> KXKXKXKXKXKXKXk 2 _ l.N.P.1X,XwX8Xc.KXKXKXKXKXKXKXKXKXKXKXKXKXKXKXKXKXKX",
"KXKXKXKXKXKXKXKXKXKXKXKXKXKXKXKXKX8.{ C.V.B.B.B.G.m.t +.M KXKXKXKXKXKX).i ` z.B.G.<X<X3X^.R.KXKXKXKXKXKXKXKXKXKXKXKXKXKXKXKXKXKX",
"KXKXKXKXKXKXKXKXKXKXKXKXKXKXKXKXKX_.r z.V.H.B.B.B.N.Z.@.(.KXKXKXKXKXKXKXl } | z.M.M.n.b.@.KXKXKXKXKXKXKXKXKXKXKXKXKXKXKXKXKXKXKX",
"KXKXKXKXKXKXKXKXKXKXKXKXKXKXKXKXKXKX> [  .V.H.G.G.F.b.@.KXKXKXKXKXKXKXKXKX(.i ] | u 2 6 h KXKXKXKXKXKXKXKXKXKXKXKXKXKXKXKXKXKXKX",
"KXKXKXKXKXKXKXKXKXKXKXKXKXKXKXKXKXKX0 < J |  .l.l.| l KXKXKXKXKXKXKXKXKXKXKXh + < 3 X.0.9.KXKXKXKXKXKXKXKXKXKXKXKXKXKXKXKXKXKXKX",
"KXKXKXKXKXKXKXKXKXKXKXKXKXKXKXKXKXKXq o.T [ p , i q.KXKXKXKXKXKXKXKXKXKXKXKXm 8 o.r.XX{.n KXKXKXKXKXKXKXKXKXKXKXKXKXKXKXKXKXKXKX",
"KXKXKXKXKXKXKXKXKXKXKXKXKXKXKXKXKX].2.t.h.f.X.l b KXKXKXKXKXKXKXKXKXKXKXKXKXKXh T h.+X[.B KXKXKXKXKXKXKXKXKXKXKXKXKXKXKXKXKXKXKX",
"KXKXKXKXKXKXKXKXKXKXKXKXKXKXKXKXKX8 r.h.+X+X[.i.KXKXKXKXKXKXKXKXKXKXKXKXKXKXKXs.w h.+XzXN KXKXKXKXKXKXKXKXKXKXKXKXKXKXKXKXKXKXKX",
"KXKXKXKXKXKXKXKXKXKXKXKXKXKXKXKX4.j g.+X+X+Xd.b KXKXKXKXKXKXKXKXKXKXKXKXKXKXKXi.e h.nXf.N KXKXKXKXKXKXKXKXKXKXKXKXKXKXKXKXKXKXKX",
"KXKXKXKXKXKXKXKXKXKXKXKXKXKXKXKXe 6.h.h.+XmX9.KXKXKXKXKXKXKXKXKXKXKXKXKXKXKXKXKXe r.h.OXN KXKXKXKXKXKXKXKXKXKXKXKXKXKXKXKXKXKXKX",
"KXKXKXKXKXKXKXKXKXKXKXKXKXKXKXjXe t.nX+XnXd.s.KXKXKXKXKXKXKXKXKXKXKXKXKXKXKXKXKXe 2.h.6.b KXKXKXKXKXKXKXKXKXKXKXKXKXKXKXKXKXKXKX",
"KXKXKXKXKXKXKXKXKXKXKXKXKXKXKX9 @ 2.g.h.mX0.KXKXKXKXKXKXKXKXKXKXKXKXKXKXKXKXKXKXe w T T s.(.KXKXKXKXKXKXKXKXKXKXKXKXKXKXKXKXKXKX",
"KXKXKXKXKXKXKXKXKXKXKXKXKXKXKXm o.T T 2.5.a.KXKXKXKXKXKXKXKXKXKXKXKXKXKXKXKXKXKX: 2.f.f.].s s.KXKXKXKXKXKXKXKXKXKXKXKXKXKXKXKXKX",
"KXKXKXKXKXKXKXKXKXKXKXKXKXKXh ; X.X.7.7.m KXKXKXKXKXKXKXKXKXKXKXKXKXKXKXKXKXKXKX0 5.OXf.d d v 7 KXKXKXKXKXKXKXKXKXKXKXKXKXKXKXKX",
"KXKXKXKXKXKXKXKXKXKXKXKXKXd s 8 = 4 w r.iXKXKXKXKXKXKXKXKXKXKXKXKXKXKXKXKXKXKXKX0 e m 0 ; 7 7 X X KXKXKXKXKXKXKXKXKXKXKXKXKXKXKX",
"KXKXKXKXKXKXKXKXKXKXKXKXv d d k k j j ; zXKXKXKXKXKXKXKXKXKXKXKXKXKXKXKXKXKXKXKXjXa.a.i.i.a.a.a.C KXKXKXKXKXKXKXKXKXKXKXKXKXKXKX",
"KXKXKXKXKXKXKXKXKXKXKXZ s X d d s s 8 . KXKXKXKXKXKXKXKXKXKXKXKXKXKXKXKXKXKXKXKXKXKXKXKXKXKXKXKXKXKXKXKXKXKXKXKXKXKXKXKXKXKXKXKX",
"KXKXKXKXKXKXKXKXKXKXKXkXkXjXjX`.`._.jXjXKXKXKXKXKXKXKXKXKXKXKXKXKXKXKXKXKXKXKXKXKXKXKXKXKXKXKXKXKXKXKXKXKXKXKXKXKXKXKXKXKXKXKXKX",
"KXKXKXKXKXKXKXKXKXKXKXKXKXKXKXKXKXKXKXKXKXKXKXKXKXKXKXKXKXKXKXKXKXKXKXKXKXKXKXKXKXKXKXKXKXKXKXKXKXKXKXKXKXKXKXKXKXKXKXKXKXKXKXKX",
"KXKXKXKXKXKXKXKXKXKXKXKXKXKXKXKXKXKXKXKXKXKXKXKXKXKXKXKXKXKXKXKXKXKXKXKXKXKXKXKXKXKXKXKXKXKXKXKXKXKXKXKXKXKXKXKXKXKXKXKXKXKXKXKX",
"KXKXKXKXKXKXKXKXKXKXKXKXKXKXKXKXKXKXKXKXKXKXKXKXKXKXKXKXKXKXKXKXKXKXKXKXKXKXKXKXKXKXKXKXKXKXKXKXKXKXKXKXKXKXKXKXKXKXKXKXKXKXKXKX",
"KXKXKXKXKXKXKXKXKXKXKXKXKXKXKXKXKXKXKXKXKXKXKXKXKXKXKXKXKXKXKXKXKXKXKXKXKXKXKXKXKXKXKXKXKXKXKXKXKXKXKXKXKXKXKXKXKXKXKXKXKXKXKXKX",
"KXKXKXKXKXKXKXKXKXKXKXKXKXKXKXKXKXKXKXKXKXKXKXKXKXKXKXKXKXKXKXKXKXKXKXKXKXKXKXKXKXKXKXKXKXKXKXKXKXKXKXKXKXKXKXKXKXKXKXKXKXKXKXKX"
};
