/* XPM */
static char *avatarmv2_left1739523901[] = {
/* columns rows colors chars-per-pixel */
"64 64 246 2 ",
"   c #321004",
".  c #30230F",
"X  c #3B1E20",
"o  c #241D16",
"O  c #4C0900",
"+  c #570600",
"@  c #4D1801",
"#  c #571703",
"$  c #581B16",
"%  c #640B01",
"&  c #670600",
"*  c #770700",
"=  c #691901",
"-  c #7A1700",
";  c #611D14",
":  c #4A2701",
">  c #572905",
",  c #583501",
"<  c #592917",
"1  c #5B351A",
"2  c #4A3113",
"3  c #672702",
"4  c #762804",
"5  c #6A3C00",
"6  c #663707",
"7  c #773A00",
"8  c #67351A",
"9  c #773218",
"0  c #572C28",
"q  c #493728",
"w  c #533827",
"e  c #523735",
"r  c #662C28",
"t  c #673B29",
"y  c #683B36",
"u  c #743C35",
"i  c #7D3626",
"p  c #5A4200",
"a  c #674405",
"s  c #794504",
"d  c #7C5200",
"f  c #6B4619",
"g  c #7C4A1A",
"h  c #79541A",
"j  c #5D4329",
"k  c #574639",
"l  c #6B4829",
"z  c #764929",
"x  c #6B5826",
"c  c #765628",
"v  c #654839",
"b  c #794435",
"n  c #775638",
"m  c #6E563E",
"M  c #786B2B",
"N  c #776405",
"B  c #353148",
"V  c #1A3D71",
"C  c #29446B",
"Z  c #564A47",
"A  c #6B5348",
"S  c #775747",
"D  c #74504A",
"F  c #6A6558",
"G  c #786658",
"H  c #786964",
"J  c #851D00",
"K  c #861701",
"L  c #921200",
"P  c #981B04",
"I  c #A61D02",
"U  c #B91C03",
"Y  c #872305",
"T  c #982605",
"R  c #AA2705",
"E  c #B32303",
"W  c #BC2400",
"Q  c #B82B06",
"!  c #B1350C",
"~  c #81362F",
"^  c #CB2B03",
"/  c #CA3406",
"(  c #D73807",
")  c #D7340D",
"_  c #E83909",
"`  c #F53D05",
"'  c #EC3E12",
"]  c #814204",
"[  c #895702",
"{  c #955703",
"}  c #845B16",
"|  c #995519",
" . c #B04E11",
".. c #996407",
"X. c #896718",
"o. c #986918",
"O. c #8F700D",
"+. c #A4771A",
"@. c #AF7809",
"#. c #855829",
"$. c #884A36",
"%. c #855735",
"&. c #924D32",
"*. c #856937",
"=. c #987633",
"-. c #906B31",
";. c #A8702D",
":. c #DD4718",
">. c #CF4713",
",. c #ED410B",
"<. c #EB4306",
"1. c #F14301",
"2. c #F74405",
"3. c #E84615",
"4. c #F64214",
"5. c #8B5A56",
"6. c #975A54",
"7. c #935047",
"8. c #A45D55",
"9. c #A25946",
"0. c #886A48",
"q. c #976C47",
"w. c #88764C",
"e. c #9A7746",
"r. c #8B6C58",
"t. c #94705B",
"y. c #916C57",
"u. c #A66C4C",
"i. c #A47749",
"p. c #A7755B",
"a. c #B97957",
"s. c #B57252",
"d. c #887763",
"f. c #94776B",
"g. c #BA7569",
"h. c #B87E76",
"j. c #AE7267",
"k. c #CA7E71",
"l. c #C6786C",
"z. c #C07D46",
"x. c #BD8919",
"c. c #B1890F",
"v. c #978933",
"b. c #A58829",
"n. c #A58837",
"m. c #B59B37",
"M. c #B78427",
"N. c #BBA435",
"B. c #C5940A",
"V. c #CB9218",
"C. c #DCB718",
"Z. c #D1A715",
"A. c #E7B71A",
"S. c #EBAF18",
"D. c #C59429",
"F. c #C68E2D",
"G. c #CAA527",
"H. c #D6A825",
"J. c #D2B03B",
"K. c #E8B827",
"L. c #F4B725",
"P. c #EDB831",
"I. c #E8C81D",
"U. c #E6C42B",
"Y. c #E6C931",
"T. c #F2CD32",
"R. c #F4D935",
"E. c #F1D52D",
"W. c #FFE73B",
"Q. c #D7C137",
"!. c #9C894A",
"~. c #9A8C56",
"^. c #B78658",
"/. c #B18B4E",
"(. c #B3AB50",
"). c #95856E",
"_. c #B78376",
"`. c #B28D67",
"'. c #AFAF69",
"]. c #C68643",
"[. c #C98758",
"{. c #D39757",
"}. c #CF974F",
"|. c #D4B44F",
" X c #E6B54D",
".X c #C89966",
"XX c #C98578",
"oX c #D6877B",
"OX c #D59469",
"+X c #E29A66",
"@X c #D3A96D",
"#X c #E8A678",
"$X c #F5B878",
"%X c #E7AD6C",
"&X c #D5C547",
"*X c #D0CC58",
"=X c #E6C749",
"-X c #F6DC44",
";X c #EBD04F",
":X c #FDEC4C",
">X c #F9EB46",
",X c #EDF54A",
"<X c #F4F44B",
"1X c #FDF34B",
"2X c #F6F649",
"3X c #FBEB56",
"4X c #FCF555",
"5X c #F5FB52",
"6X c #F9F858",
"7X c #EDE951",
"8X c #EAC767",
"9X c #F7D26D",
"0X c #F9EB65",
"qX c #FAF867",
"wX c #F7F378",
"eX c #F7E474",
"rX c #DFD768",
"tX c #347093",
"yX c #1F719A",
"uX c #507288",
"iX c #497EA6",
"pX c #4D8EBE",
"aX c #698BAC",
"sX c #6E9BA1",
"dX c #3691C7",
"fX c #4292CC",
"gX c #75B0D3",
"hX c #52B6E7",
"jX c #B69088",
"kX c #BCBC88",
"lX c #ACBEB3",
"zX c #8DA6A8",
"xX c #D48C85",
"cX c #CD8D81",
"vX c #C5BE8A",
"bX c #D3AB90",
"nX c #ECB986",
"mX c #F2B680",
"MX c #C4BBAA",
"NX c #F8CA94",
"BX c #FFE280",
"VX c #D0D0B8",
"CX c #EADAA2",
"ZX c #A3D2E3",
"AX c #DEECD2",
"SX c None",
/* pixels */
"SXSXSXSXSXSXSXSXSXSXSXSXSXSXSXSXSXSXSXSXSXSXSXSXSXSXSXSXSXSXSXSXSXSXSXSXSXSXSXSXSXSXSXSXSXSXSXSXSXSXSXSXSXSXSXSXSXSXSXSXSXSXSXSX",
"SXSXSXSXSXSXSXSXSXSXSXSXSXSXSXSXSXSXSXSXSXSXSXSXSXSXSXSXSXSXSXSXSXSXSXSXSXSXSXSXSXSXSXSXSXSXSXSXSXSXSXSXSXSXSXSXSXSXSXSXSXSXSXSX",
"SXSXSXSXSXSXSXSXSXSXSXSXSXSXSXSXSXSXSXSXSXSXSXSXSXSXSXSXSXSXSXSXSXSXSXSXSXSXSXSXSXSXSXSXSXSXSXSXSXSXSXSXSXSXSXSXSXSXSXSXSXSXSXSX",
"SXSXSXSXSXSXSXSXSXSXSXSXSXSXSXSXSXSXSXSXSXSXSXSXSXSXSXSXSXSXSXSXC B Z SXSXSXSXSXSXSXSXSXSXSXSXSXSXSXSXSXSXSXSXSXSXSXSXSXSXSXSXSX",
"SXSXSXSXSXSXSXSXSXSXSXSXSXSXSXSXSXSXSXSXSXSXSXSXSXSXSXSXSXSXC V V C B e v SXSXSXSXSXSXSXSXSXSXSXSXSXSXSXSXSXSXSXSXSXSXSXSXSXSXSX",
"SXSXSXSXSXSXSXSXSXSXSXSXSXSXSXSXSXSXSXSXSXSXSXSXSXSXSXSXSXtXpXuXuXzXjXh.j.l SXSXSXSXSXSXSXSXSXSXSXSXSXSXSXSXSXSXSXSXSXSXSXSXSXSX",
"SXSXSXSXSXSXSXSXSXSXSXSXSXSXSXSXSXSXSXSXSXSXSXSXSXSXSXSXtXhXpXsXzXVXNX#XOXu.t SXSXSXSXSXSXSXSXSXSXSXSXSXSXSXSXSXSXSXSXSXSXSXSXSX",
"SXSXSXSXSXSXSXSXSXSXSXSXSXSXSXSXSXSXSXSXSXSXSXSXSXSXSXSXZXdXpXZXAXCXNX$X+Xa.b SXSXSXSXSXSXSXSXSXSXSXSXSXSXSXSXSXSXSXSXSXSXSXSXSX",
"SXSXSXSXSXSXSXSXSXSXSXSXSXSXSXSXSXSXSXSXSXSXSXSXSXSXSXyXhXdXfXgXVXCXNX$X+Xs.u SXSXSXSXSXSXSXSXSXSXSXSXSXSXSXSXSXSXSXSXSXSXSXSXSX",
"SXSXSXSXSXSXSXSXSXSXSXSXSXSXSXSXSXSXSXSXSXSXSXSXSXSXSXyXdXfXfXaXMXbX%X$Xz.9.~ SXSXSXSXSXSXSXSXSXSXSXSXSXSXSXSXSXSXSXSXSXSXSXSXSX",
"SXSXSXSXSXSXSXSXSXSXSXSXSXSXSXSXSXSXSXSXSXSXSXSXSXSXSXsXgXsXsXVX).a /.+Xz.{.u.t SXSXSXSXSXSXSXSXSXSXSXSXSXSXSXSXSXSXSXSXSXSXSXSX",
"SXSXSXSXSXSXSXSXSXSXSXSXSXSXSXSXSXSXSXSXSXSXSXSXSXSXSXH lXjXF G 0.i.$X%Xz.{.a.b SXSXSXSXSXSXSXSXSXSXSXSXSXSXSXSXSXSXSXSXSXSXSXSX",
"SXSXSXSXSXSXSXSXSXSXSXSXSXSXSXSXSXSXSXSXSXSXSXSXSXSXSXSXf.jXw.2 n ^.nXnXOX[.p.< SXSXSXSXSXSXSXSXSXSXSXSXSXSXSXSXSXSXSXSXSXSXSXSX",
"SXSXSXSXSXSXSXSXSXSXSXSXSXSXSXSXSXSXSXSXSXSXSXSXSXSXSXSXt.bX#Xl f `.nXOXa.3 @ 1 SXSXSXSXSXSXSXSXSXSXSXSXSXSXSXSXSXSXSXSXSXSXSXSX",
"SXSXSXSXSXSXSXSXSXSXSXSXSXSXSXSXSXSXSXSXSXSXSXSXSXSXSXSXG bXNX.X#XnX$X[.g > f @ O > SXSXSXSXSXSXSXSXSXSXSXSXSXSXSXSXSXSXSXSXSXSX",
"SXSXSXSXSXSXSXSXSXSXSXSXSXSXSXSXSXSXSXSXSXSXSXSXSXSXSXSX< > a.%XNX8X{.;.X./.g @ 3 % + $ SXSXSXSXSXSXSXSXSXSXSXSXSXSXSXSXSXSXSXSX",
"SXSXSXSXSXSXSXSXSXSXSXSXv t.t SXSXSXSXSXSXSXSXSXSX8 9 Y K Y 4 a.[.}.o.[ |.8X4 Y P ! - - + SXSXSXSXSXSXSXSXSXSXSXSXSXSXSXSXSXSXSX",
"SXSXSXSXSXSXSXSXSXSXv S 0.#.^.$.t SXSXSXSXSXSXSX4 T L ) 3.>.Y 4 ;.;.o.8X8X{ J I U Q R T - O SXSXSXSXSXSXSXSXSXSXSXSXSXSXSXSXSXSX",
"SXSXSXSXSXSXSXSXSXSXv c 8 g.-.u.t SXSXSXSXSXSXY ! ) ) ' 3.' / T * 4 | | 7 J E W U U E ! K % SXSXSXSXSXSXSXSXSXSXSXSXSXSXSXSXSXSX",
"SXSXSXSXSXSXSXSXSXk S 1 #.-.3 #.@ SXSXSXSXSX4 ! 4._ ' ( _ ` ,.:. .K % * P Q >.( ) U I L K + SXSXSXSXSXSXSXSXSXSXSXSXSXSXSXSXSXSX",
"SXSXSXSXSXSXSXSXSXSXj 1 %.#.g > *.G SXSXSX= ! 3.<.^ E W ' 4.` ` ' :.L R :.' 1.<.) Q P K % ; SXSXSXSXSXSXSXSXSXSXSXSXSXSXSXSXSXSX",
"SXSXSXSXSXSXSXSXSXSXSXS p.q.g .X=., ~.e.4  .:.4.<.( L T _ ` ` 2.` ' L R 3.2.1.1.) U P & % < SXSXn l z < SXSXSXSXSXSXSXSXSXSXSXSX",
"SXSXSXSXSXSXSXSXSXSXSXSXl : q./.a d }./.3 R 3.,.<./ * K ) ' ` ` ' ) * P :.` 2.1.) U ~ + O # c l `.e.a.3 8 SXSXSXSXSXSXSXSXSXSXSX",
"SXSXSXSXSXSXSXSXSXSXSXSXSXSXn , o.9XwXeX+.J >.3.( E K K Q ' ,.<.^ P & - ) 1.1._ ^ U Y O #.@X} > #.[.#Xs.> SXSXSXSXSXSXSXSXSXSXSX",
"SXSXSXSXSXSXSXSXSXSXSXSXSXSXSXSX!.8X0X0X=X7 R / W E - - U ^ ( ( P = | 4 R _ ,.( W R = s 9X X7 ] s i.OXa.8 SXSXSXSXSXSXSXSXSXSXSX",
"SXSXSXSXSXSXSXSXSXSXSXSXSXSXSXSXSXn.*X0X0X|.4 T R P & + - R Q T 7 Y {.7 J Q W W R T 3 .XBX|.7 %X-..X#Xa.l SXSXSXSXSXSXSXSXSXSXSX",
"SXSXSXSXSXSXSXSXSXSXSXSXSXSXSXSXSXSXb.;X9X X7 3 4 % $ D < # 3 3 { {. X] = J T T - = , @X}.o.s /.#.e.l.u.t SXSXSXSXSXSXSXSXSXSXSX",
"SXSXSXSXSXSXSXSXSXSXSXSXSXSXSXSXSXSXSXn.m.b.6   O r SXSXr.%.=.{.9X9X9XF.Y 3 9 @ 8 > . x M a : f z 0.q.0.n SXSXSXSXSXSXSXSXSXSXSX",
"SXSXSXSXSXSXSXSXSXSXSXSXSXSXSXSXSXSXSXSXx 2 .   y SXSXSXSXl g ].].M.;.o.=.h M n SXSXSXSXSXSXSXSXSXSXSXSXSXSXSXSXSXSXSXSXSXSXSXSX",
"SXSXSXSXSXSXSXSXSXSXSXSXSXSXSXSXSXSXSXSXSXSXSXSXSXSXSXSX=., 5 7 ] [ Y > : . x SXSXSXSXSXSXSXSXSXSXSXSXSXSXSXSXSXSXSXSXSXSXSXSXSX",
"SXSXSXSXSXSXSXSXSXSXSXSXSXSXSXSXSXSXSXSXSXSXSXSXSXSXSX'.N.G.[ > 3 3 4 5 [ b.b.n.SXSXSXSXSXSXSXSXSXSXSXSXSXSXSXSXSXSXSXSXSXSXSXSX",
"SXSXSXSXSXSXSXSXSXSXSXSXSXSXSXSXSXSXSXSXSXSXSXSXSXSX'.*X7XU.J.D.{ { ..D.J.;X;Xo.=.SXSXSXSXSXSXSXSXSXSXSXSXSXSXSXSXSXSXSXSXSXSXSX",
"SXSXSXSXSXSXSXSXSXSXSXSXSXSXSXSXSXSXSXSXSXSXSXSXkX'.*X0X6XR.A.K.H.V.L.P.T.-X3X&XM *.SXSXSXSXSXSXSXSXSXSXSXSXSXSXSXSXSXSXSXSXSXSX",
"SXSXSXSXSXSXSXSXSXSXSXSXSXSXSXSXSXSXSXSXSXSXSXkX(.*XqXqX4X>XT.A.A.S.R.E.E.:X4X0X&Xh w.SXSXSXSXSXSXSXSXSXSXSXSXSXSXSXSXSXSXSXSXSX",
"SXSXSXSXSXSXSXSXSXSXSXSXSXSXSXSXSXSXSXSXSXSXkX(.rX5X6X3X6X3XT.A.Z.C.W.1X:X6X6X3X3XN.M SXSXSXSXSXSXSXSXSXSXSXSXSXSXSXSXSXSXSXSXSX",
"SXSXSXSXSXSXSXSXSXSXSXSXSXSXSXSXSXSXSXSXSXvX'.wXqX5X4X4X:XT.A.C.c.Z.E.>X6X<X4X4X<X;Xb.~.SXSXSXSXSXSXSXSXSXSXSXSXSXSXSXSXSXSXSXSX",
"SXSXSXSXSXSXSXSXSXSXSXSXSXSXSXSXSXSXSXSXkX(.wX7X5X,X,X:XE.I.S.H.[ a J.:X<X5X,X5X1X>XJ.v.SXSXSXSXSXSXSXSXSXSXSXSXSXSXSXSXSXSXSXSX",
"SXSXSXSXSXSXSXSXSXSXSXSXSXSXSXSXSXSXSX'.(.wX6XqX5X5X<XR.A.A.K.D.#.a N.7X<X5X5X<X1XqX&XN ~.SXSXSXSXSXSXSXSXSXSXSXSXSXSXSXSXSXSXSX",
"SXSXSXSXSXSXSXSXSXSXSXSXSXSXSXSXSXSXw.(.wXqX6X<X,X,XR.C.A.U.x.X.w.SX!.(.qX<X,X2X2X:X=X+.a m SXSXSXSXSXSXSXSXSXSXSXSXSXSXSXSXSXSX",
"SXSXSXSXSXSXSXSXSXSXSXSXSXSXSXSXSXSXM *X7XW.>X>X:XY.I.Q.G.+.X.^.SXSXSX!.&X,X5X2X1X3X;Xx.5 f w.SXSXSXSXSXSXSXSXSXSXSXSXSXSXSXSXSX",
"SXSXSXSXSXSXSXSXSXSXSXSXSXSXSXSXSXSXM eX6XE.E.I.A.B.V.M.a M d.SXSXSXSXvXO.;X>X>X:X-XL.V.{ ;.c SXSXSXSXSXSXSXSXSXSXSXSXSXSXSXSXSX",
"SXSXSXSXSXSXSXSXSXSXSXSXSXSXSXSXSXSXv.7X3X6XW.I.Z.B.[ , f SXSXSXSXSXSX`.p O.Q.E.T.A.S.B.@.+.h SXSXSXSXSXSXSXSXSXSXSXSXSXSXSXSXSX",
"SXSXSXSXSXSXSXSXSXSXSXSXSXSXSXSXSXSX!.(.7X>XW.I.K.@.[ c G SXSXSXSXSXSXM O.d V.S.L.S.S.Z.D.X.0.SXSXSXSXSXSXSXSXSXSXSXSXSXSXSXSXSX",
"SXSXSXSXSXSXSXSXSXSXSXSXSXSXSXSXSXSXSXv.m.N.Z.G.x...} c SXSXSXSXSXSXSXw.n.D.V.L.S.S.L.Z.c.p 0.SXSXSXSXSXSXSXSXSXSXSXSXSXSXSXSXSX",
"SXSXSXSXSXSXSXSXSXSXSXSXSXSXSXSXSXSXSXl 6 5 d X.} h 0.SXSXSXSXSXSXSXSXSX*.b. XS.L.P.D.+.} : SXSXSXSXSXSXSXSXSXSXSXSXSXSXSXSXSXSX",
"SXSXSXSXSXSXSXSXSXSXSXSXSXSXSXSXSXSXSXS t.&.9 6 : t SXSXSXSXSXSXSXSXSXSXSX-.o.V.V.@...5 : f SXSXSXSXSXSXSXSXSXSXSXSXSXSXSXSXSXSX",
"SXSXSXSXSXSXSXSXSXSXSXSXSXSXSXSXSXSXSXH h.XXa.i 0 Z SXSXSXSXSXSXSXSXSXSXSXSX*.a 3 ] g #.%.t y SXSXSXSXSXSXSXSXSXSXSXSXSXSXSXSXSX",
"SXSXSXSXSXSXSXSXSXSXSXSXSXSXSXSXSXSXSXH _.XXk.$.y SXSXSXSXSXSXSXSXSXSXSXSXSXSXl z %.l.g.s.6.5.SXSXSXSXSXSXSXSXSXSXSXSXSXSXSXSXSX",
"SXSXSXSXSXSXSXSXSXSXSXSXSXSXSXSXSXSXSXH cXk.k.u D SXSXSXSXSXSXSXSXSXSXSXSXSXSXSXt._.XXoXXX8.r SXSXSXSXSXSXSXSXSXSXSXSXSXSXSXSXSX",
"SXSXSXSXSXSXSXSXSXSXSXSXSXSXSXSXSXSXSXH h.xXg.u D SXSXSXSXSXSXSXSXSXSXSXSXSXSXSXA p.oXoXk.g.b y SXSXSXSXSXSXSXSXSXSXSXSXSXSXSXSX",
"SXSXSXSXSXSXSXSXSXSXSXSXSXSXSXSXSXSXSXS h.xX8.r Z SXSXSXSXSXSXSXSXSXSXSXSXSXSXSXSXt.xXl.xXk.$.u SXSXSXSXSXSXSXSXSXSXSXSXSXSXSXSX",
"SXSXSXSXSXSXSXSXSXSXSXSXSXSXSXSXSXSXSXS 6.g.7.r SXSXSXSXSXSXSXSXSXSXSXSXSXSXSXSXSXr.g.xXoXoXg.t v SXSXSXSXSXSXSXSXSXSXSXSXSXSXSX",
"SXSXSXSXSXSXSXSXSXSXSXSXSXSXSXSXSXSXf.t.u ~ ~ r SXSXSXSXSXSXSXSXSXSXSXSXSXSXSXSXSXSX5.xXxXg.~ % w SXSXSXSXSXSXSXSXSXSXSXSXSXSXSX",
"SXSXSXSXSXSXSXSXSXSXSXSXSXSXSXSXSXA v `.k.j.6.r SXSXSXSXSXSXSXSXSXSXSXSXSXSXSXSXSXSXj.5.9.~ ~ &.v SXSXSXSXSXSXSXSXSXSXSXSXSXSXSX",
"SXSXSXSXSXSXSXSXSXSXSXSXSXSXSXSXq Z k r j.h.6.0 SXSXSXSXSXSXSXSXSXSXSXSXSXSXSXSXSXSXSXy 6.9.9.$.< w SXSXSXSXSXSXSXSXSXSXSXSXSXSX",
"SXSXSXSXSXSXSXSXSXSXSXSXSXSXSXo X k q 2 0 D r 0 SXSXSXSXSXSXSXSXSXSXSXSXSXSXSXSXSXSXSXf.5.b ; > 1 2 v SXSXSXSXSXSXSXSXSXSXSXSXSX",
"SXSXSXSXSXSXSXSXSXSXSXSXSXSXSXo o e Z F D A e X SXSXSXSXSXSXSXSXSXSXSXSXSXSXSXSXSXSXSXG 2 v n n m m k k SXSXSXSXSXSXSXSXSXSXSXSX",
"SXSXSXSXSXSXSXSXSXSXSXSXSXSXSXSXSXSXSXSXSXSXSXSXSXSXSXSXSXSXSXSXSXSXSXSXSXSXSXSXSXSXSXSXX w j j j q j q Z SXSXSXSXSXSXSXSXSXSXSX",
"SXSXSXSXSXSXSXSXSXSXSXSXSXSXSXSXSXSXSXSXSXSXSXSXSXSXSXSXSXSXSXSXSXSXSXSXSXSXSXSXSXSXSXSXk d.).).).d.G F F SXSXSXSXSXSXSXSXSXSXSX",
"SXSXSXSXSXSXSXSXSXSXSXSXSXSXSXSXSXSXSXSXSXSXSXSXSXSXSXSXSXSXSXSXSXSXSXSXSXSXSXSXSXSXSXSXSXSXSXSXSXSXSXSXSXSXSXSXSXSXSXSXSXSXSXSX",
"SXSXSXSXSXSXSXSXSXSXSXSXSXSXSXSXSXSXSXSXSXSXSXSXSXSXSXSXSXSXSXSXSXSXSXSXSXSXSXSXSXSXSXSXSXSXSXSXSXSXSXSXSXSXSXSXSXSXSXSXSXSXSXSX",
"SXSXSXSXSXSXSXSXSXSXSXSXSXSXSXSXSXSXSXSXSXSXSXSXSXSXSXSXSXSXSXSXSXSXSXSXSXSXSXSXSXSXSXSXSXSXSXSXSXSXSXSXSXSXSXSXSXSXSXSXSXSXSXSX",
"SXSXSXSXSXSXSXSXSXSXSXSXSXSXSXSXSXSXSXSXSXSXSXSXSXSXSXSXSXSXSXSXSXSXSXSXSXSXSXSXSXSXSXSXSXSXSXSXSXSXSXSXSXSXSXSXSXSXSXSXSXSXSXSX",
"SXSXSXSXSXSXSXSXSXSXSXSXSXSXSXSXSXSXSXSXSXSXSXSXSXSXSXSXSXSXSXSXSXSXSXSXSXSXSXSXSXSXSXSXSXSXSXSXSXSXSXSXSXSXSXSXSXSXSXSXSXSXSXSX"
};
