/* XPM */
static char *avatarmv1_left1739523901[] = {
/* columns rows colors chars-per-pixel */
"64 64 255 2 ",
"   c #1C0B06",
".  c #3A0701",
"X  c #391805",
"o  c #2C1309",
"O  c #382906",
"+  c #342512",
"@  c #3A2626",
"#  c #480600",
"$  c #570701",
"%  c #481702",
"&  c #571A03",
"*  c #501C18",
"=  c #680C02",
"-  c #760000",
";  c #671703",
":  c #761803",
">  c #611112",
",  c #4B2606",
"<  c #572507",
"1  c #4B3205",
"2  c #573605",
"3  c #462418",
"4  c #552818",
"5  c #543618",
"6  c #662601",
"7  c #752800",
"8  c #653700",
"9  c #763304",
"0  c #6A3717",
"q  c #732E1B",
"w  c #473729",
"e  c #583925",
"r  c #53362E",
"t  c #643925",
"y  c #753826",
"u  c #6A3937",
"i  c #7A3E37",
"p  c #652B21",
"a  c #5B4514",
"s  c #674704",
"d  c #794903",
"f  c #6E5401",
"g  c #755408",
"h  c #694818",
"j  c #7A4A18",
"k  c #6B581B",
"l  c #755517",
"z  c #79610F",
"x  c #5D462B",
"c  c #594634",
"v  c #5F5232",
"b  c #664729",
"n  c #744528",
"m  c #685426",
"M  c #6A4638",
"N  c #774937",
"B  c #695637",
"V  c #75593B",
"C  c #785529",
"Z  c #7E6727",
"A  c #7E6836",
"S  c #2A3653",
"D  c #1F3F78",
"F  c #334970",
"G  c #3C6174",
"H  c #4D4E4E",
"J  c #684947",
"K  c #774B49",
"L  c #765845",
"P  c #695648",
"I  c #76675B",
"U  c #726045",
"Y  c #4E6670",
"T  c #706C64",
"R  c #841603",
"E  c #981802",
"W  c #8D0F09",
"Q  c #AA1B02",
"!  c #B61E01",
"~  c #8C2300",
"^  c #862706",
"/  c #9A2503",
"(  c #843700",
")  c #8E2B13",
"_  c #982413",
"`  c #9A3800",
"'  c #A82403",
"]  c #BA2301",
"[  c #B62202",
"{  c #B73507",
"}  c #AC2E11",
"|  c #873D34",
" . c #A32C24",
".. c #C52A02",
"X. c #DB2E00",
"o. c #D63607",
"O. c #DB3912",
"+. c #C83610",
"@. c #EC3D03",
"#. c #E73A09",
"$. c #F53C07",
"%. c #E63D12",
"&. c #C51F00",
"*. c #87490A",
"=. c #865604",
"-. c #8A4911",
";. c #905512",
":. c #AF4B13",
">. c #8B6504",
",. c #99660D",
"<. c #997508",
"1. c #866418",
"2. c #996715",
"3. c #927512",
"4. c #A77604",
"5. c #B27A04",
"6. c #AB7011",
"7. c #845B26",
"8. c #864938",
"9. c #865738",
"0. c #8D4E33",
"q. c #B1512F",
"w. c #866A24",
"e. c #98662A",
"r. c #8E6A30",
"t. c #A77928",
"y. c #B27738",
"u. c #DA4215",
"i. c #D0430C",
"p. c #E9450A",
"a. c #F34202",
"s. c #F84408",
"d. c #E94314",
"f. c #F64414",
"g. c #E54423",
"h. c #D84F25",
"j. c #985648",
"k. c #8B5853",
"l. c #8D5146",
"z. c #A95C52",
"x. c #876649",
"c. c #9B6C47",
"v. c #9B7648",
"b. c #876555",
"n. c #97635A",
"m. c #9C7353",
"M. c #A46646",
"N. c #A9774A",
"B. c #B8764D",
"V. c #B67156",
"C. c #86746B",
"Z. c #B96F62",
"A. c #BA7665",
"S. c #AD776E",
"D. c #C97E73",
"F. c #C47B6F",
"G. c #CE795C",
"H. c #B48408",
"J. c #B99518",
"K. c #A38617",
"L. c #938C38",
"P. c #B5912D",
"I. c #B7A53A",
"U. c #9EA130",
"Y. c #D39A17",
"T. c #CA920F",
"R. c #D9A518",
"E. c #D7A90B",
"W. c #E6BA1B",
"Q. c #E5B019",
"!. c #C89327",
"~. c #D5A729",
"^. c #DAB727",
"/. c #C8A93D",
"(. c #CFAD2E",
"). c #E5B829",
"_. c #E7B533",
"`. c #EDC82D",
"'. c #EAC836",
"]. c #F6D835",
"[. c #F0CF2F",
"{. c #FBE43D",
"}. c #D5C331",
"|. c #97884A",
" X c #BA8457",
".X c #AB9154",
"XX c #B6A34B",
"oX c #96886F",
"OX c #AC8468",
"+X c #B88A70",
"@X c #B6A861",
"#X c #C78A5A",
"$X c #D9945B",
"%X c #CD8D52",
"&X c #CDB550",
"*X c #E6B457",
"=X c #CA8B67",
"-X c #C99A64",
";X c #C98578",
":X c #D89071",
">X c #DCA773",
",X c #D4A66E",
"<X c #E5A669",
"1X c #F7B67C",
"2X c #E9B070",
"3X c #E59E6A",
"4X c #DBCE55",
"5X c #F7D747",
"6X c #EED04E",
"7X c #FAEA45",
"8X c #F4F54B",
"9X c #FCF44B",
"0X c #FCFB4B",
"qX c #F8F649",
"wX c #FDED53",
"eX c #FCE557",
"rX c #FEFB54",
"tX c #F8F857",
"yX c #EEEE4B",
"uX c #F5D668",
"iX c #E4DA61",
"pX c #FDE965",
"aX c #F8F565",
"sX c #FDEA75",
"dX c #E9E369",
"fX c #D9C66A",
"gX c #31578A",
"hX c #3D6799",
"jX c #347BB2",
"kX c #506C8D",
"lX c #537FAE",
"zX c #6D8A8E",
"xX c #4C85AB",
"cX c #7294AF",
"vX c #348DCE",
"bX c #74A6CE",
"nX c #5996C3",
"mX c #9FACAF",
"MX c #AFA493",
"NX c #CC8A81",
"BX c #DAB785",
"VX c #E8BB86",
"CX c #F9BD89",
"ZX c #D3BEAD",
"AX c #FED19A",
"SX c #F7CC8D",
"DX c #FEED8D",
"FX c #F5DAB2",
"GX c #E7D5AB",
"HX c #8CB7CD",
"JX c #BBBBC7",
"KX c #B2C6C9",
"LX c #A9D1EB",
"PX c #E8DED4",
"IX c None",
/* pixels */
"IXIXIXIXIXIXIXIXIXIXIXIXIXIXIXIXIXIXIXIXIXIXIXIXIXIXIXIXIXIXIXIXIXIXIXIXIXIXIXIXIXIXIXIXIXIXIXIXIXIXIXIXIXIXIXIXIXIXIXIXIXIXIXIX",
"IXIXIXIXIXIXIXIXIXIXIXIXIXIXIXIXIXIXIXIXIXIXIXIXIXIXIXIXIXIXIXIXIXIXIXIXIXIXIXIXIXIXIXIXIXIXIXIXIXIXIXIXIXIXIXIXIXIXIXIXIXIXIXIX",
"IXIXIXIXIXIXIXIXIXIXIXIXIXIXIXIXIXIXIXIXIXIXIXIXIXIXIXIXIXIXIXIXkXgXS S H IXIXIXIXIXIXIXIXIXIXIXIXIXIXIXIXIXIXIXIXIXIXIXIXIXIXIX",
"IXIXIXIXIXIXIXIXIXIXIXIXIXIXIXIXIXIXIXIXIXIXIXIXIXIXIXIXIXIXY gXgXD S H c x IXIXIXIXIXIXIXIXIXIXIXIXIXIXIXIXIXIXIXIXIXIXIXIXIXIX",
"IXIXIXIXIXIXIXIXIXIXIXIXIXIXIXIXIXIXIXIXIXIXIXIXIXIXIXIXIXkXHXlXgXkXMX+X=XN.0 IXIXIXIXIXIXIXIXIXIXIXIXIXIXIXIXIXIXIXIXIXIXIXIXIX",
"IXIXIXIXIXIXIXIXIXIXIXIXIXIXIXIXIXIXIXIXIXIXIXIXIXIXIXIXzXLXnXkXcXJXGXSX<X$Xe.e IXIXIXIXIXIXIXIXIXIXIXIXIXIXIXIXIXIXIXIXIXIXIXIX",
"IXIXIXIXIXIXIXIXIXIXIXIXIXIXIXIXIXIXIXIXIXIXIXIXIXIXIXY KXHXxXbXPXPXFXAX1X3XA.< IXIXIXIXIXIXIXIXIXIXIXIXIXIXIXIXIXIXIXIXIXIXIXIX",
"IXIXIXIXIXIXIXIXIXIXIXIXIXIXIXIXIXIXIXIXIXIXIXIXIXIXIXY HXnXxXbXmXFXFXAX1X<XB.% IXIXIXIXIXIXIXIXIXIXIXIXIXIXIXIXIXIXIXIXIXIXIXIX",
"IXIXIXIXIXIXIXIXIXIXIXIXIXIXIXIXIXIXIXIXIXIXIXIXIXIXIXG xXvXvXvXmXBXBXBX3XG.B.= IXIXIXIXIXIXIXIXIXIXIXIXIXIXIXIXIXIXIXIXIXIXIXIX",
"IXIXIXIXIXIXIXIXIXIXIXIXIXIXIXIXIXIXIXIXIXIXIXIXIXIXIXkXbXvXvXbXKXoXh .X1Xy.G.G., IXIXIXIXIXIXIXIXIXIXIXIXIXIXIXIXIXIXIXIXIXIXIX",
"IXIXIXIXIXIXIXIXIXIXIXIXIXIXIXIXIXIXIXIXIXIXIXIXIXIXIXH mXKXzXmXoXV x.BX<X$X$XB.9.IXIXIXIXIXIXIXIXIXIXIXIXIXIXIXIXIXIXIXIXIXIXIX",
"IXIXIXIXIXIXIXIXIXIXIXIXIXIXIXIXIXIXIXIXIXIXIXIXIXIXIXIXP ZXoX5 x m.S.SX1X%X=X=X9.IXIXIXIXIXIXIXIXIXIXIXIXIXIXIXIXIXIXIXIXIXIXIX",
"IXIXIXIXIXIXIXIXIXIXIXIXIXIXIXIXIXIXIXIXIXIXIXIXIXIXIXIXb.OXBXc.O b  XCX<X#XN.N X IXIXIXIXIXIXIXIXIXIXIXIXIXIXIXIXIXIXIXIXIXIXIX",
"IXIXIXIXIXIXIXIXIXIXIXIXIXIXIXIXIXIXIXIXIXIXIXIXIXIXIXIXIXm.AX,Xm.N.<X1X$Xe.% < 4 X IXIXIXIXIXIXIXIXIXIXIXIXIXIXIXIXIXIXIXIXIXIX",
"IXIXIXIXIXIXIXIXIXIXIXIXT IXIXIXIXIXIXIXIXIXIXIXIXIXIXIXIXb ,X,XVXSXCX$X%X*.7.g & # # . IXIXIXIXIXIXIXIXIXIXIXIXIXIXIXIXIXIXIXIX",
"IXIXIXIXIXIXIXIXIXIXIXC.I T I IXIXIXIXIXIXIXIXIXIXIXIXM & # <  X>XSX3X%X*.2.2X*.= ) ^ : # * IXIXIXIXIXIXIXIXIXIXIXIXIXIXIXIXIXIX",
"IXIXIXIXIXIXIXIXIXIXI P I x.5 M IXIXIXIXIXIXIXIXIXp $ ) } { ~ ) A.A.y.=.<.uX2X7 R } ' ' _ : % IXIXIXIXIXIXIXIXIXIXIXIXIXIXIXIXIX",
"IXIXIXIXIXIXIXIXIXMXe +Xb OX+XB P IXIXIXIXIXIXe & ) E +.p.u.+.R R q.-.P.uX6X9 ~ ' [ ! [ Q _ $ * IXIXIXIXIXIXIXIXIXIXIXIXIXIXIXIX",
"IXIXIXIXIXIXIXIXIXL b.0 9.N.9.V P IXIXIXIXIXIX: { u.u.d.p.$.f...' = 7 *.9 7 E ! ] ! ! &. . .> > IXIXIXIXIXIXIXIXIXIXIXIXIXIXIXIX",
"IXIXIXIXIXIXIXIXP b.b , v.0 j 2 O IXIXIXIXIX= :.d.p.O.X.X.@.s.f.p.:.^ = = R +.g.O.O.! ! E W = * IXIXIXIXIXIXIXIXIXIXIXIXIXIXIXIX",
"IXIXIXIXIXIXIXIXIXM 4 8.r.e.2 h x.IXIXIXIX= i.d.p.X.! ] o.s.$.a.p.p.i.R { g.%.$.f.%.&.! R ; > u IXIXIXIXIXIXIXIXIXIXIXIXIXIXIXIX",
"IXIXIXIXIXIXIXIXIXIXL x.m.j e.>XZ 1 x N q :.u.s.s.p.Q E ..a.a.a.$.a.h.W ..d.s.s.$.%.&.! : ; $ u IXU U V e IXIXIXIXIXIXIXIXIXIXIX",
"IXIXIXIXIXIXIXIXIXIXIXIX< 0 =Xe.2 f @Xr.6 } %.f.@.o.E R ] #.s.s.$.%.} - Q p.@.a.$.#...' $ # % 2 b MXr.V.n # IXIXIXIXIXIXIXIXIXIX",
"IXIXIXIXIXIXIXIXIXIXIXIXIX5 r.2 K.uXDXDX;.^ O.#.p...E - Q O.#.$.#.o.: $ Q i.p.s.s.X.! _ = % 7.w.1 h -X>X#X< r IXIXIXIXIXIXIXIXIX",
"IXIXIXIXIXIXIXIXIXIXIXIXIXIXIXh XXuXpXaX*X^ / i...! _ - E +.O.%...' = ) : { O.d.o.o.[ ~ % y.<X*.2 2 N.%X=X0 M IXIXIXIXIXIXIXIXIX",
"IXIXIXIXIXIXIXIXIXIXIXIXIXIXIXIXl /.eXeXuX!.7 / ' [ W $ R / { { ' R ( %X7 R { +...! E ^ f SX*X9 -Xl -X2X3Xn M IXIXIXIXIXIXIXIXIX",
"IXIXIXIXIXIXIXIXIXIXIXIXIXIXIXIXIXZ P.pXeX6Xs 7 ) W $ # # $ : : 7 *.!._.7 ^ ~ / ' / ) ; w.fXt.9 #Xl N. X Xn e IXIXIXIXIXIXIXIXIX",
"IXIXIXIXIXIXIXIXIXIXIXIXIXIXIXIXIXIXw.P.4XI.1.% ; $ . IXIXn 9 *.P.*X6X*X2.; ; 6 ; : & . a L.*.& C h v.+Xc.b IXIXIXIXIXIXIXIXIXIX",
"IXIXIXIXIXIXIXIXIXIXIXIXIXIXIXIXIXIXIXm k k 1   . o IXIXIX5 j <XSXDXsXuX&Xt.7.2 < 4 IXIXc b t e e x U V V IXIXIXIXIXIXIXIXIXIXIX",
"IXIXIXIXIXIXIXIXIXIXIXIXIXIXIXIXIXIXIXIXO O +   IXIXIXIXIX0 , 8 g d d 8 6 d 2 5 IXIXIXIXIXIXIXIXIXIXIXIXIXIXIXIXIXIXIXIXIXIXIXIX",
"IXIXIXIXIXIXIXIXIXIXIXIXIXIXIXIXIXIXIXIXIXIXIXIXIXIXIXIXIXf 2 8 7 q.:.( 6 % . X IXIXIXIXIXIXIXIXIXIXIXIXIXIXIXIXIXIXIXIXIXIXIXIX",
"IXIXIXIXIXIXIXIXIXIXIXIXIXIXIXIXIXIXIXIXIXIXIXIXIXIXIXIXw.&X/.P.( ` ` ( =.,.1.7.IXIXIXIXIXIXIXIXIXIXIXIXIXIXIXIXIXIXIXIXIXIXIXIX",
"IXIXIXIXIXIXIXIXIXIXIXIXIXIXIXIXIXIXIXIXIXIXIXIXIXIXIX|.&X6X'.).T.,.T.Y.6XuX/.3.b IXIXIXIXIXIXIXIXIXIXIXIXIXIXIXIXIXIXIXIXIXIXIX",
"IXIXIXIXIXIXIXIXIXIXIXIXIXIXIXIXIXIXIXIXIXIXIXIXIXIX@X&XaXwX{.W.Q.T.).].wXwXeXK.l IXIXIXIXIXIXIXIXIXIXIXIXIXIXIXIXIXIXIXIXIXIXIX",
"IXIXIXIXIXIXIXIXIXIXIXIXIXIXIXIXIXIXIXIXIXIXIXIXIX.XU.aXyXyX7X[.Q.W.].7XrXrX7X(.>.Z IXIXIXIXIXIXIXIXIXIXIXIXIXIXIXIXIXIXIXIXIXIX",
"IXIXIXIXIXIXIXIXIXIXIXIXIXIXIXIXIXIXIXIXIXIXIXIXoX&XaXtXtXrX7XW.Q.W.{.9X9XqX7XyXJ.f m IXIXIXIXIXIXIXIXIXIXIXIXIXIXIXIXIXIXIXIXIX",
"IXIXIXIXIXIXIXIXIXIXIXIXIXIXIXIXIXIXIXIXIXIXIX|.XXaXaX8XtXtX{.Q.5.^.{.7X8XtXrXwX^.3.k IXIXIXIXIXIXIXIXIXIXIXIXIXIXIXIXIXIXIXIXIX",
"IXIXIXIXIXIXIXIXIXIXIXIXIXIXIXIXIXIXIXIXIXIXIXU.iXaXtXtXtX8X`.T.4.(.wX8XrX8XyXtX7XK.1 IXIXIXIXIXIXIXIXIXIXIXIXIXIXIXIXIXIXIXIXIX",
"IXIXIXIXIXIXIXIXIXIXIXIXIXIXIXIXIXIXIXIXIXIXL.iXaX8XyX8X0X].`.R.=.g 6XyXyX0XqXrX7XI.f h IXIXIXIXIXIXIXIXIXIXIXIXIXIXIXIXIXIXIXIX",
"IXIXIXIXIXIXIXIXIXIXIXIXIXIXIXIXIXIXIXIXIXIXU.aX8X8X0X8X{.[.T.5.2 s 4XaXtX8X0X7XtX^.<.l IXIXIXIXIXIXIXIXIXIXIXIXIXIXIXIXIXIXIXIX",
"IXIXIXIXIXIXIXIXIXIXIXIXIXIXIXIXIXIXIXIXIXA dXtXqX0X{.qX{.).!.=.g IXz 4XaX8XqX9X9X}.<.>.C IXIXIXIXIXIXIXIXIXIXIXIXIXIXIXIXIXIXIX",
"IXIXIXIXIXIXIXIXIXIXIXIXIXIXIXIXIXIXIXIXA XXsX8X0X{.0X].).~.2.2 IXIXs &XpXrX0XqX9X[.<.6.7.IXIXIXIXIXIXIXIXIXIXIXIXIXIXIXIXIXIXIX",
"IXIXIXIXIXIXIXIXIXIXIXIXIXIXIXIXIXIXIXIXl /.wX9X{.{.].).~.,.% a IXIXm 3.6XeX9X7XwX5XJ.>.1.V IXIXIXIXIXIXIXIXIXIXIXIXIXIXIXIXIXIX",
"IXIXIXIXIXIXIXIXIXIXIXIXIXIXIXIXIXIXIXIX|.&X[.].[.[.`.R.5.;.o IXIXIXm , J.wX9XrXwX'.~.<.1.m IXIXIXIXIXIXIXIXIXIXIXIXIXIXIXIXIXIX",
"IXIXIXIXIXIXIXIXIXIXIXIXIXIXIXIXIXIXIXIXk P.'.{.].Q.E.T.H.,.s IXIXIXm z (.[.`.[.'._.H.<.z m IXIXIXIXIXIXIXIXIXIXIXIXIXIXIXIXIXIX",
"IXIXIXIXIXIXIXIXIXIXIXIXIXIXIXIXIXIXIXIXIXf <.6X5X_.)._.!.3.a IXIXIXm Z (.`.Q.R.Y.T.<.3.l IXIXIXIXIXIXIXIXIXIXIXIXIXIXIXIXIXIXIX",
"IXIXIXIXIXIXIXIXIXIXIXIXIXIXIXIXIXIXIXIXIXIXg t.P.~.Y.~.<.1.x IXIXIXIXk K.J.R.Y.T.6.>.1.x IXIXIXIXIXIXIXIXIXIXIXIXIXIXIXIXIXIXIX",
"IXIXIXIXIXIXIXIXIXIXIXIXIXIXIXIXIXIXIXIXIXIXm h *.2.6.,.s h IXIXIXIXIX5 1 <.5.4.t.6.g 2 IXIXIXIXIXIXIXIXIXIXIXIXIXIXIXIXIXIXIXIX",
"IXIXIXIXIXIXIXIXIXIXIXIXIXIXIXIXIXIXIXIXIXIXB m.9.6 & & % IXIXIXIXIXIXIXO 2 -.;.7.j 1 IXIXIXIXIXIXIXIXIXIXIXIXIXIXIXIXIXIXIXIXIX",
"IXIXIXIXIXIXIXIXIXIXIXIXIXIXIXIXIXIXIXIXIXIXB S.;Xz.l.i M IXIXIXIXIXIXIX+ , 6 9 6 ,   IXIXIXIXIXIXIXIXIXIXIXIXIXIXIXIXIXIXIXIXIX",
"IXIXIXIXIXIXIXIXIXIXIXIXIXIXIXIXIXIXIXIXIXIXL S.;XD.Z.i @ IXIXIXIXIXIXIXo N c.z.0.y % IXIXIXIXIXIXIXIXIXIXIXIXIXIXIXIXIXIXIXIXIX",
"IXIXIXIXIXIXIXIXIXIXIXIXIXIXIXIXIXIXIXIXIXIXJ +X;X;Xl.% 3 IXIXIXIXIXIXIXIXM ;X;XV.l.3 IXIXIXIXIXIXIXIXIXIXIXIXIXIXIXIXIXIXIXIXIX",
"IXIXIXIXIXIXIXIXIXIXIXIXIXIXIXIXIXIXIXIXIXIXK +XNX;X8.% IXIXIXIXIXIXIXIXIXJ ;XD.F.j.p IXIXIXIXIXIXIXIXIXIXIXIXIXIXIXIXIXIXIXIXIX",
"IXIXIXIXIXIXIXIXIXIXIXIXIXIXIXIXIXIXIXIXIXIXK j.D.F.N e IXIXIXIXIXIXIXIXIXIXS.;XF.z.i IXIXIXIXIXIXIXIXIXIXIXIXIXIXIXIXIXIXIXIXIX",
"IXIXIXIXIXIXIXIXIXIXIXIXIXIXIXIXIXIXIXIXIXIXu i | j.8.IXIXIXIXIXIXIXIXIXIXIXb.NXD.z.8.4 IXIXIXIXIXIXIXIXIXIXIXIXIXIXIXIXIXIXIXIX",
"IXIXIXIXIXIXIXIXIXIXIXIXIXIXIXIXIXIXIXIXIXw b.;X| p 4 IXIXIXIXIXIXIXIXIXIXIXu z.;XZ.8.p IXIXIXIXIXIXIXIXIXIXIXIXIXIXIXIXIXIXIXIX",
"IXIXIXIXIXIXIXIXIXIXIXIXIXIXIXIXIXIXIXIXx o n S.D.u IXIXIXIXIXIXIXIXIXIXIXIXJ n.NXF.| y IXIXIXIXIXIXIXIXIXIXIXIXIXIXIXIXIXIXIXIX",
"IXIXIXIXIXIXIXIXIXIXIXIXIXIXIXIXIXIXIXc x x 4 l.S.k.IXIXIXIXIXIXIXIXIXIXIXIXJ k.k.) 0.8., IXIXIXIXIXIXIXIXIXIXIXIXIXIXIXIXIXIXIX",
"IXIXIXIXIXIXIXIXIXIXIXIXIXIXIXIXIXIXIXc v v m 5 k.l.IXIXIXIXIXIXIXIXIXIXIXIXIXu S.A.A.j.X X IXIXIXIXIXIXIXIXIXIXIXIXIXIXIXIXIXIX",
"IXIXIXIXIXIXIXIXIXIXIXIXIXIXIXIXIXIXc J B v e 3 u u IXIXIXIXIXIXIXIXIXIXIXIXIXC.S.l.0 t t e + IXIXIXIXIXIXIXIXIXIXIXIXIXIXIXIXIX",
"IXIXIXIXIXIXIXIXIXIXIXIXIXIXIXIXIXIXIXIXIXIXIXIXIXIXIXIXIXIXIXIXIXIXIXIXIXIXIXK 3 * N N M c @   IXIXIXIXIXIXIXIXIXIXIXIXIXIXIXIX",
"IXIXIXIXIXIXIXIXIXIXIXIXIXIXIXIXIXIXIXIXIXIXIXIXIXIXIXIXIXIXIXIXIXIXIXIXIXIXIX@ @ c c e c c w + IXIXIXIXIXIXIXIXIXIXIXIXIXIXIXIX",
"IXIXIXIXIXIXIXIXIXIXIXIXIXIXIXIXIXIXIXIXIXIXIXIXIXIXIXIXIXIXIXIXIXIXIXIXIXIXIXIXIXIXIXIXIXIXIXIXIXIXIXIXIXIXIXIXIXIXIXIXIXIXIXIX",
"IXIXIXIXIXIXIXIXIXIXIXIXIXIXIXIXIXIXIXIXIXIXIXIXIXIXIXIXIXIXIXIXIXIXIXIXIXIXIXIXIXIXIXIXIXIXIXIXIXIXIXIXIXIXIXIXIXIXIXIXIXIXIXIX"
};
