/* XPM */
static char *result[] = {
/* columns rows colors chars-per-pixel */
"64 64 256 2 ",
"   c #4A5264",
".  c #6D768D",
"X  c #6D768E",
"o  c #4B5366",
"O  c #6C758B",
"+  c #5A6276",
"@  c #5D657A",
"#  c #5C6378",
"$  c #6B748A",
"%  c #6D7693",
"&  c #4D5568",
"*  c #6D768C",
"=  c #6F778F",
"-  c #687187",
";  c #2C2842",
":  c #5E677C",
">  c #6A7289",
",  c #666E83",
"<  c #4E576A",
"1  c #555C70",
"2  c #43415A",
"3  c #576073",
"4  c #61697D",
"5  c #525A6E",
"6  c #727A94",
"7  c #686F86",
"8  c #636B81",
"9  c #565E71",
"0  c #51586B",
"q  c #60687D",
"w  c #2B2641",
"e  c #312C45",
"r  c #6D7691",
"t  c #36314B",
"y  c #525B6C",
"u  c #7C8199",
"i  c #3D3750",
"p  c #4A4B61",
"a  c #7E849E",
"s  c #4B4E65",
"d  c #373D4F",
"f  c #797E95",
"g  c #838AA2",
"h  c #727890",
"j  c #3F455A",
"k  c #4B5166",
"l  c #2A3043",
"z  c #D94015",
"x  c #FBF54F",
"c  c #3C3B53",
"v  c #767D98",
"b  c #25213A",
"n  c #2F2F47",
"m  c #D99E6C",
"M  c #A26439",
"N  c #475564",
"B  c #31374A",
"V  c #5A5663",
"C  c #FCF04E",
"Z  c #8C6F24",
"A  c #76809A",
"S  c #3A344F",
"D  c #5E5F67",
"F  c #5A5E74",
"G  c #4C5060",
"H  c #F0410B",
"J  c #C92A06",
"K  c #8A5730",
"L  c #503824",
"P  c #BF360C",
"I  c #50526A",
"U  c #A02B08",
"Y  c #EFD239",
"T  c #E74314",
"R  c #FEFB53",
"E  c #626374",
"W  c #46495F",
"Q  c #901802",
"!  c #E53B0E",
"~  c #BA2E08",
"^  c #9F2106",
"/  c #A97C57",
"(  c #AB2E09",
")  c #E1AB75",
"_  c #922F0B",
"`  c #F8E84A",
"'  c #6E3818",
"]  c #AD8E29",
"[  c #9A6C10",
"{  c #2F3349",
"}  c #DA3309",
"|  c #944657",
" . c #6C5759",
".. c #5F6867",
"X. c #776A65",
"o. c #65605F",
"O. c #71422D",
"+. c #922403",
"@. c #CCA224",
"#. c #B3723A",
"$. c #CE9459",
"%. c #842707",
"&. c #E0BA28",
"*. c #F1DC48",
"=. c #854819",
"-. c #915C11",
";. c #9D4411",
":. c #8C5217",
">. c #964E14",
",. c #554628",
"<. c #959AB3",
"1. c #624F18",
"2. c #606D7F",
"3. c #560E03",
"4. c #76200A",
"5. c #6F5049",
"6. c #898FA8",
"7. c #705432",
"8. c #5C5546",
"9. c #ADAB6D",
"0. c #C38484",
"q. c #8B613C",
"w. c #715D3C",
"e. c #884B38",
"r. c #90714E",
"t. c #5C2912",
"y. c #D0B73A",
"u. c #452C1B",
"i. c #E0CE42",
"p. c #D8AF28",
"a. c #BC891D",
"s. c #F8E241",
"d. c #F9ED58",
"f. c #8187A1",
"g. c #AA1F04",
"h. c #B82206",
"j. c #6F6D7B",
"k. c #461A0E",
"l. c #9E7552",
"z. c #5F1A0A",
"x. c #883D1B",
"c. c #BB8259",
"v. c #EBE453",
"b. c #C8CAA3",
"n. c #F5F369",
"m. c #8F6D76",
"M. c #8F94AE",
"N. c #73A1B3",
"B. c #846319",
"V. c #E7C731",
"C. c #C8AC35",
"Z. c #A66415",
"A. c #C2941C",
"S. c #735E1B",
"D. c #763330",
"F. c #45455E",
"G. c #814055",
"H. c #7E1A06",
"J. c #721201",
"K. c #262026",
"L. c #CF350B",
"P. c #9C5C2B",
"I. c #79786A",
"U. c #8E8790",
"Y. c #6E6870",
"T. c #8B7D7A",
"R. c #CC3F11",
"E. c #B08244",
"W. c #90989E",
"Q. c #A8350B",
"!. c #E6D258",
"~. c #A0564F",
"^. c #B0756D",
"/. c #5699B5",
"(. c #8C7A5E",
"). c #75632D",
"_. c #9D8D63",
"`. c #D0C551",
"'. c #81AAB2",
"]. c #923A0D",
"[. c #615F4C",
"{. c #746D34",
"}. c #9EA3B9",
"|. c #8E7A35",
" X c #A87418",
".X c #B69A2D",
"XX c #EBEA78",
"oX c #817B87",
"OX c #677345",
"+X c #684C5D",
"@X c #866647",
"#X c #B04E6A",
"$X c #5E4547",
"%X c #E7C392",
"&X c #A5A595",
"*X c #3A343A",
"=X c #BA7B46",
"-X c #F0D65E",
";X c #B38017",
":X c #AC6B5F",
">X c #FDF75A",
",X c #D2B752",
"<X c #AE9140",
"1X c #E8CA53",
"2X c #755114",
"3X c #988219",
"4X c #79576D",
"5X c #DBDA78",
"6X c #A9566C",
"7X c #B7BC9E",
"8X c #9B9C7A",
"9X c #240906",
"0X c #C48E55",
"qX c #71460F",
"wX c #484751",
"eX c #A58E94",
"rX c #AE7A86",
"tX c #A63C14",
"yX c #6F2A0B",
"uX c #433D45",
"iX c #B47C3E",
"pX c #B63D10",
"aX c #BFA945",
"sX c #9B8842",
"dX c #E2BF32",
"fX c #947C1F",
"gX c #96897C",
"hX c #425263",
"jX c #765167",
"kX c #7B6074",
"lX c #B98C67",
"zX c #C03B1C",
"xX c #381F0D",
"cX c #410501",
"vX c #C4677C",
"bX c #B88A5C",
"nX c #878784",
"mX c #A26057",
"MX c #8B8762",
"NX c #372A35",
"BX c #B1986F",
"VX c #A19D46",
"CX c #6090B4",
"ZX c #60B1C9",
"AX c #C2843A",
"SX c #9E5916",
"DX c #A0254E",
"FX c #AD4F24",
"GX c #EDDEAF",
"HX c #6E5B70",
"JX c #A2B8B6",
"KX c #808D53",
"LX c #89CFE4",
"PX c #526991",
"IX c #A74C63",
"UX c #C0A68D",
/* pixels */
"6.f.A 6 = = 7 @ 9 5 5 3 : 8 - $ O X X X X X . . . * $ $ * > 8 3   d { { j @ 8 + 0 o   < 9 # @ 9 &         o 0 @ q # 9 < & & o o ",
"f.u v h = . , @ 1 5 9 + @ : 4 7 > * . O O * . . O > , 2.7 7 4 3 & p 2 c 2 + q F <     & 5 1 F 5 &         o < 9 + # + 3 3 3 1 0 ",
"u v h = . . , @ 3 9 @ : # + 3 4 - O * $ $ O * O > , q @ 8 8 4 Y.X.Y.Y.# I PX% % - o k o & < < & o o o & o o o 0 9 + @ 4 4 4 + 9 ",
"v 6 = X . = - 4 @ @ , 8 # 9 5 # 7 $ * O O O $ - , 4 @ # : q Y.(._.BX&XW.A A CXN.'.2.&   k o o   o & 0 5 < & & 0 9 + @ 4 4 : + 9 ",
"6 = . . = h $ , 8 , $ , # 5 & + , $ . . . O - 8 : : : : @ E X./ ) %X%Xb.JXN./.ZXLXN.@ s         & 5 + 3 y 0 0 F + + + + 3 9 y 0 ",
"6 h . . . = O $ $ O = - : F 5 # , > . . * $ , : @ : 8 , q  .q.bX) %XGXGXb.'./.ZXZX'.2.G     o o & 1 # # 3 9 9 # # + 9 0 0 < < N ",
"6 h . . . . . . = = = $ 8 @ 3 # 4 7 $ * * $ , 4 q 8 7 > ,  .K c.m %X%Xb.7X'./././.N.: G   o & 0 1 3 # @ # # # @ + 9 0 o o o N N ",
"6 h . . . . . . = = = O > , q @ @ 8 7 $ O O > 7 , 7 $ $ o.5.M c.m ) ) UX&XW.CXCX/.N.: G o & 5 3 @ @ + + @ q 4 # 3 5 &           ",
"6 = . . . . . . . . . . O > , : # : 8 7 > O * . O O X $ $Xe./ 0Xm m lX/ gXnXg N.N.'.2.& 0 5 9 @ 4 @ 1 9 + : 4 + y & o           ",
"h = . . . . . . . . . . . O - , 8 : : : 8 - $ * * . r O 5.q.c.$.m m bXl.(.I.nXW.JX'.* 3 # + + # # 9 0 < 5 9 3 y < o             ",
"h = . . . . . . . . . . . * $ > 7 8 @ + : 8 - $ * . = $ 5.K / $.m ) $.l.q.@X(.8X&Xu , 4 8 8 : # 3 1 0 < < 0 0 & o o             ",
"h = . . . . . . . . . . . * * O > , : + # q , - O = > V L ' K #.$.) m / q.r._.9.&XO 4 8 , 7 8 : + 3 1 y 0 & o o o               ",
"6 = . . . . . . . . . . . . . . O - 8 : @ @ q , > , V u.k.t.O.K =Xm m $.E.bXBXBX_.j.@ @ 4 , - , 4 : @ + 1 <           k         ",
"6 = . . . . . . . . . . . . . . . . $ 7 q # @ 4 4 $Xk.k.t.' =.P.#.0Xm ) ) m c.q.7.V 0 1 + 4 > $ > - 7 4 + 5 o   o & & o         ",
"6 = . . . . . . . . . . . . . . X X X > , 8 :  .D.4.4.H.4.x.M iXE.E.0Xm m c.M x.yX' $XG 1 # 8 7 - , 4 # 1 <     ..j...o         ",
"6 = . . . . . . . . . . . . . . X X X $ > j. .D.H.Q ^ ^ Q ].Z.AX0XE.iX=X#.FXtXU _ _ D.O.5.o.+ 4 8 4 + 1 0 o y 8XKXOXOX..N   o o ",
"6 = . . . . . . . . . . . . . . X r r . . Y.D.H.Q g.h.h.g.( FX#.iX#.P.>.;.Q.( P zXzX( _ x.e. .E @ + y < o & ..9.KX{.OXOX8.G & & ",
"6 = . . . . . . . . . . . . . X X r r r X  .4.H.^ h.J J J ~ Q.;.>.>.]._ U P L.z T z L.P P tXe. .D y & o o D I.{.{.{.).).w.8.y y ",
"6 = . . . . . . . . . . . . . X r r r r > +Xz.H.+.g.h.J } L.~ U _ %.%.U ~ z T H H } } ! z P Q.e. .&     y I._.S.).).1.1.7.[.3 3 ",
"6 = r X X . . . . . . . . . = = % r > > V u.3.z.H.^ ~ } ! ! z zX( U U P z T H H ! } J J ! z P tXe. .G k o.r.B.2X).|.|.).w.o.+ # ",
"6 % r r X . . . . . . . X > V V o.X.X.X.$Xk.3.3.J.+.~ } ! H T z ~ ^ ( R.T H H H } J h.J ! T z pX;.K w.o.(.|.B.B.|.sX(.o.o.D 3 # ",
"6 % r r r X . . . . . . = 7 *XL 7.@Xr.@XO.t.z.3.J.+.~ L.! H T z ~ ^ ^ P z T H H } h.g.h.} T z pX;.-.E.<X<X] Z sX_.MX..0 < 5 9 + ",
"6 % r r r X . . . . . . = 7 L O.@Xl.l.q.O.' x.yX4.+.( J ! H T R.( Q Q ( R.z T ! J g.Q g.J z R.pX;. X,X,XaX] sXMXI...5 1 < < 5 9 ",
"6 h X X X r r r X . . . = 7 L 7./ lX/ K =.:.M P.x._ U ~ L.z z P U +.+.+.( R.R.L.g.Q Q ^ ~ P pXtXZ.@.-X-X,XVXMXD y 9 + : 9 < < < ",
"A v 6 = X r r r X . . . = 7 L 7./ lX/ M K P.=X=XP.].+.( ~ P P Q._ ;.;.]._ Q.Q.U Q J.J.Q ^ U Q.;.AX1X-X!.`.8X..N < 3 : 2.3 < N N ",
"a u f h X r r r r X . . X > 5.w.l.c./ M K -.#.E.M x.4.%.U U +._ ].M #.M ;.]._ %.J.3.3.J.H.%.%.SX$.1X1X`.9.I.hXhX< 3 4 2.3 < N N ",
"g f.u 6 X r r r r X . . X O Y.X.r.l.r.K qXqXK q.7.t.3.z.4.%.%.%.>.=X$.$.#.P.x.yXz.cXcXcX3.z.yX:.<X,X,X9.I.hXN N < 3 : 2.3 < N N ",
"f.a f 6 X r r r r r X . . . * oXT.X.5.,.L u.L L L u.k.k.z.t.' =.M $.) ) m c.M O.u.9X9X9X9XxXt.qXB.sX_...        < 9 # q 3 0 o   ",
"A f 6 = X X r r r X X * O * = h , V c NXK.K.*XwXV D D V NXxXt.' :.Z.#.AXiXM 2XL u.*Xd uXuXuX,.8.[.o.D o s G G G k < 5 1 0 I k G ",
"O $ > > - - - - - - - - - 7 - 8 F W { b b b { W 3 , > , wXu.u.' qX=.>.SXSX:.2X1.,.wXp s p W wXG G W W W p p p p p p s s p p p p ",
": : : : @ @ @ @ @ @ @ : : @ + 5 W c ; b b w t 2 k 0 1 F d L 1.2X-.:.>.>.>.-.[ fX|.[.wX2 2 2 F.2 2 2 2 2 2 2 2 2 2 2 2 2 2 2 2 2 ",
"< < < < < < < < < < < < 0 & s 2 { ; b b b e t i c 2 j W K.,.|.<X.Xa. XZ.Z.;X.XC.aXVX[.c i i i S S S S S S S i i i i i i i i i i ",
"j j j j j j j j j j j j j j d { w b b b ; e t { { n n B ,.Z aX1X-X1Xp.A.A.@.dX1X!.`.VX[.e e e e e e e e e e e e e e e e e e e e ",
"{ B B B B B B B B B B B B B l ; b b w e n t t n ; ; b K.1.] `.d.d.s.Y &.p.dXY *.d.v.`.OXb ; ; ; ; ; ; ; ; ; ; ; w w w w w w w w ",
"l l l l l l l l l l l l l l l ; ; e t i i i S n e w K.u.Z C.-Xd.x C *.V.&.V.Y s.C d.v.9.[.n n n n n n n n n n n e ; ; ; ; ; ; ; ",
"d d d d d d d d d d d d d d d c c 2 F.p p p F.2 c ; K.S.<X`.v.C x >X` V.p.&.Y s.C x n.XX9.D I k I I I s p W F.F.F.2 2 2 2 2 2 2 ",
"1 1 1 1 1 1 1 1 1 1 1 1 1 1 1 1 9 F + @ @ @ # F F *XxXZ aX!.d.>Xx x ` V.@.@.dXs.C R >Xn.5Xb.W.g g g g a f h $ > > 7 7 7 7 7 7 7 ",
"# # # # # @ @ @ @ @ @ @ # # # # @ @ : : q q : @ : 8.1.fXy.v.>XR R C *.y.3X] C.Y ` x x n.XX5Xb.}.M.<.<.M.6.f.u A u u u u u u u u ",
"+ + + + + # # + + + + + + + + + + + + + # # # + 1 8.B.] !.d.x x R ` i..XB.Z .XdX*.C x >Xn.XXXX7XM.M.M.M.g f.a a a a a a a a a a ",
"5 5 5 5 5 y y y y y y y 5 5 5 5 5 5 5 5 5 5 5 5 8.7.Z @.*.C x x x v.y.3XS.S.3XC.i.` x >X>Xn.n.b.W.a a a u A v v v v v v v v v v ",
"  o o o o                                       8.S. XC.Y C R >Xv.i..X{.D {.Z ] y.Y ` C C C v.5X&XX r r r r r r r r r r r r X . ",
"  o o k                                       hX7.B.;Xp.*.x R >X*.y.fX1.V u r.[ A.&.Y s.x x d.XX7XO X r r r r X X X X X X X . . ",
"  o o k                                     o E w.[ a.&.s.C C ` i.] S.,.I f.T.Z  X@.&.Y s.` v.n.b.O . X r r X X . . . . X X . . ",
"  o o k                                     o D w.[ a.p.Y s.` *.y.3X1.uXI g gXZ [ A.p.V.Y *.i.5X7XO . X X X X . . . . . X X X . ",
"  o k                                           w.Z ;X@.&.V.Y i.C.3X1.i 5 M.gXZ [ a.@.&.V.i.i.9.W.X . . . . . . . . . . X X X . ",
"                                                o.@X[ a.@.p.p.C..XfX,.c F <.gXZ [ ;XA.p.y.y.!.8Xr X . . . . . . . . . . . . . . ",
"                                                & 8.-.[ a.A.A.] Z S.,.c F <.}.(.-.;Xa.a.] ] 9.U.r r . . . . . . . . . . . . . . ",
"                                            o & o V w.:.Z. X[ B.2XL *Xc F <.}.U.r. XZ.-.-.Z nXf r X . . . . . . . . . . . . . . ",
"                                            & 0 y # o.' =.:.=.' ,.NX; c F <.}.6.T.l.:.=.:.q.O = X X . . . . . . . . . . . . . . ",
"                                          o < 9 # 8 E t.' =.=.O.$Xt ; c F <.}.6.u T.K >.M r.oXh . . . * O $ $ O * * . . . . . . ",
"                                          o 0 3 4 O j.O.e.M :X:X+Xt ; c F <.}.6.u T.K M ^.^.U.f O . * O > 7 7 > > $ $ . . . . . ",
"                                          o < 1 + 2.Y.5.mX:X^.m.2 ; ; S 0 6.<.g f oXe.~.0.0.eXf O . O > , q @ : 4 , - O * . . . ",
"                                            o & 0 9 D | :X0.0.m.i w w t I a 6.a 6 h m.mX^.0.eXf O . O - 4 3 1 1 + q , $ * . . . ",
"                                                o N V | vX0.rXHXi ; w t p f g u 6 = U.rX^.:XeXu O . O - 8 + 5 5 3 : , $ * . . . ",
"                                                  o V IXvXrXkX2 t ; w t p f g u 6 X h eX0.~.0.U.O . * $ , 4 @ # @ 8 - * . . . . ",
"                                              o o & jX#XvXm.V c t ; w t s f g u 6 = * oXrX~.mXm.X . . O > - , , 7 - $ * O $ $ $ ",
"                                            & < < HX6X#X6X4Xp c t ; w t s f g u 6 = . h m.~.~.^.U.X . . O O $ $ $ O O O 7 , , - ",
"                                          o < 1 3 4X#X#X6XjXW 2 S ; w t s f g u 6 = . = j.| e.~.m.oX* . . . . . . . O > 4 : q 8 ",
"                                          & 5 + E jX| 6X6X4Xk F.S ; w t s f g A 6 X . = j.G.G.O.5.T.* . . . . . . * $ - : + # : ",
"                                          & 0 1 | | | | | 4X3 s c ; ; t s f g A 6 X . . O > > > $ h . . . . . . . * $ - 8 q : @ ",
"                                          o I G.DXDXD.D.G.kXq I c ; w t s f g A 6 X . . . = X X X . . . * O O . . * O > - , 4 : ",
"                                          o k +XG.G.+X+XkXj.4 I c ; ; t s f g A 6 X . . . . . . . . * O > - - $ O * O O O > 8 q ",
"                                              k k 0 3 : 2.q F s i ; w t s f g A 6 X . . . . . . * O $ - 8 : : 7 > O O O * $ - , ",
"                                                  o & < 0 & s 2 S ; w t s f g A 6 X . . . . . . * O - 8 # 1 1 4 - $ O > O . * O "
};
