/* XPM */
static char *avatarmv3_left1739523901[] = {
/* columns rows colors chars-per-pixel */
"64 64 252 2 ",
"   c #270200",
".  c #380600",
"X  c #371506",
"o  c #2F1D0F",
"O  c #392708",
"+  c #3A2B15",
"@  c #352B02",
"#  c #362D2D",
"$  c #480601",
"%  c #530D01",
"&  c #590500",
"*  c #431C01",
"=  c #491805",
"-  c #571701",
";  c #4A1B18",
":  c #511811",
">  c #660902",
",  c #7B0601",
"<  c #661701",
"1  c #771703",
"2  c #711A17",
"3  c #462605",
"4  c #552704",
"5  c #563704",
"6  c #4B2618",
"7  c #562719",
"8  c #483818",
"9  c #5A3718",
"0  c #4A3700",
"q  c #652903",
"w  c #673704",
"e  c #763801",
"r  c #682717",
"t  c #722F13",
"y  c #482A25",
"u  c #592B27",
"i  c #4A3924",
"p  c #593A29",
"a  c #563331",
"s  c #4C353B",
"d  c #673728",
"f  c #763828",
"g  c #673B35",
"h  c #742B26",
"j  c #5A4613",
"k  c #694806",
"l  c #774601",
"z  c #675305",
"x  c #764813",
"c  c #6F5315",
"v  c #777116",
"b  c #594528",
"n  c #5A4835",
"m  c #5D5139",
"M  c #654727",
"N  c #77492B",
"B  c #6A5429",
"V  c #745528",
"C  c #7A4A3B",
"Z  c #6B5736",
"A  c #745339",
"S  c #6A4F35",
"D  c #7A6A2E",
"F  c #223B7D",
"G  c #4C3D41",
"H  c #3A4B6C",
"J  c #3C6174",
"K  c #6B4A44",
"L  c #7A4A46",
"P  c #795647",
"I  c #6F584C",
"U  c #465568",
"Y  c #466B75",
"T  c #787270",
"R  c #7E6345",
"E  c #890C02",
"W  c #821300",
"Q  c #881B02",
"!  c #971A03",
"~  c #990D00",
"^  c #A71B02",
"/  c #B31A00",
"(  c #8C2603",
")  c #972503",
"_  c #833700",
"`  c #9A2314",
"'  c #9A3612",
"]  c #A92807",
"[  c #B42102",
"{  c #B92506",
"}  c #BC3406",
"|  c #A82716",
" . c #B33A16",
".. c #8A3B2D",
"X. c #C52901",
"o. c #C83405",
"O. c #D83706",
"+. c #D2360C",
"@. c #EC3D02",
"#. c #E63E07",
"$. c #F43E01",
"%. c #F83C00",
"&. c #F63B10",
"*. c #894B06",
"=. c #835904",
"-. c #895714",
";. c #984F09",
":. c #986308",
">. c #947309",
",. c #896717",
"<. c #956816",
"1. c #977817",
"2. c #896707",
"3. c #AB7D05",
"4. c #B27809",
"5. c #875728",
"6. c #85453B",
"7. c #93593C",
"8. c #8F5432",
"9. c #B35026",
"0. c #9B6C27",
"q. c #847A25",
"w. c #8D6A2F",
"e. c #AA722E",
"r. c #A05200",
"t. c #D9460D",
"y. c #D64719",
"u. c #C8400E",
"i. c #E94409",
"p. c #F34303",
"a. c #F24409",
"s. c #ED4418",
"d. c #894A43",
"f. c #975445",
"g. c #9B5D55",
"h. c #8B554C",
"j. c #A75B47",
"k. c #A05653",
"l. c #926C4D",
"z. c #A87B47",
"x. c #AE6558",
"c. c #B67659",
"v. c #AC714F",
"b. c #8D736B",
"n. c #A7766A",
"m. c #B4716B",
"M. c #C67A4B",
"N. c #C37768",
"B. c #C77D72",
"V. c #D17F71",
"C. c #B08817",
"Z. c #8F8A2B",
"A. c #AC8627",
"S. c #B88929",
"D. c #B19128",
"F. c #BAA531",
"G. c #C89511",
"H. c #E7B91B",
"J. c #F4B91D",
"K. c #C79630",
"L. c #CAA529",
"P. c #D8A92B",
"I. c #DCB829",
"U. c #CDA538",
"Y. c #D9B836",
"T. c #D1B033",
"R. c #E8B827",
"E. c #F2BD24",
"W. c #E8B837",
"Q. c #E5AF29",
"!. c #D2A41D",
"~. c #E8C728",
"^. c #E8C637",
"/. c #F2CB36",
"(. c #F9D938",
"). c #F0CF2D",
"_. c #FDE43B",
"`. c #E1C62B",
"'. c #AB854B",
"]. c #B8865A",
"[. c #B88F57",
"{. c #8E867A",
"}. c #AB8A68",
"|. c #BA8679",
" X c #B18C71",
".X c #C59747",
"XX c #CC8C5C",
"oX c #D09057",
"OX c #D3B151",
"+X c #E3B855",
"@X c #E5B048",
"#X c #D7856B",
"$X c #C99B67",
"%X c #DA9666",
"&X c #C78677",
"*X c #D48678",
"=X c #D79872",
"-X c #CB896E",
";X c #E39B6B",
":X c #D9AB74",
">X c #D4AE6E",
",X c #EEAC74",
"<X c #D9C44A",
"1X c #D6CC4F",
"2X c #E7C44A",
"3X c #FADA46",
"4X c #FAD859",
"5X c #FEE44B",
"6X c #FEED49",
"7X c #F8E946",
"8X c #EDF447",
"9X c #FDF34B",
"0X c #F6F546",
"qX c #FDEC57",
"wX c #FDF455",
"eX c #FCFC54",
"rX c #FDFB5A",
"tX c #F7F359",
"yX c #EBEC55",
"uX c #D9D362",
"iX c #F2D26D",
"pX c #FFE869",
"aX c #F6F666",
"sX c #FEE47A",
"dX c #F3EC73",
"fX c #DCE057",
"gX c #305592",
"hX c #587191",
"jX c #497AA5",
"kX c #4B839F",
"lX c #4C8FBC",
"zX c #7697AD",
"xX c #618190",
"cX c #328BCC",
"vX c #58A4D1",
"bX c #549CD0",
"nX c #B99989",
"mX c #A3B3AF",
"MX c #8F969B",
"NX c #CE8C83",
"BX c #C8B699",
"VX c #EDB587",
"CX c #FEC894",
"ZX c #F4CC91",
"AX c #F1D5A9",
"SX c #F6E6B4",
"DX c #E2D699",
"FX c #91B4C8",
"GX c #80B9E6",
"HX c #ADD4F5",
"JX c #CCD6CD",
"KX c None",
/* pixels */
"KXKXKXKXKXKXKXKXKXKXKXKXKXKXKXKXKXKXKXKXKXKXKXKXKXKXKXKXKXKXKXKXKXKXKXKXKXKXKXKXKXKXKXKXKXKXKXKXKXKXKXKXKXKXKXKXKXKXKXKXKXKXKXKX",
"KXKXKXKXKXKXKXKXKXKXKXKXKXKXKXKXKXKXKXKXKXKXKXKXKXKXKXKXKXKXKXKXKXKXKXKXKXKXKXKXKXKXKXKXKXKXKXKXKXKXKXKXKXKXKXKXKXKXKXKXKXKXKXKX",
"KXKXKXKXKXKXKXKXKXKXKXKXKXKXKXKXKXKXKXKXKXKXKXKXKXKXKXKXKXKXKXKXKXKXKXKXKXKXKXKXKXKXKXKXKXKXKXKXKXKXKXKXKXKXKXKXKXKXKXKXKXKXKXKX",
"KXKXKXKXKXKXKXKXKXKXKXKXKXKXKXKXKXKXKXKXKXKXKXKXKXKXKXKXKXKXKXKXKXH # G KXKXKXKXKXKXKXKXKXKXKXKXKXKXKXKXKXKXKXKXKXKXKXKXKXKXKXKX",
"KXKXKXKXKXKXKXKXKXKXKXKXKXKXKXKXKXKXKXKXKXKXKXKXKXKXKXKXKXKXU H F F H s n M KXKXKXKXKXKXKXKXKXKXKXKXKXKXKXKXKXKXKXKXKXKXKXKXKXKX",
"KXKXKXKXKXKXKXKXKXKXKXKXKXKXKXKXKXKXKXKXKXKXKXKXKXKXKXKXKXxXFXhXgXhXMXnX&Xf.M KXKXKXKXKXKXKXKXKXKXKXKXKXKXKXKXKXKXKXKXKXKXKXKXKX",
"KXKXKXKXKXKXKXKXKXKXKXKXKXKXKXKXKXKXKXKXKXKXKXKXKXKXKXKXxXHXvXjXMXJXAXVX=XN.C KXKXKXKXKXKXKXKXKXKXKXKXKXKXKXKXKXKXKXKXKXKXKXKXKX",
"KXKXKXKXKXKXKXKXKXKXKXKXKXKXKXKXKXKXKXKXKXKXKXKXKXKXKXY FXvXbXvXJXSXSXCX,X=Xf.S KXKXKXKXKXKXKXKXKXKXKXKXKXKXKXKXKXKXKXKXKXKXKXKX",
"KXKXKXKXKXKXKXKXKXKXKXKXKXKXKXKXKXKXKXKXKXKXKXKXKXKXKXY vXvXcXbXmXSXAXCX;XoX9.f KXKXKXKXKXKXKXKXKXKXKXKXKXKXKXKXKXKXKXKXKXKXKXKX",
"KXKXKXKXKXKXKXKXKXKXKXKXKXKXKXKXKXKXKXKXKXKXKXKXKXKXKXY kXlXcXjXmXBX[.:X;XM.8.7 KXKXKXKXKXKXKXKXKXKXKXKXKXKXKXKXKXKXKXKXKXKXKXKX",
"KXKXKXKXKXKXKXKXKXKXKXKXKXKXKXKXKXKXKXKXKXKXKXKXKXKXKXY xXzXhXFXBX5.w.:X%Xe.;X7.b KXKXKXKXKXKXKXKXKXKXKXKXKXKXKXKXKXKXKXKXKXKXKX",
"KXKXKXKXKXKXKXKXKXKXKXKXKXKXKXKXKXKXKXKXKXKXKXKXKXKXKXKXT JXMX{.R l.z.CX;X#XM.v.A KXKXKXKXKXKXKXKXKXKXKXKXKXKXKXKXKXKXKXKXKXKXKX",
"KXKXKXKXKXKXKXKXKXKXKXKXKXKXKXKXKXKXKXKXKXKXKXKXKXKXKXKXI  X Xb O }. XCX;XoX=Xl.a KXKXKXKXKXKXKXKXKXKXKXKXKXKXKXKXKXKXKXKXKXKXKX",
"KXKXKXKXKXKXKXKXKXKXKXKXKXKXKXKXKXKXKXKXKXKXKXKXKXKXKXKXI }.ZXz.0 l.>X,X;X0.w = 6 KXKXKXKXKXKXKXKXKXKXKXKXKXKXKXKXKXKXKXKXKXKXKX",
"KXKXKXKXKXKXKXKXKXKXKXKXKXKXKXKXKXKXKXKXKXKXKXKXKXKXKXKXKXl.AX:X$X$XVX;X.X4 5 4 = = KXKXKXKXKXKXKXKXKXKXKXKXKXKXKXKXKXKXKXKXKXKX",
"KXKXKXKXKXKXKXKXKXKXKXKXb.T b.KXKXKXKXKXKXKXKXKXKXKXKXKXd X 7.-XCXCX,XoX-.,.z.q < > & $ KXKXKXKXKXKXKXKXKXKXKXKXKXKXKXKXKXKXKXKX",
"KXKXKXKXKXKXKXKXKXKXKXMXP n.b.P KXKXKXKXKXKXKXKXKXKXr 2 Q 1 < 0.%XXXoX,.>.iX.X< ^ | ` , % : KXKXKXKXKXKXKXKXKXKXKXKXKXKXKXKXKXKX",
"KXKXKXKXKXKXKXKXKXKXKXn  X6 8.d y KXKXKXKXKXKXKX- > E | y.y. .1 9.M.5.0.sX+X_ Q X./ | | ` & * KXKXKXKXKXKXKXKXKXKXKXKXKXKXKXKXKX",
"KXKXKXKXKXKXKXKXKXKXb.P A 5.}.n.A KXKXKXKXKXKXr ) u.o.i.a.a.#./ E 1 x e.0.e ) ] / { / ] | 1 ; KXKXKXKXKXKXKXKXKXKXKXKXKXKXKXKXKX",
"KXKXKXKXKXKXKXKXKXI K A 7 ].q 5.3 Z KXKXKXKXr ( y.i.O.@.O.%.&.s.o.! < % < E o.O.O.{ [ ] ! > ; KXKXKXKXKXKXKXKXKXKXKXKXKXKXKXKXKX",
"KXKXKXKXKXKXKXKXKXKXP 7 N N 8.t x M KXKXKXt E y.@.i.X.o.O.p.p.@.a.t. .1 } t.a.p.&.O./ ~ , 2 ; KXKXKXKXKXKXKXKXKXKXKXKXKXKXKXKXKX",
"KXKXKXKXKXKXKXKXKXKXKXC l. Xe 0.XXk B KXt ' y.a.p.i.~ ~ X.p.p.p.p.t. .E +.@.p.p.@.O.^ E 1 & ; KXKXKXm m M y KXKXKXKXKXKXKXKXKXKX",
"KXKXKXKXKXKXKXKXKXKXKXKXA 5 V $X<.4 ,.'.q ' t.&.i.t.| E X.&.$.p.#.#.| , t.p.$.%.%.X.] W & % 5 j 9 S  XR n.4 u KXKXKXKXKXKXKXKXKX",
"KXKXKXKXKXKXKXKXKXKXKXKXKXKXB V w .XsXSXK.1 } i.i.X.! , / O.i.a.s.{ W > ] i.$.&.$.{ ] 1 $ w OX.Xx w V $X$Xf.= KXKXKXKXKXKXKXKXKX",
"KXKXKXKXKXKXKXKXKXKXKXKXKXKXKXKXc +XsXpXsXr.1 u.o./ | , ^ X.i.i.X.^ < _ ! +.t.&.O.[ ) > *.iXsX2Xl q 4 '.XXv.t KXKXKXKXKXKXKXKXKX",
"KXKXKXKXKXKXKXKXKXKXKXKXKXKXKXKXKXq.<XaXaX2X_ ) { { W & 1 ! ] } ^ Q ;.e.< ]  .o.[ ] ( - .XsXpXT.l :Xc :XVX-Xf KXKXKXKXKXKXKXKXKX",
"KXKXKXKXKXKXKXKXKXKXKXKXKXKXKXKXKXKX1.OXtXpXe.1 ` E & . $ % < < e ;.W.K.% ( Q ) ` ( < q >XsXuXA.e $Xc [.].v.N KXKXKXKXKXKXKXKXKX",
"KXKXKXKXKXKXKXKXKXKXKXKXKXKXKXKXKXKXKX1.T.F.A.= > > . KXKXM 5.0..X+X4XW.;.< - 2 > % 3 3 z v 5.w 4 x j l.v.7.6 KXKXKXKXKXKXKXKXKX",
"KXKXKXKXKXKXKXKXKXKXKXKXKXKXKXKXKXKXKXKXz z 0       KXKXKX5 w $XVXZX+X@X.X0.8.9 = KXKXKXb Z B M 9 M M Z P KXKXKXKXKXKXKXKXKXKXKX",
"KXKXKXKXKXKXKXKXKXKXKXKXKXKXKXKXKXKXKXKXKXj @ @ KXKXKXKXKX0 = k c x l q e 4 X KXKXKXKXKXKXKXKXKXKXKXKXKXKXKXKXKXKXKXKXKXKXKXKXKX",
"KXKXKXKXKXKXKXKXKXKXKXKXKXKXKXKXKXKXKXKXKXKXKXKXKXKXKXKXKXD.;._ 9.9.9.;.4 - =.=.l KXKXKXKXKXKXKXKXKXKXKXKXKXKXKXKXKXKXKXKXKXKXKX",
"KXKXKXKXKXKXKXKXKXKXKXKXKXKXKXKXKXKXKXKXKXKXKXKXKXKXKX'.OX2X@Xr.W 1 1 < l S.Y.Q.P.1.KXKXKXKXKXKXKXKXKXKXKXKXKXKXKXKXKXKXKXKXKXKX",
"KXKXKXKXKXKXKXKXKXKXKXKXKXKXKXKXKXKXKXKXKXKXZ.D q.v Z.1XtXqXW.Q.4.4.4.C.^.^.~.~.R.R.3.,.KXKXKXKXKXKXKXKXKXKXKXKXKXKXKXKXKXKXKXKX",
"KXKXKXKXKXKXKXKXKXKXKXKXKXKXKXKXKXKXKXD v q.uXdXaXaXyXtXyXwX6XH.R.R.^.5X9X9XeX0X_.).^.D.2.5.KXKXKXKXKXKXKXKXKXKXKXKXKXKXKXKXKXKX",
"KXKXKXKXKXKXKXKXKXKXKXKXKXKXKXKXKXc v fXfXyXaXaXaXyXrXtX6X6X_.).J.E.3XqXwXwX0X0XeX6X5X^.L.C.z KXKXKXKXKXKXKXKXKXKXKXKXKXKXKXKXKX",
"KXKXKXKXKXKXKXKXKXKXKXKXKXKXKX8 q.F.fXtX8XtX8XwXtXyX0X).6X6X).H.J.J.3XqX7X8XeXeX8XeX9X6X_.Y.T.z z KXKXKXKXKXKXKXKXKXKXKXKXKXKXKX",
"KXKXKXKXKXKXKXKXKXKXKXKXKXKXKXj 1XqXwXeX8X8XeXeXtXaX/._.6X~.T.T.G.I.3X5X3X7XtXyXrXtX8X9X7XH.R.L.,.c KXKXKXKXKXKXKXKXKXKXKXKXKXKX",
"KXKXKXKXKXKXKXKXKXKXKXKXKXKXKX3 K.4XwX0X_.0X9X7X7X^.I.3X~.D.>.k k l T./.7X5X5XwXwXqXrXwX_.H.H.E.A.c KXKXKXKXKXKXKXKXKXKXKXKXKXKX",
"KXKXKXKXKXKXKXKXKXKXKXKXKXKXKX= l .X4XqX0X0X9X~.R.G.P.L.>.k z KXKXKXD.Y.E.).(.5X9X6X_._.).H.E.Q.A.c KXKXKXKXKXKXKXKXKXKXKXKXKXKX",
"KXKXKXKXKXKXKXKXKXKXKXKXKXKXKXu q *.A.<X1X^.^.I.!.3.3.l k KXKXKXKXKXKXD.W.R.G.E.).~._.~.H.~.R.K.2.X KXKXKXKXKXKXKXKXKXKXKXKXKXKX",
"KXKXKXKXKXKXKXKXKXKXKXKXKXKXK m.N.< - x A.D.U.A.:.l 5 KXKXKXKXKXKXKXKXKX2.L.C.!.R.R.H.H.H.Q.P.:.= = KXKXKXKXKXKXKXKXKXKXKXKXKXKX",
"KXKXKXKXKXKXKXKXKXKXKXKXKXKXd.NXB.x.- . = w k k * X KXKXKXKXKXKXKXKXKXKXKX5 >.>.C.!.W.W.Q.L.:.% $ X KXKXKXKXKXKXKXKXKXKXKXKXKXKX",
"KXKXKXKXKXKXKXKXKXKXKXKXKXI n.NX#X9.f.M = 3 KXKXKXKXKXKXKXKXKXKXKXKXKXKXKXKX@ 0 5 l <.<.<.l % % r C X KXKXKXKXKXKXKXKXKXKXKXKXKX",
"KXKXKXKXKXKXKXKXKXKXKXKXKXh.|.B.#Xv.7.6.X KXKXKXKXKXKXKXKXKXKXKXKXKXKXKXKXKXKXKXKXKXKX5 . - t ..f.d.a KXKXKXKXKXKXKXKXKXKXKXKXKX",
"KXKXKXKXKXKXKXKXKXKXKXKXK b.*X*XN.f.h.y KXKXKXKXKXKXKXKXKXKXKXKXKXKXKXKXKXKXKXKXKXKXKXKX= d.j.V.B.k.L y KXKXKXKXKXKXKXKXKXKXKXKX",
"KXKXKXKXKXKXKXKXKXKXKXKXd.&X*XN.x...u KXKXKXKXKXKXKXKXKXKXKXKXKXKXKXKXKXKXKXKXKXKXKXKXKXu |.&X*XV.N.g.g KXKXKXKXKXKXKXKXKXKXKXKX",
"KXKXKXKXKXKXKXKXKXKXKXn n.NXN.j...u KXKXKXKXKXKXKXKXKXKXKXKXKXKXKXKXKXKXKXKXKXKXKXKXKXKXKXg.NX-X#X#Xx.L a KXKXKXKXKXKXKXKXKXKXKX",
"KXKXKXKXKXKXKXKXKXKXKXh.|.&Xf.6.g KXKXKXKXKXKXKXKXKXKXKXKXKXKXKXKXKXKXKXKXKXKXKXKXKXKXKXKXP nX&X#X#XN.d.p KXKXKXKXKXKXKXKXKXKXKX",
"KXKXKXKXKXKXKXKXKXKXh m.&Xg.d KXKXKXKXKXKXKXKXKXKXKXKXKXKXKXKXKXKXKXKXKXKXKXKXKXKXKXKXKXKXKXb.nX*XV.*Xx.f KXKXKXKXKXKXKXKXKXKXKX",
"KXKXKXKXKXKXKXKXKXKXr ..f r y KXKXKXKXKXKXKXKXKXKXKXKXKXKXKXKXKXKXKXKXKXKXKXKXKXKXKXKXKXKXKXKXb.|.*X*X*Xf.: KXKXKXKXKXKXKXKXKXKX",
"KXKXKXKXKXKXKXKXKXd.f.2 2 : KXKXKXKXKXKXKXKXKXKXKXKXKXKXKXKXKXKXKXKXKXKXKXKXKXKXKXKXKXKXKXKXKXKXn.&X*XN.h $ ; KXKXKXKXKXKXKXKXKX",
"KXKXKXKXKXKXKXp l.&XB.N.h 7 KXKXKXKXKXKXKXKXKXKXKXKXKXKXKXKXKXKXKXKXKXKXKXKXKXKXKXKXKXKXKXKXKXKXnXh...2 h h u y KXKXKXKXKXKXKXKX",
"KXKXKXKXKXn p 6 &X&XNXB.C ; KXKXKXKXKXKXKXKXKXKXKXKXKXKXKXKXKXKXKXKXKXKXKXKXKXKXKXKXKXKXKXKXKXKXKXp d.k.m.j.d y KXKXKXKXKXKXKXKX",
"KXKXKXKXb S A * N &X&Xm.6.6 KXKXKXKXKXKXKXKXKXKXKXKXKXKXKXKXKXKXKXKXKXKXKXKXKXKXKXKXKXKXKXKXKXKXKXa n.NXB.f.= X + KXKXKXKXKXKXKX",
"KXKXKXm Z Z b 9 u |.|.g.n y KXKXKXKXKXKXKXKXKXKXKXKXKXKXKXKXKXKXKXKXKXKXKXKXKXKXKXKXKXKXKXKXKXKXKXKXP n.f.4 3 b 8 + o KXKXKXKXKX",
"KXKXi n 8 8 i i X K L g a y KXKXKXKXKXKXKXKXKXKXKXKXKXKXKXKXKXKXKXKXKXKXKXKXKXKXKXKXKXKXKXKXKXKXKXKXy u 9 N V V V b O + KXKXKXKX",
"KXKXKXKXKXKXKXKXKXKXKXKXKXKXKXKXKXKXKXKXKXKXKXKXKXKXKXKXKXKXKXKXKXKXKXKXKXKXKXKXKXKXKXKXKXKXKXKXKXKXy n Z D B B Z B b o KXKXKXKX",
"KXKXKXKXKXKXKXKXKXKXKXKXKXKXKXKXKXKXKXKXKXKXKXKXKXKXKXKXKXKXKXKXKXKXKXKXKXKXKXKXKXKXKXKXKXKXKXKXKXKX# i b + b 8 O 8 + O KXKXKXKX",
"KXKXKXKXKXKXKXKXKXKXKXKXKXKXKXKXKXKXKXKXKXKXKXKXKXKXKXKXKXKXKXKXKXKXKXKXKXKXKXKXKXKXKXKXKXKXKXKXKXKXKXKXKXKXKXKXKXKXKXKXKXKXKXKX",
"KXKXKXKXKXKXKXKXKXKXKXKXKXKXKXKXKXKXKXKXKXKXKXKXKXKXKXKXKXKXKXKXKXKXKXKXKXKXKXKXKXKXKXKXKXKXKXKXKXKXKXKXKXKXKXKXKXKXKXKXKXKXKXKX",
"KXKXKXKXKXKXKXKXKXKXKXKXKXKXKXKXKXKXKXKXKXKXKXKXKXKXKXKXKXKXKXKXKXKXKXKXKXKXKXKXKXKXKXKXKXKXKXKXKXKXKXKXKXKXKXKXKXKXKXKXKXKXKXKX",
"KXKXKXKXKXKXKXKXKXKXKXKXKXKXKXKXKXKXKXKXKXKXKXKXKXKXKXKXKXKXKXKXKXKXKXKXKXKXKXKXKXKXKXKXKXKXKXKXKXKXKXKXKXKXKXKXKXKXKXKXKXKXKXKX",
"KXKXKXKXKXKXKXKXKXKXKXKXKXKXKXKXKXKXKXKXKXKXKXKXKXKXKXKXKXKXKXKXKXKXKXKXKXKXKXKXKXKXKXKXKXKXKXKXKXKXKXKXKXKXKXKXKXKXKXKXKXKXKXKX",
"KXKXKXKXKXKXKXKXKXKXKXKXKXKXKXKXKXKXKXKXKXKXKXKXKXKXKXKXKXKXKXKXKXKXKXKXKXKXKXKXKXKXKXKXKXKXKXKXKXKXKXKXKXKXKXKXKXKXKXKXKXKXKXKX"
};
