/* XPM */
static char *coin1739392131[] = {
/* columns rows colors chars-per-pixel */
"55 55 225 2 ",
"   c #010205",
".  c #01040B",
"X  c #010711",
"o  c #010914",
"O  c #010B1C",
"+  c #020E22",
"@  c #020F28",
"#  c #021125",
"$  c #02132C",
"%  c #021633",
"&  c #021836",
"*  c #021739",
"=  c #021A3C",
"-  c #031D43",
";  c #032047",
":  c #04224C",
">  c #08244F",
",  c #062653",
"<  c #072657",
"1  c #052856",
"2  c #062A5B",
"3  c #092B5C",
"4  c #072D63",
"5  c #092E63",
"6  c #093166",
"7  c #06336C",
"8  c #0A336C",
"9  c #0A386F",
"0  c #0A3771",
"q  c #0B3A74",
"w  c #0C3D7B",
"e  c #103D7A",
"r  c #0D427D",
"t  c #14457E",
"y  c #0D4483",
"u  c #0E4986",
"i  c #0E4B8A",
"p  c #114684",
"a  c #104985",
"s  c #124D8C",
"d  c #104F8E",
"f  c #14528E",
"g  c #1A5488",
"h  c #135394",
"j  c #145996",
"k  c #14569A",
"l  c #155B9C",
"z  c #195C9C",
"x  c #1A629E",
"c  c #216496",
"v  c #155DA1",
"b  c #195EA3",
"n  c #1763A6",
"m  c #1A63A4",
"M  c #1C69A6",
"N  c #1B65AA",
"B  c #1C6BAC",
"V  c #1D71AD",
"C  c #1D6EB1",
"Z  c #1E73B4",
"A  c #1E77B9",
"S  c #216AA6",
"D  c #216DAE",
"F  c #2775AB",
"G  c #2172AE",
"H  c #2275B4",
"J  c #247BB5",
"K  c #297CB4",
"L  c #2276B9",
"P  c #237BBB",
"I  c #287BBA",
"U  c #257EC0",
"Y  c #287FC3",
"T  c #2C82B4",
"R  c #2482BE",
"E  c #2B84BC",
"W  c #2C8ABD",
"Q  c #3788B7",
"!  c #368AB9",
"~  c #2583C2",
"^  c #2A85C3",
"/  c #2689C4",
"(  c #2B8BC5",
")  c #2885C9",
"_  c #2C8CCA",
"`  c #338DC5",
"'  c #338DC8",
"]  c #2C92C6",
"[  c #2D93CB",
"{  c #2E99CB",
"}  c #3492C4",
"|  c #3997C7",
" . c #3294CC",
".. c #349ACD",
"X. c #3A9ACC",
"o. c #2F95D0",
"O. c #2E9AD3",
"+. c #3196D1",
"@. c #339CD3",
"#. c #3A9DD3",
"$. c #36A0CE",
"%. c #3CA2CE",
"&. c #36A1D4",
"*. c #3BA3D4",
"=. c #3CA9D5",
"-. c #37A6D8",
";. c #3BA5D9",
":. c #3DABDB",
">. c #3CB0DA",
",. c #3EAFE0",
"<. c #469CC6",
"1. c #46A3CC",
"2. c #54A8CB",
"3. c #43A4D2",
"4. c #44ACD6",
"5. c #43ADDC",
"6. c #48ABD8",
"7. c #52AFD2",
"8. c #4AB3D7",
"9. c #44B3DD",
"0. c #4AB3DC",
"q. c #4CB9DE",
"w. c #58B5D6",
"e. c #53B6DB",
"r. c #53B9DC",
"t. c #5ABBDC",
"y. c #64BADB",
"u. c #44ADE0",
"i. c #45B5E2",
"p. c #4AB5E3",
"a. c #49BAE5",
"s. c #4CBBE4",
"d. c #52BDE3",
"f. c #54BFE7",
"g. c #57C2DE",
"h. c #65C1DD",
"j. c #76C8DA",
"k. c #4CC0E7",
"l. c #54C2E4",
"z. c #5CC4E4",
"x. c #56C8E7",
"c. c #5DCAE6",
"v. c #53C3EA",
"b. c #5AC6EA",
"n. c #56C9EC",
"m. c #5CCBEB",
"M. c #5ED1EE",
"N. c #5FD4F0",
"B. c #63C4E3",
"V. c #6AC7E3",
"C. c #64CAE5",
"Z. c #6BCDE6",
"A. c #64CEEB",
"S. c #6ACEEA",
"D. c #74CAE3",
"F. c #68D1E5",
"G. c #64D2EC",
"H. c #6CD4EC",
"J. c #6AD9EE",
"K. c #74D2E5",
"L. c #7CD3E2",
"P. c #73D5EB",
"I. c #7AD5EA",
"U. c #73DAED",
"Y. c #7BDCED",
"T. c #65D5F1",
"R. c #6AD6F0",
"E. c #6EDBF2",
"W. c #73DCF2",
"Q. c #7BDDF1",
"!. c #76E0F2",
"~. c #7CE3F3",
"^. c #85D4E8",
"/. c #82DCED",
"(. c #8ADBEC",
"). c #91D5E6",
"_. c #84DEF2",
"`. c #A2D8E8",
"'. c #83E3EE",
"]. c #8AE3ED",
"[. c #8CE8EF",
"{. c #9AE5EE",
"}. c #98E9EE",
"|. c #84E4F3",
" X c #8BE5F3",
".X c #85E8F4",
"XX c #8CE9F4",
"oX c #8CEEF9",
"OX c #92E6F2",
"+X c #9BE5F2",
"@X c #94EBF4",
"#X c #9CECF4",
"$X c #95EDF9",
"%X c #9AEEF9",
"&X c #9EF1F6",
"*X c #9EF2FB",
"=X c #A6EEEF",
"-X c #A3E9F6",
";X c #A2ECF4",
":X c #ACEDF4",
">X c #B6EEF3",
",X c #A4F1F6",
"<X c #ACF2F5",
"1X c #A2F3F8",
"2X c #ACF2F9",
"3X c #B3F2F6",
"4X c #BBF4F5",
"5X c #B5F4F9",
"6X c #BBF5F9",
"7X c #C3F3F6",
"8X c #CBF6F6",
"9X c #C3F6F9",
"0X c #CDF7F8",
"qX c #C7F8F9",
"wX c #CBF9FA",
"eX c #D2F6F6",
"rX c #DBF6F7",
"tX c #D7F8F7",
"yX c #D3F9F9",
"uX c #DCFAFA",
"iX c #E7F8F7",
"pX c #E3FBFA",
"aX c #EAFBFB",
"sX c #F4FCFC",
"dX c #FCFDFD",
/* pixels */
"        . X X O O + # $ $ % * = - - - : : : : > < < 4 6 6 5 3 < , : : ; = = & % % # O O o X X . .             ",
"    . . X o O O # $ % & - - : , , < 5 6 8 9 q r f h m G G M x h r 9 2 1 , : - - * % $ # O O o . .             ",
"    . X o O + $ % & - ; > 1 3 6 q y s h m T <.d.z.i.i.,.9.s.l.l.X.J x u 0 5 1 : - = & $ $ + O . X .           ",
". . X o O # $ % = ; : 1 2 8 r f H X.d.S.H.m.9.0.9.*.@.&.a.J.oX&X1XOXt.J v s w 5 , ; - & $ $ + O o X .         ",
". X X O + $ & - : , 3 6 r l M ! Z.].[.~.~.m.k.z.H.W.~.Y.!.g.{ | r.+X9X+Xw.E b h w < : ; = % $ $ O o X .       ",
"X X O + $ & - : 2 4 0 s G X.D.L.w.g.m.F.4.{ a.@.#.a.W.F.7.t.I.K.C.U. X'.].Y.B.| M a 6 : ; = % % # O o X       ",
"X O + $ & = : < 4 r l E I.1X'.c.8.d.q.e.0.l.*.P n Z #.) A C T 1.E } D.,X/.'.F.%XI.` k 9 1 : - % $ # O o X .   ",
"o O $ & = : 2 6 r m ` W.<X;X[.H.~./.w...5.B L _ i.-.l.( Z N v v m  .$.1.~.v.5.0.|. X3.V w 2 : - & $ # o X X   ",
"O # % & - 2 6 p N X._.5X).g.H.U.=.R P  ._ C N Z [ @.u.d.i.6.K B K W X.d.A.Y.z./ } |.t.9.Z r 4 : - & $ + O X . ",
"O $ % - > 5 w N X. XwX6Xc.U.&X'.l.R ) [ [ _ :._ H ~ ' Y  .p.9.[ ..B.Q.OX&X4X;XB.^ #.A.@.9.J r 1 : = & # O o . ",
"# $ & : 3 q v .._.wXuX}.OX4X/./  ...b.9.9.u.p._ N C v k l H ^ @._ p.b.U.OX;X,XXX/.s.M.d...@.N 0 2 ; = $ $ O . ",
"$ % - , 8 p ^ W.9XpX8X9XyX^.*.;.B.-X.Xi.:.-.,.~ C n n k v N B B @.*.d.G.9.G.#X<XyXt.s.E. X| J h 7 : ; & $ O o ",
"$ & : < q M p.P.wXpXuXpX4XC.H.G.<XwX<X4.P A @.o.I ~ A Z Z A U @.s.i.l.4.Z E *._.1X6XS.*.;X-XW l r 2 ; = $ + o ",
"% = : 6 a I  .Q.wX6X6XpXiX;X|..XwXyX X9./ / / _ ~ ~ _ [ ( P ~ ;.T.x.G.4.P B N  .=.).5XH.}.pX`.S h 0 , - & # O ",
"% - 1 q k N d.1X<X|.&X+X#Xz.*.G.3X1Xb.f.&.O.[ _ P / { N.q._ _ @.9.A.n.-._ P H C ) &.;X/.].aXiX<.B f 2 ; = $ + ",
"% ; 6 p b K _.%XA.b.4.[  .@.O.q.Q..X9.*.:.#.{ ;.9.z.R.J.m.s.:.>.M..XG.v.@._ U _ :.m.@X3X4XiXpX).B l 0 < - $ # ",
"= : q h l V.$Xl.o./ U C N ~ #.i.~.P.[ @.;.:.>.v.~.%X'.U.~.W.m.l..X@XoXU.A.4._ ) / v.%X9XqXyXeX{.V x s < - % + ",
"- 5 p z E %XI...U U U U N _ v.f.5.9.R _ *.k.s.9.G.oXwXuXwX%X XY.;X1X+X,XY.Q.{ _ / u. XpX+XXX,XU.} l h 5 : % @ ",
"- 8 h L q.*X7.R A _ o.N Z :.s.{ ~ +.[ ] :.M.C._.2XwXdXpX3XXX,X,XE.@XaXpXpX3Xe./ ~ o.S.-X.X~.1Xh.s.m h 6 : % # ",
"- p z ..Q.OXb.*.+.&.U b P / *.@.o./ &.s.W.@X<XeXsXdXdXpX9X3X&XY.XXOX0XaXpX^.&._ U +.v.M.G..X#X/.~ J b 4 , = $ ",
"5 h N 3. X XK ! 9.o.~ Y Z Z *...@.@.x.~.XX4XiXsXdXdXdXdXpX8X7XU.Y.5XtXaXpXC.O._ A P #.@._ S.F.h.( M ^ q , = $ ",
"8 S B f.$XD.f z 5.@.O.P ( ~ :.p.9.a.G.~.yXsXdXdXdXdXdXdXdXdXsXrXtXsXsXdXsX{.k.&.O.@.[ ( P ! 8.` K G ..i 2 = $ ",
"q I ' b.@Xw.y x i.:.^ ~ ~ ( i.s.-.b.E.XXsXdXdXdXdXdXdXdXdXdXdXdXdXdXdXsXpX2XJ.$.@.@.P ~ B S w.^ z H ^ H 4 = $ ",
"p L B V.2X2.u ! n.i.B n Z Z i.i.9.G.!.4XsXdXdXdXiXaXsXdXdXdXdXdXdXrXyX8XpX/.n.q.;.~ R L k u r.&.M I S } 7 - $ ",
"s N m V.%X! m W k.*.l l C [ -.9.x.U.=XsXdXdXdXsX3X:XtXtXaXdXdXdXdXaXaXsXpXP.k.:.+.~ _ ( b a p.5.W #.y l r ; % ",
"a v N e.K.k Z *.i._ B C _ [ :.i.Y.Y.qXdXdXdXdXiX<X+X3X<XtXyXsXdXdXdXdXsXOXJ.k.9./ I Z N z h d.| C.1.y w p : $ ",
"p z N Y y.l M *.a.^ C Y  .*.a.&.v.~.pXdXdXdXsXsXeX@X~.1XeX7XiXdXdXdXdXiX].~.a.-._ ) B k s S 8.c f.6.l q p - % ",
"w h  .R ^.W K m.v.^ n B o.&.:.[ &.A.iXdXdXdXiX7XyX@X!.@X3X@X:XsXdXdXdXsXeX X9.{  .4.L z p i K F 4.u.G g y , % ",
"w s 6.| ].}.|.m.a.@.Z Y _ u.i.( / P.pXdXdXdX8X,XpX7X[.&X6XpXsXdXdXdXsXiXsX:X&./ [ 5.H l h s h ! q.#.L w p : % ",
"w y #.( }.}.H.v.v.*.[ ~ U [ :.;. .k.yXdXdXdXrX8XeX8X;XtXaXsXdXdXdXdX7X#X7XY.../ ~ ^ B n h 6 g t.a.A } q s - % ",
"w y I  . X;X@XJ.T.4.;.U A ~ @.5.d.Y.uXdXsXdXdXiXsXyX8X4XyXiXsXsXdXsXOX~.U.4.5.@.L L b b j 8 t Q l.K ~ r s - % ",
"q r N 5.~.:XXX[.v.C.[ Z A A [ s.XX<X6XpXsXdXdXdXdXdXdXaXiXdXdXdXdXtX.X@Xg.;.s.] Z ^ L N M 6 6 c A.! <.f f = % ",
"8 t S #.H.9XK.,X*.8._ H L A  .a.M.!.@X5XpXdXdXdXdXdXdXdXdXdXdXdXdX:X X Xm.G.G.>.;.^ A n v q 8 K K.<.<.K a = % ",
"5 p h ..m.6X<X1X9.9.@._ A L ..T.9.q..X.X5XdXsXdXdXdXdXdXdXdXdXdXeX|.J.J.H.T.x.R R R L b v l b 3.(.F.K B 9 = $ ",
"< p z ;.n.@X6X,X4.&.p.[ ~ R 5.R.i.>.Y.~.XXsXrXsXdXdXdXdXdXdXaX0X|.W.!.H.a.>.a./ I B v k b l ^ I.2Xd.j h 2 = $ ",
"< 0 h X.[ .X@X5XZ.} A.i.4.&.;.a.>.i.E.!..X9XtXpXdXdXdXdXsXiX4X3X~.~..Xz.,.*.a. .#.k b C z a E -X^.( i r 1 = $ ",
"> 5 p E J I.K.}.'.*.P.:X1X*.[ @.@.s.~.oXJ.XX2XpXpXdXdXsX7X#XQ.oXJ.9.v.a.&.-.T.9.~ N H L k h 2.6Xe.l s 0 ; = # ",
", 5 q S 6.8.K.z.H.OXOX8XyX_.4.[ [ p.~.H.T.G.OXtXpXpXtX:XW.s.s.x.v.:.{ ;.K.k.x.&.Z N N L D E Q.1X` h i 6 : % $ ",
"- < 9 a 6.d. Xw..X].9X:XY.m.b.9.&.i.m.x.m.m.!.OX XW.~..X~.b.p.-.:.,.&.v.oXA.s.@.U N I #.*.F.oXZ.B z w 1 - % $ ",
"- , 6 r S W.F.'.J.q.|.4XXXG.9.{ s.E.T.m.9.a.b.s.k.k.n.m.s.5.&.O.:.:.-.H.&XU.=.-.f.f.h.|.U.,XOX| N i 7 , = % + ",
"& : 3 w f y.|.XXW.s.H.XX XJ.d.[ G.H.G.8.[ ;.m.[ _ [ ~ U ~ [ ;.@.O.:.b.|.eX;Xz.v.>XpX7X,X<X3XI._ B q 4 : = $ + ",
"% - 1 0 h K +XI.oX.X~.@XG.l.:.&.s.x.:.9.9.9.J.( A A C C A [ :. .(  .A.9XuX2X~.&X:XaXuXuXpX5Xg.0.h 0 < - & # O ",
"% - : 5 u L w.2X@X;X|.1X+X{ ( b.v.9.*.@.m.F.a.[ ~ C k v n Z ..[ P o.S.5XwXU.m.8./.pXaXpXpXwXH.J u 4 > = % @ O ",
"$ = - , 9 m ../.6X3X2X].<X<.H *.s.a.a.@.d.~.q.^ ~ m k h v C [ i.i.i.A.OXV.*.[ P.9X:X:XuXuX(.X.h 0 2 ; = $ + o ",
"$ % - : 3 e G 0.6X4X:X4X<X1XT.E P z.H.i.m.m.:.U N b C L H ( 0.0.p.;.a.%.@.%.B.;XOXP.9XuX%XX.B r 6 , = % $ O o ",
"+ $ = - , 5 p G t.<X}.#X5X&X|.3.N I =.p.9.[ _ N h l k b x V 3.3... .~ Z ~ B.OX].b./.wX%X3.B u 7 1 ; = $ # O . ",
"O @ $ = ; < 6 r M 4.S.Y.<XOX+X-X3.L L .. XS.3.l h s D N h I l u l ' _ Z X.A.~.H.].4X X%.C i 7 2 > - % $ O o X ",
"o + $ % = : 2 5 r k M N <.{.}.D.(.h.*...4.@X6XL.<.F H I J 3.n h S 4.6.P.'.~.U.OX<X X#.B a 8 2 : ; & $ # o X . ",
"X o + $ % = ; 1 5 q h h s D w. XB.m.Y.g.q.3.8.2.C.z.l.*.B j K 3.0...| q.=.4.B.@XI.` l r 7 2 , - * $ $ O X X   ",
"X o O @ $ % - : < 5 8 p y p k D w.I.I.XX,X+Xg.] ( 3.| M m n H #.] F.~.G.F.j.L.} Z h q 7 2 : - = $ $ O X X X . ",
". . X O + $ % = - : < 5 0 q w a k K t.G. XqX<XY.P.P.Z.q.0.z.r.p.c.F.W. XP.3.M h r 6 3 , - - = $ $ O o X . .   ",
". . X X o O $ $ % - - : 1 5 8 q e y j  .9.w.H.J.G.Y.t.| ( *.*.1.z.c.8.} J h p 6 3 1 > ; - * $ @ O O X X       ",
"    . X X o + # $ % % = ; , , 2 6 q r j K 3.e.b.4.B.A.C.h.y.2.T x h a r 9 6 2 1 : - - & $ $ @ O o o .   .     ",
"    . . X X X O O + $ % * = - : > , 2 8 q y s k k h f i y q 5 6 5 6 2 1 > : : = = = % $ # O O o o . .         ",
"      . . . . X O O O + $ % % % = - ; : > 1 1 1 2 2 2 2 , : : : ; ; ; = = & & % $ $ # + O O . o . .           "
};
