/* XPM */
static char *_927a2896c524e428cc1f7583f96a85dNKsS0fZaTfEKLG2O[] = {
/* columns rows colors chars-per-pixel */
"50 81 184 2 ",
"   c None",
".  c #050505",
"X  c #080708",
"o  c #0C0C0C",
"O  c #110C0B",
"+  c #190E0B",
"@  c #1F110E",
"#  c #110F11",
"$  c #131313",
"%  c #1B1615",
"&  c #191718",
"*  c #1C1A1A",
"=  c #231613",
"-  c #261815",
";  c #2C1A14",
":  c #221D1C",
">  c #2B1F1D",
",  c #321D16",
"<  c #361E18",
"1  c #24201F",
"2  c #34211D",
"3  c #3C221B",
"4  c #1F1E20",
"5  c #201F20",
"6  c #242324",
"7  c #2A2626",
"8  c #2C2827",
"9  c #272728",
"0  c #2C2B2B",
"q  c #282729",
"w  c #312D2D",
"e  c #342826",
"r  c #2F2F30",
"t  c #302F31",
"y  c #343233",
"u  c #393739",
"i  c #3B3A3B",
"p  c #383333",
"a  c #40241C",
"s  c #48291F",
"d  c #462A22",
"f  c #4B2C23",
"g  c #512F24",
"h  c #4F3026",
"j  c #44312C",
"k  c #503027",
"l  c #513128",
"z  c #5A352B",
"x  c #5D392E",
"c  c #4B3934",
"v  c #5E3B31",
"b  c #653F33",
"n  c #44403F",
"m  c #5D4038",
"M  c #67412A",
"N  c #6A432A",
"B  c #6F4828",
"V  c #6F4827",
"C  c #754C27",
"Z  c #764D2A",
"A  c #784F2A",
"S  c #784F27",
"D  c #79512B",
"F  c #674135",
"G  c #694236",
"H  c #644339",
"J  c #694338",
"K  c #6F483B",
"L  c #754D33",
"P  c #734B3E",
"I  c #79513D",
"U  c #3F3D40",
"Y  c #403E41",
"T  c #444344",
"R  c #474648",
"E  c #484649",
"W  c #4C4B4C",
"Q  c #584B49",
"!  c #54504F",
"~  c #4F4E50",
"^  c #514F51",
"/  c #535253",
"(  c #5D5353",
")  c #575558",
"_  c #595759",
"`  c #5C5B5C",
"'  c #644F49",
"]  c #754D41",
"[  c #784E41",
"{  c #64504C",
"}  c #7D5447",
"|  c #7E5548",
" . c #775044",
".. c #625656",
"X. c #6A5A57",
"o. c #6C5E5C",
"O. c #665957",
"+. c #735C56",
"@. c #7C5D54",
"#. c #735E59",
"$. c #785F59",
"%. c #7B625B",
"&. c #5F5E60",
"*. c #615F61",
"=. c #5F6060",
"-. c #636363",
";. c #686767",
":. c #666568",
">. c #686769",
",. c #6C6B6C",
"<. c #7A6865",
"1. c #7C716F",
"2. c #716F71",
"3. c #737273",
"4. c #787779",
"5. c #7C7C7C",
"6. c #797677",
"7. c #805649",
"8. c #855A4D",
"9. c #895E4C",
"0. c #805546",
"q. c #8A5F52",
"w. c #8D614F",
"e. c #996C44",
"r. c #9B6D4C",
"t. c #8D6153",
"y. c #83635A",
"u. c #8A6559",
"i. c #8D695D",
"p. c #916556",
"a. c #9A6D53",
"s. c #936758",
"d. c #96695A",
"f. c #9A6D5E",
"g. c #9E7053",
"h. c #9E7059",
"j. c #9D6F60",
"k. c #936D62",
"l. c #88746D",
"z. c #9E7061",
"x. c #997569",
"c. c #8A7B76",
"v. c #9C7D73",
"b. c #A27162",
"n. c #AA7665",
"m. c #AF7866",
"M. c #AF7866",
"N. c #A2786C",
"B. c #B27A67",
"V. c #B47B68",
"C. c #8E827A",
"Z. c #9F847E",
"A. c #7F7E80",
"S. c #817F81",
"D. c #878687",
"F. c #838283",
"G. c #878788",
"H. c #888789",
"J. c #898889",
"K. c #8B8B8B",
"L. c #978C8B",
"P. c #908E90",
"I. c #908F90",
"U. c #969597",
"Y. c #949495",
"T. c #989699",
"R. c #9C9C9C",
"E. c #979797",
"W. c #AA8980",
"Q. c #AF9189",
"!. c #A59D9C",
"~. c #9FA09F",
"^. c #A19FA1",
"/. c #A1A0A1",
"(. c #A3A2A3",
"). c #A7A7A8",
"_. c #ABAAAB",
"`. c #B0AEAF",
"'. c #B0AEB0",
"]. c #B4B2B4",
"[. c #B9B7B9",
"{. c #BDBABD",
"}. c #B9B5B7",
"|. c #C9C5C8",
/* pixels */
"                                                                                                    ",
"                                                                                                    ",
"                                          * & & $ $ * 5 *                                           ",
"                                  0 * . ) (.F.4.T _ ).U.(.2.$ o 6                                   ",
"                              i / R.J.6 y P.,.` u _ U.-.G.3.i * D./ *                               ",
"                          X 6 Y.{.(.F.E & t 0 0 * & r 6 0 U q T ].K.T 6 4                           ",
"                      q ,.W E `.D.,.R & + ; ; ; ; ; ; ; ; > $ _ F.) ^ W q / q                       ",
"                    -.U.{.5.& T W 6 : 3 H q.q. .G q.q.9.q.K 3 - : T u 6 2.R.E 0                     ",
"                  T E.(.U.` 6 X % 3 v t.d.z.z.t.P z.z.z.z.f.K f d % o R (.P._ W q                   ",
"                0 0 J.,.T w % 3 v z p.z.j.j.z.q.P j.b.z.j.z.P  .t.F d - ! W ^ E & q                 ",
"              _ R.i y i = 2 J 8.d.F s.z.j.j.z.q.P j.m.b.j.z.P | z.j.q.x , = 0 * 0 T.2.              ",
"            q D.).:.$ = J 8.j.z.d.F s.t.9.j.z.q.P j.m.b.j.z.P } z.j.z.P F K ; 0 P.R.F.)             ",
"          _ -._ ) u 2 g t.z.j.j.d.F d.} Z h.z.q.P j.m.b.j.z.P 7.m.b.z.] | z. .j ^ / W / q           ",
"          4.}.J.T = F F t.z.j.j.d.F d.} Z g.z.q.P j.m.b.j.z.P 7.V.b.z.] | z.f.K = o 9 0 6 6         ",
"        0 4.(.R.T @ ] J t.z.j.j.d.F d.} Z g.z.q.P j.m.b.j.z.P 7.V.b.z.] | z.z.| = 0 T._.T.T         ",
"        ~ 6 T ` n , P J t.b.b.j.d.F d.} Z g.z.q.P j.m.b.j.z.P 7.n.z.z.] | z.z.} < / S.F.2.i *       ",
"      W {.F.u q e x q.J t.n.m.j.d.F d.| A g.z.q.P j.b.b.j.z.P } z.j.z.] | z.z.} f = Y R 0 0 &       ",
"    q K._.R.-.6 f t.j.J t.n.m.j.d.F s.d.p.f.z.q.P j.j.j.j.z.P } z.j.z.] | z.z.} J l * * T P._ &     ",
"    u R.H.&.E % F j.f.J t.n.m.j.d.F s.z.z.j.z.q.P j.j.j.j.z.P } z.j.z.] | z.z.} ] K - :.K.(.,.*     ",
"  o W ,._ u & d t.j.f.J t.n.m.j.d.F s.j.j.j.z.q.P j.j.j.z.z.P } z.j.z.] | z.z.} ] s.h 0 ) U i q o   ",
"  X T _ ~ T % d d.z.f.J t.n.m.j.d.F s.j.j.j.z.q.P j.j.f.8.j.P } z.j.z.] | f.q. .] f.l % / W T i o   ",
"  $ (.|._.D.6 d d.z.f.J t.b.b.j.d.F s.j.j.j.z.q.P j.j.s.M a.] } z.j.z.] | s.G L ] f.h y [._.R.,.$   ",
"  $ R.'.J._ * d d.z.f.J t.z.j.j.d.F s.j.j.j.z.q.P j.j.s.M e.P } z.j.z.] | s.N S [ f.k 0 R.!.4.E o   ",
"  $ 3.J.,.T % d d.z.f.J t.z.j.j.d.F s.j.j.j.z.q.P j.j.s.M e.P } z.j.z.] | s.N Z ] f.l 6 5.D.` i o   ",
"  X i T i u $ d d.z.f.J t.z.j.j.d.F s.b.b.j.z.q.P j.j.s.M e.P } z.j.z.] | s.N Z ] f.l % E T i t X   ",
"  $ K.!.R.J.7 d d.z.f.J t.z.j.j.d.F s.n.n.j.z.q.P j.j.s.M e.P } z.j.z.] | s.N Z ] f.h y ].).R.3.$   ",
"  $ 5.R.K.` * d d.z.f.J t.z.j.j.d.F s.n.n.j.z.q.P j.j.s.M e.P } z.j.z.] | s.N D  .v.X.i _.R.F.E o   ",
"  X y i y 6 O d d.z.f.J t.z.j.j.d.F s.n.n.j.z.q.P j.j.s.M e.P } z.j.z.] | k.c.C.C.6._ * T u q * X   ",
"  $ F.U.5.4.6 d d.z.f.J t.z.j.j.d.F s.n.n.j.z.q.P j.j.s.M e.P } z.j.z.]  .o.;.:.:.` T 0 F.W -.,.$   ",
"  $ U._.(.5.* d d.z.j.J t.z.j.j.d.F s.n.n.j.z.q.P j.j.s.M e.P } z.j.z.]  .o.,.:.:.,.W 0 4./ F.` o   ",
"  $ F.(.U.:.* d d.p.t.J t.z.j.j.d.F s.n.n.j.z.q.P j.j.s.M e.P } z.j.z.] } ../ / / / T 6 _ ,.J.W o   ",
"  X T ) T q # d d.} L G t.z.j.j.d.F s.n.n.j.z.q.P j.j.s.M e.P } z.j.z.] | y.$.{ ' ..T & w i i 6 X   ",
"  $ 2.F.,.,.6 d d.} C N t.z.j.j.d.F s.n.n.j.z.q.P j.j.s.F a.P } z.j.z.] | z.z.} ] i.c 0 P.5.,._ $   ",
"  $ R.].(.A.: d d.} C N t.z.f.f.d.F s.n.n.j.z.q.P j.j.s.F f.P } z.j.z.] | z.z.} ] f.h y ].).R.-.$   ",
"  $ H.].R.,.* d d.} C N t.z.r.r.d.F s.z.z.j.z.q.P j.j.d.] f.P } z.j.z.] | z.z.} ] f.k 0 R.(.K.~ o   ",
"  X W :.~ t $ d d.} Z N t.z.r.r.d.F s.j.j.j.z.q.P j.j.j.f.z.P } z.j.z.] | z.z.} ] f.l * _ -.T q X   ",
"  X i 6 y W * d d.t.8.G t.z.r.r.d.F s.j.j.j.z.q.P j.j.j.j.z.P } z.j.z.] | z.z.} ] f.l * *.:._ T o   ",
"  $ ,._ J.R.y d d.z.f.J t.z.r.r.d.F s.j.j.j.z.q.P j.j.j.j.z.P } z.j.z.] | b.m.} ] f.h y ]._.).J.&   ",
"  X T :.R.U.w d d.z.f.J t.z.r.r.d.F s.j.j.j.z.q.P j.j.j.j.z.P } z.j.z.] | b.V.} ] f.k 0 R.(.^.F.&   ",
"  $ 3.R.R.2.* d d.z.f.J t.z.a.r.d.F s.j.j.j.z.q.P j.j.j.j.z.P } z.j.z.] | b.V.} ] f.k 7 (.(.H._ o   ",
"  X W :.W t $ d d.z.f.J t.z.f.j.d.F s.j.j.j.z.8.K j.j.j.j.z.P } z.j.z.] | b.V.} ] f.l * ` W y q X   ",
"  o / *.^ W * d d.z.f.J t.z.j.j.d.F s.j.j.j.z.8.K j.j.j.j.z.P } z.j.z.] | b.V.} ] f.l : T u / T o   ",
"  $ Y.'.(.R.t d d.z.f.J t.z.j.j.d.F s.j.j.j.z.8.K j.j.j.j.z.P } z.j.z.] | b.V.} ] f.h p J.) J.,.$   ",
"  $ Y.(.U.4.: d d.z.f.G t.z.j.j.f.G s.j.j.j.z.8.K j.z.m.b.z.P } z.j.z.] | b.V.} ] f.k 0 Y.-.,./ o   ",
"  $ D.D.` / * d d.j.N.@.y.i.i.i.u.H u.j.j.j.z.8.K j.b.B.b.z.P } z.j.z.] | b.m.} ] f.k 8 R.3.E i o   ",
"  o E i t t $ d d.j.W.L.<.1.+.+.( Q $.j.j.j.z.8.K j.z.B.b.z.P } z.j.z.] | z.z.} ] f.l * ` E r q X   ",
"  o ^ ` W W * d d.z.f.J Z.Q.z.j.%.Q s.j.j.j.z.8.K j.z.B.b.z.P } z.j.z.] | z.z.} ] f.l * ) W W T o   ",
"  $ ^.].~.F.6 d d.z.f.K !.N.f.j.j.X.d.j.j.j.z.8.K j.z.B.b.z.P } z.j.z.] | z.z.} ] f.h y {._.R.,.$   ",
"  $ D.(.F.) * d d.z.f.H +.k.j.z.d.O.d.j.j.j.z.8.K j.z.B.b.z.P } z.j.z.] | z.z.} ] f.k 0 (.(.3.E o   ",
"  o :.3.T i % d d.z.f.G @.%.i.i.+.m d.j.j.j.z.8.K j.z.B.b.z.P } z.j.z.] | z.z.} ] f.k 1 3.-.T u o   ",
"  X T ) E i % d d.z.f.J t.i.+.+.y.F s.j.j.j.z.8.K j.z.B.b.z.P } z.j.z.] | z.z.} ] f.l % / E i u o   ",
"  $ (.|._.R.y d d.z.f.J t.z.j.j.d.F s.j.j.j.z.8.K j.z.B.b.z.P } z.d.q.] | z.z.} ] f.h w _._.R.D.&   ",
"  $ R.'.R.F.6 d f.n.f.J t.z.j.j.d.F s.j.j.j.z.8.K j.z.B.b.z.P } b.q.L L | z.z.} ] f.k 7 U.R.R.,.$   ",
"  $ D.(.D.) * d f.B.f.J t.z.j.j.d.F s.j.j.j.z.8.K j.z.B.b.z.P } z.q.C C | z.z.} ] f.k 7 U.R.4.T o   ",
"  $ F.R.4.~ * d f.B.f.J t.z.j.z.d.F s.j.j.j.z.8.K j.z.B.b.z.P } z.q.C C | z.z.} ] f.k 8 R.R.,.T o   ",
"  o / _ u y $ d f.B.f.J t.z.p.t.d.F s.j.j.j.z.8.K j.z.n.z.z.P } z.q.C C | z.z.} ] f.l * =.W y q X   ",
"  X i T * y * d f.B.f.J t.b.} L a.F s.z.j.j.z.8.K j.j.j.j.z.P } z.q.C C | z.z.} ] f.l * ` ) W T o   ",
"  $ 4.-.) J.y d f.B.f.J t.z.} Z r.F s.f.f.j.z.8.K j.j.j.j.z.P } z.q.C C | z.z.} ] f.h y [._.(.J.&   ",
"  $ ,._ K.U.w d f.B.f.J t.z.} Z r.F d.8.0.z.z.8.K j.j.j.j.z.P } z.q.C Z | z.z.} ] f.h y _.R.R.F.&   ",
"  X T ,.F._ : d f.B.f.G t.z.} Z r.F d.} Z h.z.8.K j.j.j.j.z.P } z.q.P P | z.z.} ] f.f 0 R.R.Y._ o   ",
"  $ 4.U.2.~ * d f.n.f.J t.z.} Z r.G d.} Z g.z.8.K j.j.j.j.z.P } z.p.7.] | z.z. .] v.{ w R.Y.>.T o   ",
"  X T W 0 q O d d.z.f.J t.z.} Z r.G d.} L h.z.8.K j.j.j.j.z.P } z.j.z.] | z.Z.l.l.c.,.6 / T q 6 X   ",
"  o ` ,.` _ : d d.z.f.J t.z.} Z r.G s.p.t.j.z.8.K j.j.j.j.z.P } z.j.z.] } %.3.3.3.*.T 6 ,.;.` W $   ",
"  $ ^.'.(.R.y d d.z.f.J t.z.} Z r.G s.z.j.j.z.8.K j.j.j.j.z.P } z.j.z.]  .o.3.>.>.,.~ u ].(.E.F.&   ",
"  $ T.).R.R.y d d.z.f.J t.z.} Z r.G s.j.j.j.z.8.K j.j.j.j.z.P } z.j.z.]  ...) ) ) _ T y R.,.) / $   ",
"  $ F.(.R.R.y d d.z.f.J t.z.} Z r.G s.j.j.j.z.8.K j.j.j.j.z.P } z.j.z.] } #.X.{ Q ( T u S./ 3.,.$   ",
"  $ 5.(.R.J.7 d d.z.f.J t.z.} Z r.G s.j.j.j.z.8.K j.j.n.z.z.P } z.j.z.] | z.z. .] y.c 6 ) ` -.T o   ",
"  $ F.U.3.&.* d d.z.f.J t.z.} Z r.F s.j.j.j.z.8.K j.z.B.b.z.P } z.j.z.] | z.z.} ] f.l : ,.-.^ T o   ",
"  $ 3.4.E T & d s.f.f.G t.z.| I f.F s.j.j.j.z.8.K j.z.B.b.z.P } z.j.z.] | z.z.} ] f.l 7 J.,.E i o   ",
"  X y i 0 6 O f 7.L r.G t.z.f.d.d.F s.j.j.j.z.8.K j.z.B.b.z.P } z.j.z.] | z.z. .] f.l $ i y 9 6 X   ",
"  $ Y.'.(.K.0 d } B e.G t.z.j.z.d.F s.j.j.j.z.8.K j.z.B.b.z.P } z.j.z.] | f.w.I ] f.h w _.R.Y.5.$   ",
"  $ P.).~.R.y d } V e.J t.z.j.j.d.F s.j.j.j.z.8.K j.z.B.b.z.P } z.j.z.] | s.N C ] f.h w ).^.J.,.$   ",
"  $ 5.(.K.2.6 d q.9.a.J t.z.j.j.d.F s.j.j.j.z.8.K j.z.B.b.z.P } z.j.z.] | s.N A ] f.k 7 U.R.,.T o   ",
"  $ 5.R.5.W * d d.z.j.G t.z.j.j.d.F s.j.j.j.z.8.K j.b.B.b.z.P } z.j.z.] | s.K I ] f.k 7 U.F._ T o   ",
"  $ F.P.` ^ * d d.z.f.J t.z.j.j.d.F s.j.j.j.z.8.K j.z.m.b.z.P } z.j.z.] | j.d. .] f.k 0 R.4./ T o   ",
"  o ) _ u y $ s 8.j.f.J t.z.j.j.d.F s.j.j.j.z.8.K j.j.z.j.z.P } z.j.z.] | z.z.} ] f.l * -.W y 0 X   ",
"  X E W E T & 3 F j.f.J t.z.j.j.d.F s.j.j.z.z.8.K z.j.j.j.z.P } z.j.z.] | z.d.G ] 8.d * ^ E E i o   ",
"  $ R.).K.3.6 3 z P 8.J t.z.j.j.d.F s.z.f.} P F x P t.z.j.z.P } z.j.z.] | f.K f ] J 3 w (.(.R.,.$   ",
"  $ G.K.` W * 3 f s P G q.f.d.d.s.b t.f. .g f f f f x t.f.f.P  .f.d.f.P ] J f f z z a 0 U.R.3.E o   ",
"  # -./ T T % , a a d d f f f f f f f f d 3 a a a a a f f f f f f f f f f a a a 3 a < 6 5.,.T i o   ",
"    $ $ # # X o O O O O O o o o + 3 + o O O O O O O O O o O ; - o O o ; - O O O O O o o & $ o o X   "
};
