/* XPM */
static char *enemy1739613799[] = {
/* columns rows colors chars-per-pixel */
"64 64 255 2 ",
"   c #040102",
".  c #0C0305",
"X  c #05000A",
"o  c #0E0309",
"O  c #0D0809",
"+  c #070A08",
"@  c #120405",
"#  c #1A0304",
"$  c #140A05",
"%  c #1C0A03",
"&  c #120509",
"*  c #1B040A",
"=  c #14090A",
"-  c #1B0B0B",
";  c #07150A",
":  c #181408",
">  c #060513",
",  c #130912",
"<  c #1C0B12",
"1  c #170411",
"2  c #1B1515",
"3  c #220403",
"4  c #230B03",
"5  c #22030C",
"6  c #220D0B",
"7  c #2B0805",
"8  c #340D04",
"9  c #25130C",
"0  c #2A130B",
"q  c #281808",
"w  c #341306",
"e  c #230B12",
"r  c #271915",
"t  c #361A16",
"y  c #352207",
"u  c #29231B",
"i  c #38231A",
"p  c #2C2510",
"a  c #010523",
"s  c #2D2722",
"d  c #352B25",
"f  c #372825",
"g  c #393529",
"h  c #3D3632",
"j  c #2E3025",
"k  c #202018",
"l  c #530C09",
"z  c #48190D",
"x  c #57160B",
"c  c #4D1C14",
"v  c #4D1C1A",
"b  c #471816",
"n  c #541C14",
"m  c #5B1D13",
"M  c #541C1B",
"N  c #5D1C1A",
"B  c #561516",
"V  c #4C0B0E",
"C  c #780E00",
"Z  c #65180B",
"A  c #771B06",
"S  c #641C15",
"D  c #6E1510",
"F  c #44221B",
"G  c #4C231C",
"H  c #482718",
"J  c #52231D",
"K  c #5B231A",
"L  c #57301F",
"P  c #63231E",
"I  c #68281A",
"U  c #762B1B",
"Y  c #68341F",
"T  c #7D321C",
"R  c #471E21",
"E  c #531C20",
"W  c #661D24",
"Q  c #4C2A23",
"!  c #462927",
"~  c #542C25",
"^  c #582926",
"/  c #43332D",
"(  c #4B332C",
")  c #4B3829",
"_  c #5A372B",
"`  c #493533",
"'  c #493935",
"]  c #5D3B35",
"[  c #563934",
"{  c #632524",
"}  c #642A24",
"|  c #672A28",
" . c #762D24",
".. c #683729",
"X. c #793628",
"o. c #673A34",
"O. c #783A34",
"+. c #6B2A30",
"@. c #4D443A",
"#. c #54433B",
"$. c #5A463C",
"%. c #584A32",
"&. c #7B4529",
"*. c #684639",
"=. c #76473B",
"-. c #593F40",
";. c #7D3F40",
":. c #5A4943",
">. c #534D42",
",. c #644C42",
"<. c #6A4944",
"1. c #7A4C43",
"2. c #675445",
"3. c #7A5849",
"4. c #685B55",
"5. c #765C57",
"6. c #7B6956",
"7. c #716652",
"8. c #93160D",
"9. c #8B210A",
"0. c #852716",
"q. c #952819",
"w. c #873319",
"e. c #962A0E",
"r. c #AC3018",
"t. c #893A29",
"y. c #943726",
"u. c #963D3A",
"i. c #8B3937",
"p. c #AB3827",
"a. c #B93C28",
"s. c #BA3E34",
"d. c #AA332E",
"f. c #B91E1A",
"g. c #C9352B",
"h. c #CA3C34",
"j. c #D83C35",
"k. c #98451A",
"l. c #894429",
"z. c #98452A",
"x. c #884939",
"c. c #994836",
"v. c #86543B",
"b. c #99533A",
"n. c #A64729",
"m. c #A44B35",
"M. c #A94837",
"N. c #B74935",
"B. c #A4523C",
"V. c #A9563B",
"C. c #B75639",
"Z. c #B14F28",
"A. c #AC6638",
"S. c #9D562D",
"D. c #C84639",
"F. c #D54639",
"G. c #C75839",
"H. c #D75C38",
"J. c #CA522D",
"K. c #E25E3B",
"L. c #C8613D",
"P. c #DA643A",
"I. c #E36238",
"U. c #864B44",
"Y. c #8B5645",
"T. c #975847",
"R. c #995D54",
"E. c #8D534A",
"W. c #A54D43",
"Q. c #B54446",
"!. c #A75945",
"~. c #B75844",
"^. c #AE5A52",
"/. c #82664B",
"(. c #9B6049",
"). c #886757",
"_. c #976957",
"`. c #89745D",
"'. c #A9644A",
"]. c #B7654A",
"[. c #A86955",
"{. c #B66A56",
"}. c #A8725A",
"|. c #B87759",
" X c #B5754F",
".X c #B85965",
"XX c #97656A",
"oX c #987466",
"OX c #866F67",
"+X c #AB6865",
"@X c #AA7564",
"#X c #B87C64",
"$X c #B1726A",
"%X c #825760",
"&X c #C64846",
"*X c #C65A46",
"=X c #D65E43",
"-X c #C84A56",
";X c #D44C49",
":X c #C86547",
">X c #DC6B4C",
",X c #D76647",
"<X c #D8754A",
"1X c #C96953",
"2X c #DA6E54",
"3X c #C6785A",
"4X c #D87655",
"5X c #CA754C",
"6X c #E56645",
"7X c #E77549",
"8X c #E37453",
"9X c #E76F54",
"0X c #D17B61",
"qX c #E17C60",
"wX c #CD5669",
"eX c #BF8057",
"rX c #958671",
"tX c #B88367",
"yX c #BC9779",
"uX c #A98971",
"iX c #D38651",
"pX c #E48453",
"aX c #C68669",
"sX c #D68668",
"dX c #C68B77",
"fX c #D58C74",
"gX c #C89777",
"hX c #D59978",
"jX c #D89666",
"kX c #E69476",
"lX c #E88F6B",
"zX c #F4A464",
"xX c #AB9A83",
"cX c #B59186",
"vX c #DA9B83",
"bX c #CA9A85",
"nX c #D8A588",
"mX c #CFAF91",
"MX c #E6AA87",
"NX c #F4AA86",
"BX c #E7B899",
"VX c #F3B996",
"CX c #F6B98D",
"ZX c #ECB6A3",
"AX c #EB9682",
"SX c #DBC290",
"DX c #F8C197",
"FX c #E7C892",
"GX c #F6D5A9",
"HX c #F6D3B0",
"JX c #F9E0BE",
"KX c #D8C4A1",
"LX c #F5F5CC",
"PX c #F2FAD5",
"IX c #F1F1D3",
/* pixels */
". . .     @ .     . .   .   . . . @ . . . . . . . . . . . . . . . . . @ . . . .   . . =   . . . . . . . @ . .   = @ . . @ . . . ",
"    .       .   .   . . . . . . . . . @ @ @ . @ @ . . . . . . . . . . . . . . . O   .   . . .   . . . +     . .     X         . ",
".       . + . . .     . + . . . @ @ @ . . . . . . . . . . . . . . .     . . . . . . . . . O . . $ . . . . . .   , * , + X + & & ",
"  . .   . .     . +                 o . . @ . . . . . . . . . . . . . . . .   . . . . . $   . @ . . . $ o O o   + ; ; ; ; 2 2 < ",
"  . O .   . . . .   . . .   o . O o . . @ o @ . . . . . . . . . &   . . .   . . .   . . = . . . O . . @ 1 X ; k 7.uXrX5.5.4.4.>.",
". .   . . . .                   +   +     @ = . . . . . . . . . o . . . . . o . O . . @ . O   . . . o > 2 @.rX/.=.+.^ -.< & o o ",
"$ . .   O +     = < ` :.2.5.).).).5.$.$ . . & & . . . . . . . . o . . . . . .   . . . . . . . @ . X + j uXY.} G J z $.6 # @ & & ",
"u @ .   . .   $ t F G S P S I U &.*.3.g : . o = & @ O @ . . . . . . . @   @ . . . O . . . O . . . + ; tXoX..I n v b s # @ @ & * ",
"$ @ .   . . . . . $ ! H J n n m c B ^ 3.j 4 @ @ = = . o O @ & . @ . . . . @ . . o . @ . @ @ . & 1 , :.).~ K l v b f * * = * * = ",
". . O . . . .   .   $ f Q Q J V B B B _ 6.: $ @ = = @ & = . = O & @ . @ . . . . . . @   >   . & 1 s )._ n V z v t R - - * * * = ",
". . . . . . . . . . . . [ b Q V E v B B *.2.% % @ &   & . . & = & = @ . . @ . . @   @   : - 1 , g `.o.B V J c v E ! ' 2 6 - = * ",
". . . . . . . . . @ . . #.Q J M E b b V x v.@.: O 1 1 2 = & 1 * = * & & @ = @ = .   O : 7.2 u 2._.*.x c c n G G v Q b -.e # & = ",
". . . . . . . @ . @ @ @ :.^ M E { M E N N D [.7.r 2 j rXh - = @ = - = @ & & @ . . X @ %XcX7.XX_._...n K o.U.1.=.=.*.*.<.#.t = & ",
". . . . . @ . . @ @ @ s ( ^ | { K J b J K U ~.{.6.k 2.cXmX` e # - - - = # # @ @   > o cXXXU.T.E.(...K K B m &.^ J Q / 6 - @ . & ",
". . . . . . . . . . & $.| { I x.v.x.1.=.Y.!.~.*X X(.x.W.vXxXw # * - - = $ & @ .   > d cXoXE.o.1.v.Y x z c c G b ! f 4 * * @ & & ",
".   . . . @ . @ @ # ' ~ } X.E.T.X.S x l x A ~.~.~.'.x.{.MXSXy # o * = - = = @ . . X 4.xX).f r *.U.=.*.K c H G z #.% @ @ = @ o @ ",
". . . . o @ . @ . f o.1.O. .S P S x P m I Y.B.M.'._.t <.gXSXq @ * # @ & = & . . o & rXuXH 7 3 7 _ o.v z *.*.G H @.% # & * & $ & ",
"o . . @ . . . . 9 <.o.| W S +.S P { S Y =.S Z i.(.) * 3 mXSXp & 3 r # @ o o o . o . 5.7.8 ) e r 0 *.H b z ~ o.Q @.$ # = = & & . ",
". . . . . . o s $.[ ^ _ +.| { N S Z x.T.B B W X.tXp % 7 mXKX2 1 oXxX9 5 * @ * # , @ t *.8 `.p 0 4 #.F t b G G ] #.$ # # = @ = o ",
". . .   . o 2 ` h p f [ _ ^ | W S x.b.U B B B U gXq % # bXxX1 :.mXxXp r 2 : ; ; : & & q w uX@.p # >.H F F b [ ! ( g - * = O @ = ",
". . . . o & r e @ . # 3 [ ^ { N X.O.I x l v E { yX% 9 # 5.1 i FXnXBXnXnXvXvXhXgXuX:.r 9 y yXrXw 0 4.( b i ` 9 # f / s - & . = O ",
". . . o . & = & @ @ @ @ - [ o.| O.N x B M V E } @Xr = o . * yXFXaXS.C.G.4X2X*X1X].'._.,.3.yX`.i t 5.Q b / q 4 # - & s r $ @ = @ ",
". . . . . . o @ . @ @ @ * ' ~ 1.^ E M ^ c n E U.{.6.2 = o.aX XNXjX5X5X4X:X2XqX4X4X].~.B.'.}.2.H 3.3.~ F ' q # - & & = = = @ . O ",
"  . o   @ o @ . @ @ . @ @ / *.] ~ ^ ! Q ^ m { i. .}.H oX].C.P.pXzXP.6XP.4X1X0XkXhXsX].].A.b...`.E.U.~ H @.q 4 # * @ = = o O = o ",
". . o . . . & @ o & . $ & [ #.] ' f / [ n P ..m Z i.!.!.C.J.P.H.<X7XI.7X4XMXGXHXBXhXaXiX'.!.T.b.Y K ^ z ) 4 * - - & o = O @ O . ",
". . . . . @ o . & . . . 1 #.#.6 - & # h L =.o.B E D 0.V.G.<XP.6XP.P.7X7XCXJXLXPXZXV.V.C.|.#XT.l.Y B c _ / 6 - % = @ = = . O . . ",
". . . . . . . . @ . . @ ` ' r # # @ @ @ G *.G Q K I C V.J.4XK.6XpX7X7XzXHXIXPXIXZX*XpXZ.n.#X[.Y..._ G ! i r - - & & . . . $ = . ",
".   . . . . . @ . . . @ g 6 @ # & & @ . $.*./ t U.X.C m.e.2X6XK.7X7XP.DXHXPXPXIXHXL.zXA.0. X|.(./.w 7 t i d 6 # $ = = & = O . O ",
". . . . . . . . . . o < s # @ @ @ # o u ' = . [ T.B.C !.r.L.,XK.P.7X<XDXGXLXLXJXkXZ.zXiXw.!.tX(._.8 3 3 0 i - & @ = = . . = . . ",
". . . . @ . . . o & @ 2 2 # @ & & & & d - - @ }.B.].9.m.Z.L.>XH.P.8XpXCXGXGXJXvXc.r.iXiXk.T.#XT.6.7 # # 6 r 2 = = = . = . O . O ",
". o   . . . . @ @ & . = & & @ & @ $ @ i , . t T.m.N.9.n.5XH.>X,XH.,X<XNXZXDXBX|.e.a.pXpXk.'.|.Y.3.7 3 3 6 < , = = . . O = . . . ",
". . . . . . . . . . o . @ @ & & & & @ @ , . ).t.M.Z.G.G.<X,XH.P.H.H.4XsXVXDXVXVXS.Z.iXZ.S.|. Xv.) 3 # 6 - : - = = @ = . O O . O ",
". . . . . . . . @ . . @ & . . = & & & . >   [.y.N.N.G.:X>X6X=X6X,XJ.L.4XkXNXVXDXMX X!.S.aX|.(.=.y 4 # 6 - - & & o O . = . O . . ",
". . . . @ . . . . O . . = @ & @ = @ @ . a   [.y.N.N.*X>X6X6X6X9X>XG.J.G.,XlXNXVXMXhXsX3XeX'.l.&.q % 4 6 - $ & = = @ . . . O . . ",
". . . . . . . @ . @ . = O @ . = @ = & o a   ^.m.G.G.,X=XK.6X,XH.=Xa.G.a.*X1XqXsXjX4XaX].A.S.&.3.w # * - - @ = = . . O = $ . . . ",
". . . . . . . . . . . = . = @ = = @ & & a   [.M.*X>X9X=X=X>XJ.].1XN.1X~.m.M.V.3X3X1XA.'.b.(.&.3.9 # # - $ = @ . = . . . . . + . ",
". . . . . . . . . . . = . = O . = @ = $ >   R.M.,X8X8X=X=XN.9.'.T.|.vXgXtXgXhXdX XaXV.tXgXmXoX[ # # # - = @ = @ . . . O O . . . ",
". . . . . . . @ = . . . = @ @ = . = & @ @ . ] !.1X2X,XC.p.y.C t.A c.t.i. .U c.gXz.nXS.}.@XuXf 3 @ # - # & = @ O = $ . . . . . . ",
". . . . . . . . . . = . . O . = = & @ @ @ . # [.~.*XC.M.q.c.i.0.9.q.N.s.&XZ.p.3Xq.3Xw.#Xv.6.3 # # - = & & @ @ @ . . . . . $ . + ",
". . . . . . . = . @ . O = @ O . & = @ & . + . (.!.~.n.y.0.0.d.Q.&X&X&Xh.j.j.D.G.s.N.p.fX=.0 @ # # # @ & $ $ @ @ @ . . . O . . . ",
". . . . . . . . O @ . . = . = = O = & & . >   _.B.n.c.w.u.y.N.s.D.s.f.f.f.j.g.;XF.h.h.Q.Y % # @ & & = = # & @ @ . = . . = . . . ",
". . .   . . . . . . . = . = . = = @ @ @ @ @ # }.c.z.c.B.^.m.M.s.*X~.d.d.d.8.-XD.F.F.g.-XT g @ # # = * = $ & @ @ @ . . . . . . . ",
". . . . . @ . . . @ O . O . $ = O & @ @ # - 3.[.T.y.m.[.[.(.!.!.fXfX$Xu.D w.dXs.j.j.j.g.c.rX9 # @ # * - - = & $ = . . @ . . . $ ",
". . . . . . . . . @ . = . = . . @ = . @ # t R.!.t.w.T T.#X@X}.[.'.fX#Xl.@XvXdXy.h.j.j.h.1XgX! e * * - * * # & & @ . O . . . $ . ",
". . . . . . . . . @ . . . = . = @ @ . $ - ).T.c.X.I X.v._.#XtXtX^.z.z.dXMXnX|.0X1XD.F.g.d.A c.Y.2.[ r % # # = @ . . $ . . . . . ",
". . . . . . . . . O . O O . = . @ @   . f (.T.y.c.t.x.(.x.b.tXeXaX|.b.t.[.b.{.'.~.D.D.F.p.~.3XW.Y.).).# # @ @ & $ = . . $ . . $ ",
".   . . . . . . @ . . O @ O . & . . X o E.!.W.N.B.y.c.b.V.B.~.:X].|.'.b.b.i.U t.q.s.j.h.8.W.^.^.c...=.g # @ & = . @ . . . . + . ",
". . . . . . . . . . . . . @ . @ @ @ o f E.!.!.B.c.c.t.l.b.C.*X:X:XC.|.tX}.U.^ S 0.s.j.D.C.#X{.{.H $.o.#.# @ & . @ O . . $ . . $ ",
".   . . . . . . . . . O @ . @ O . & = u ..O.O. .X.{ x x U w.N.~.C.C.n.[._ <.R <.t.Q.;Xh.X._ [.R.#.# H @.$ @ @ & @ @ . . . . = . ",
". . . . .   . . . . . . O @ . = = . . @ t [ [ ( t Q _ I K Z w.m.~.M.N.T.b 5 & & R u.&X&Xt.4.$XR.) # Q / # @ @ @ @ . & . . . . . ",
". . . . . . . . . . . @ . O . . . @ . . @ @ @ # @ $...U.| &.*.X.V.M.m.T.8 @ . o & i.-X-Xi.5.+XY.q 6 / * @ @ & @ o . . . @ . . . ",
". . .   . . . . . . . . @ . . = & & @ . . . @ $ $ :.o.O.U.2.% <.b.].m.Y.8 # . > 1 E.-X-X+X<.R.3.8 _ ' # & & & o & . . . . O . . ",
".   . . . . . . . . . . O . . = . @ @ @ @ @ . . @ ' ] 1.3.,.3 *.x.T.t.x.i # @ & & 8 -XwX.X5.E._ z ) # @ @ @ @ & . = . . O . . . ",
". .   . . . . . . . @ . . = O . O $ o . & @ @ @ d ,.| 2.2.e # [ 1.x.U.U.[ 5 # * = & ' Q..X+X.XXX=.i # @ & & o & . . . . . . . . ",
"    . .   . . . . O . O . O . .   $ O = = =   @ d _ _ 3.:.5 r [ ,.t =.<.t # & & & . o 3 XXXX$X[ q $ @ @ & & . o . @ . O . + . + ",
". . . . . . .   . . . . = . . . / $.:.:.#./ p $.*.[ *.2.r 6 [ / f f o.` 7 & * * 1 o # @ 5 . < @ $ @ @ # & @ o . . o O . . . . . ",
". . . .   .   . . . . = . . . . @ [ 2.O.O.*.,.=.] <.*.q # / ' f s R f 7 @ & 1 * * o X   .     . o & & = & . O . . . . . . . + . ",
".   . . . . . O   O   $ O = . . * r <.o.O.O.o.] ,.) 9 # * e < @ 5 < * * * & 1 & 1 & & o . . o . @ & & . . . . o o .   + . . . . ",
".     . .     . . . $ . O . .   . # ` *.U.O.<.t % @ @ @ & # @ & & & o & & * o & & & o & & o & & . & & o o . o . O o . . . . +   ",
". . .   . . . . . . +   . . O . . . * i <.1.<.- @ @ @ * & & & @ & & & & o & o o & o & & @ @ o & o . . & . . . . . . . . + . . . ",
"  .     . +     .   .   . =   . . .   . # @ @ . . @ & = = @ & . & @ = & & & & o o & o & & o . o o . . . . . O = O . . . . . . . ",
"  .   . . .   . + . + . O   . @ o . @ .   . o o @ @ * @ = o = & O o o o o o & o & . . & . @ . . . . . . . . O   . . . + . + . + ",
".   .   .   + .     . . . . .   . o . . @ @ @ @ @ @ & & & & @ & @ o O & o @ o o & o o & o . o . . . & o O . . . . + . . . . . . ",
"  . .         . . . . + o . . O o o & & @ & & = = & & @ & = @ . = @ @ & @ o & & & o & . & o o o . o o . . . . O .   . + . + . O "
};
