/* XPM */
static char *closed_door1739562950[] = {
/* columns rows colors chars-per-pixel */
"64 64 179 2 ",
"   c #010102",
".  c #0A0504",
"X  c #060807",
"o  c #0E0A05",
"O  c #050609",
"+  c #09070B",
"@  c #07090B",
"#  c #0A0B0D",
"$  c #110C06",
"%  c #120E0B",
"&  c #0E100F",
"*  c #15110E",
"=  c #18150E",
"-  c #0C0D11",
";  c #120F11",
":  c #0E1113",
">  c #141313",
",  c #1A1613",
"<  c #1C1916",
"1  c #151619",
"2  c #1A161A",
"3  c #15191C",
"4  c #1C1B1B",
"5  c #141817",
"6  c #201C16",
"7  c #211E1C",
"8  c #1E201F",
"9  c #24211D",
"0  c #2A241D",
"q  c #2B281E",
"w  c #1C1E22",
"e  c #231F22",
"r  c #1F2122",
"t  c #242423",
"y  c #2A2623",
"u  c #2C2A25",
"i  c #252628",
"p  c #2A2728",
"a  c #27282A",
"s  c #2C2C2B",
"d  c #312C26",
"f  c #312E2B",
"g  c #34322D",
"h  c #39362D",
"j  c #3C392F",
"k  c #343027",
"l  c #2E2F33",
"z  c #332F30",
"x  c #2F3131",
"c  c #353332",
"v  c #393632",
"b  c #373834",
"n  c #3C3A35",
"m  c #353639",
"M  c #373939",
"N  c #3D3C3A",
"B  c #3C3638",
"V  c #413D34",
"C  c #413E3A",
"Z  c #3E403F",
"A  c #424136",
"S  c #44423D",
"D  c #49443D",
"F  c #4B483E",
"G  c #3D3E42",
"H  c #3E4242",
"J  c #454442",
"K  c #494642",
"L  c #4C4A45",
"P  c #474A4B",
"I  c #4D4C4A",
"U  c #524D45",
"Y  c #514E4A",
"T  c #555247",
"R  c #55524D",
"E  c #59554D",
"W  c #5C594E",
"Q  c #555452",
"!  c #5A5652",
"~  c #5C5954",
"^  c #565659",
"/  c #575A5A",
"(  c #5D5C59",
")  c #615D54",
"_  c #625E5A",
"`  c #656156",
"'  c #65625C",
"]  c #6A655C",
"[  c #6C695D",
"{  c #706C5D",
"}  c #5F6062",
"|  c #656562",
" . c #6A6662",
".. c #6D6A65",
"X. c #6D6C6A",
"o. c #646569",
"O. c #716C63",
"+. c #726E6A",
"@. c #757266",
"#. c #787567",
"$. c #74726C",
"%. c #7A756C",
"&. c #7D796E",
"*. c #7F7A67",
"=. c #757472",
"-. c #797572",
";. c #7D7A74",
":. c #7C7C7B",
">. c #777873",
",. c #817C6E",
"<. c #817D73",
"1. c #827F7A",
"2. c #858275",
"3. c #888575",
"4. c #85827B",
"5. c #89857C",
"6. c #8D8A7D",
"7. c #7C7D81",
"8. c #838282",
"9. c #8A8783",
"0. c #8D8A83",
"q. c #8C8C8A",
"w. c #868789",
"e. c #928D84",
"r. c #918E8A",
"t. c #8F908B",
"y. c #959186",
"u. c #989187",
"i. c #94928C",
"p. c #99958C",
"a. c #9D9A8E",
"s. c #8F9092",
"d. c #949593",
"f. c #9A9792",
"g. c #9D9993",
"h. c #979799",
"j. c #97989A",
"k. c #9B9B9A",
"l. c #979996",
"z. c #A19E93",
"x. c #A19E99",
"c. c #A4A295",
"v. c #A5A29A",
"b. c #A9A69B",
"n. c #ACA99D",
"m. c #9D9EA0",
"M. c #A3A3A2",
"N. c #ABA7A2",
"B. c #A6A8A7",
"V. c #ADAAA4",
"C. c #ABADAA",
"Z. c #B0AEA3",
"A. c #B3AEAA",
"S. c #B5B3A5",
"D. c #B6B2AA",
"F. c #BAB7AA",
"G. c #BDBBAE",
"H. c #AFB1B0",
"J. c #B4B4B3",
"K. c #BFBCB1",
"L. c #BDBDBC",
"P. c #B9B4B1",
"I. c #C0BDB1",
"U. c #C4C2B5",
"Y. c #C4C3BB",
"T. c #C8C5B9",
"R. c #CCCABD",
"E. c #D0CEBF",
"W. c #BFC1C0",
"Q. c #C5C6C4",
"!. c #C7C9C6",
"~. c #CCCBC4",
"^. c #CBCBCB",
"/. c #D1CFC2",
"(. c #D3D1C5",
"). c #D4D3CB",
"_. c #DDDFDE",
"`. c #D9D9D7",
"'. c None",
/* pixels */
"'.'.'.'.'.'.'.'.'.'.'.'.'.'.'.'.'.'.'.'.'.'.'.'.'.'.'.'.'.'.'.'.'.'.'.'.'.'.'.'.'.'.'.'.'.'.'.'.'.'.'.'.'.'.'.'.'.'.'.'.'.'.'.'.",
"'.'.'.'.'.'.'.'.'.'.'.'.'.'.'.'.'.'.'.'.'.'.'.'.'.'.'.'.'.'.'.'.'.'.'.'.'.'.'.'.'.'.'.'.'.'.'.'.'.'.'.'.'.'.'.'.'.'.'.'.'.'.'.'.",
"'.'.'.'.'.'.'.'.'.'.'.'.'.'.'.'.'.'.'.'.'.'.'.'.'.'.v.Z.n.g.0.p.6.0.y.g.g.q.1.'.'.'.'.'.'.'.'.'.'.'.'.'.'.'.'.'.'.'.'.'.'.'.'.'.",
"'.'.'.'.'.'.'.'.'.'.'.'.'.'.'.'.'.'.'.'.'.'.'.'.Z.6._ E ' ` W W ' ~ ~ W E T ..2.e.'.'.'.'.'.'.'.'.'.'.'.'.'.'.'.'.'.'.'.'.'.'.'.",
"'.'.'.'.'.'.'.'.'.'.'.'.'.'.'.'.'.'.'.'.'.'.u.) ) _ { O.*.@.*.[ @.%.&.] ' ) ` W E { 3.'.'.'.'.'.'.'.'.'.'.'.'.'.'.'.'.'.'.'.'.'.",
"'.'.'.'.'.'.'.'.'.'.'.'.'.'.'.'.'.'.'.I.;.) ] %.%.@.<.#.#.{ #.[ { O.&.{ @...@.) ` ) W T 5.'.'.'.'.'.'.'.'.'.'.'.'.'.'.'.'.'.'.'.",
"'.'.'.'.'.'.'.'.'.'.'.'.'.'.'.'.'.'.z.W O.<.5.<.3.,.;.@.*.#.&.%.<.#.&.[ [ ' { ] @.] ] ] ] ) ,.'.'.'.'.'.'.'.'.'.'.'.'.'.'.'.'.'.",
"'.'.'.'.'.'.'.'.'.'.'.'.'.'.'.'.I.%._ ,.6.5.<.5.&.0.0.5.e.p.e.3.2.2.5.;.%.*.&.] ) { ] W ] T ) +.'.'.'.'.'.'.'.'.'.'.'.'.'.'.'.'.",
"'.'.'.'.'.'.'.'.'.'.'.'.'.'.v.D.W { ,.6.3.,.<.1.e.u.1._ K V 7 7 6 9 7 V F ) ,.1.+.,. .O.!  .) _ ..'.'.'.'.'.'.'.'.'.'.'.'.'.'.'.",
"'.'.'.'.'.'.'.'.'.'.'.'.'.Z.b.~ 3.3.3.3.3.,.z.0.! y . . o % , ; % = = . . o $ V  .<.+.O.) ) ]  .E ..'.'.'.'.'.'.'.'.'.'.'.'.'.'.",
"'.'.'.'.'.'.'.'.'.'.'.'.'.g.T 2.3.,.#.3.6.u.U % % o ; ; . e C G _ v d = . $ % $ . y _ 4.' ..R ) _ ~ _ '.'.'.'.'.'.'.'.'.'.'.'.'.",
"'.'.'.'.'.'.'.'.'.'.'.'.z.W 2.5.3.,.6.c.] = $ . ; + o ; ; 7 J =.<.Y < o $ 2 6 2 , % ; C 1.+... .' ' Y ' '.'.'.'.'.'.'.'.'.'.'.'.",
"'.'.'.'.'.'.'.'.'.'.'.A.` 3.<.2.,.a.6.V o o o > ; 2 2 , 7 7 J -.-.S ; * y z z y d 6 ; o e O..._ ~ E ' ! _ '.'.'.'.'.'.'.'.'.'.'.",
"'.'.'.'.'.'.'.'.'.'.'.O.<.2.2.3.a.5.V $ $ < * < 6 e f 7 6 e ! <.8.p ; % e B D J C V V p * 2 ! <.) ' ] R ) ..'.'.'.'.'.'.'.'.'.'.",
"'.'.'.'.'.'.'.'.'.'.5.] 5.3.2.y.u.0 $ o & * 8 4 y 4 t v C V Y +.R 7 6 e K v z D D K S C V y 2 E %._ E ) Y _ '.'.'.'.'.'.'.'.'.'.",
"'.'.'.'.'.'.'.'.'.z.` &.,.6.3.a.0 * * = < u t 9 9 J L E ) E U ,._ 7 % C ) Y E U C V K Y V V y d .. .! ! ) E _ '.'.'.'.'.'.'.'.'.",
"'.'.'.'.'.'.'.'.'.&.@.5.<.<.x.D % > < < y q 9 F U E ) { ,.E @.,._ 7 2 L _ _ ) E E E V E L S S g g .._ ! Y ! ) ) '.'.'.'.'.'.'.'.",
"'.'.'.'.'.'.'.'.p.] O.,.<.z...% < > 7 k 7 d V T ] ] ) O.] ,.f.O.K < C E ) .._ ) O.E U D T K S K v K -.! ! Y Y _ '.'.'.'.'.'.'.'.",
"'.'.'.'.'.'.'.'.%.] ,.,.<.e.y $ * 7 u y 0 V E ) O.O.u.5.p.e.! K _ , L 1.1.%._ ! ! O._ R C ! I D C g .._ ! Y Y Y _ '.'.'.'.'.'.'.",
"'.'.'.'.'.'.'.'...@.%.#.u.! $ , 6 y u t U _ W ] 4.2.O.n y . 2 2 > > % 6 f Y 8.O. . .)  .U C R D L B J ..R R U K ! '.'.'.'.'.'.'.",
"'.'.'.'.'.'.'.:.O.#.] ,.e.0 $ < y u 9 D T ..O.e.1.S % 7 i l G P Q J m s B a p ~ ,._ _ ' ! Y K ~ C J v  .Y L K U Q Q '.'.'.'.'.'.",
"'.'.'.'.'.'.'.' ..@.@.e.~ o = 8 0 u S Y ) ..p...< 7 g ~ :.h.m.w.j.m.7.8.=.K N f S  . .) ~ ~ R K J J K Y _ L U U Y E '.'.'.'.'.'.",
"'.'.'.'.'.'.'.W O.O.@.0.k = 4 8 9 S L O...r._ < s N q.:.P G G G H H m P o.q.1.K C V +.! ~ ' K I E J K C $.E I L Y R '.'.'.'.'.'.",
"'.'.'.'.'.'.'.R ] %.O.;.= * < t u C '  .9...< s ^ 7.J t w w l w r r r s e z G m.^ S G <.R ' ..R Q I N C +.Y L L U R ! '.'.'.'.'.",
"'.'.'.'.'.'.>.~ ] O.<.] % > 9 t k S R ..9.7 c ..8.G r r w w 3 w 3 3 3 5 : 5 x P d./ R R | R ~ ~ I R C K R ' K U K K Y '.'.'.'.'.",
"'.'.'.'.'.'._ ~  .O.%.K % , t t S T ~ 2.f z ( w.Q l i w : - O - : : 3 3 3 5 8 x Z w.R I ..~ R ~ L Y K ! Y -.D K C K C '.'.'.'.'.",
"'.'.'.'.'.'.L ~ O.%.<.h % < p l n ! ;.' e J s.I a w w 1 O O O   @ O @ & 5 3 8 8 b Q l./ Q ( n R Y K K C D -.K C D C D '.'.'.'.'.",
"'.'.'.'.'.$.L ' O.] O.z % e a z I E :.n G 7.X.a w w 3 + O       O O O O @ : : 5 t b >.1.R / S T R ^ Y C C +.J D K C C '.'.'.'.'.",
"'.'.'.'.'.g.-.e.e.9.u. .2 e e G K O...s ~ j.P e w 1 O                   X X @ @ > t J :._  .R K R L L C  .+.) _ ) R U ) '.'.'.'.",
"'.'.'.'.=.$.+.-.,.,.1.,.0 p e G Q ..L c d.^ a 1 - + O                     X # & : & u } 1.! -.p P B ! R r.) Y D C C B v '.'.'.'.",
"'.'.'.'.'.9 9 u e 6 y 0 ; y p B Q ..Z b 8.N 2 - O O   O                     X @ X & > J f.| +.B Y K R K V 7 , 6 * 6 % 6 '.'.'.'.",
"'.'.'.'.'.b v k d V V 2 2 2 p z J $.g ~ 8.m w - - O         .                 X # > 5 B l.+.| C P K Y Y z C d 7 7 * 7 y '.'.'.'.",
"'.'.'.'.'.I t 9 d 7 7 ; ; 6 e B Z +.u 1.>.m 1 : O O                           X - 3 < x x.>.$.n n I S L B d f > 6 % > '.'.'.'.'.",
"'.'.'.'.'.'.J f f C ) 2 ; e z V J | b d.=.N 1 O O                           O X @ 3 4 y q.8.@.Z C I F U C C Y y 9 7 n '.'.'.'.'.",
"'.'.'.'.'.'.$.N _ ~ +., , e y J I  .b t.o.B > : O                             X X 4 8 y 4.d.$.b C K U Y C ! $.z L S L '.'.'.'.'.",
"'.'.'.'.'.'.>.S ^ _ ,.; , d y J S ' n s.=.N > : + O                           O # 3 4 x i.d.$.f n D I L C _ ;.v S N ~ '.'.'.'.'.",
"'.'.'.'.'.'.=.J Q _ +., , z p K I ~ Z i.:.B i : - O                           O > 3 t m B.t.4.u n L E L N _ $.N J P R '.'.'.'.'.",
"'.'.'.'.'.'...L ' X. .7 6 z y C I R Z >.t.P l r - O                         O # 3 4 r b B.>.:.> n L L K C ' $.K ~ R R '.'.'.'.'.",
"'.'.'.'.'.'. .S J _ +.7 , z p k j I F | J.| a t 1 - O                   O   O - r a x Q D.:.>.> d n S D g _ ..C b J K '.'.'.'.'.",
"'.'.'.'.'.'.| N ( !  .< 7 v 7 z Z Z Q ~ L.=.b 4 3 1 O                   O O # : 3 r a X.J.:.| > g V D I g ] ..c S I K '.'.'.'.'.",
"'.'.'.'.'.'.~ b ^ Q ..< 2 v p f S S ( J C.k.Q 8 8 8 # O     O     .   +   O 3 1 3 a Q C.l.:.~ % n C N E c _  .v J D J '.'.'.'.'.",
"'.'.'.'.'.'.R n J Y  .< 7 v e f S k ( g X.L.>.Z r 3 : : #     O   + O O O r i 3 4 J j.Q.| :.L % d n C L d ! _ f Z I J '.'.'.'.'.",
"'.'.'.'.'.'.I b S Y _ , * z e f L n ..g } M.C.} x r r w > 1 -   - + + + 5 r i a G =.!.k.X._ E % S C K K y E ! f g J Z '.'.'.'.'.",
"'.'.'.'.'.'.L n L ! ! < * B 7 u S g / 9 I | L.l.^ x r r 4 1 > 3 - + 1 1 x a a m X.C.L.| R ! R > g g S E 9 Q ! y b S A '.'.'.'.'.",
"'.'.'.'.'.'.N g S L P , 2 C 7 7 s S ~ > I ' :.W.o.H x a : 3 l r w : w i l a r I M.Q.>.| S R Y o u d D ~ * K ! y c j n | '.'.'.'.",
"'.'.'.'.'.'.S g L K K , , S p 7 g n ..u d I Q t.W.j.} P m l H H l a G G J ^ 7.C.^.1.' j h D  .6 y v _ +.7 I U y b x g | '.'.'.'.",
"'.'.'.'.'.'.N S R Y Y 6 2 C z u v S ( k 9 b Q } 7.W.W.s.7.^ H } H P X./ 7.M.!.L.=.' P Z > _ ' = d h ' ! 0 ~ Y N J S b ' '.'.'.'.",
"'.'.'.'.'.'.n N J C K , ; v u < s C T b 8 g Z Q / } j.W.^.J.l.l.J.s.B.^._.!.j.| | I b < u ' Y y g y ! n 9 ~ n h b b u R '.'.'.'.",
"'.'.'.'.'.'. ...-.;.O.p * B B 6 u x Z 8 9 b g b J / ' =.t.J.W.).`.).!.L.w.$.| ' n x t y y Y n = u h X.K u 9.R R Y L K J '.'.'.'.",
"'.'.'.'.'.) E ....+.$.K e z ^ ; x Z ~ b 8 9 f b Z I R Q ' X.X.@.>.:.$.@.' ( P n b 0 u u f ;. .< 9 S  .K ! 2.~ E R I C C ..'.'.'.",
"'.'.'.'.'.g h v g z C y ; 7 p ; u g I g 9 g Z k d Z Z D F ~ | { =.$.{ W S Z S j q d h L L ' F 6 y n S u I L u 0 s u 7 7 Y '.'.'.",
"'.'.'.'._ C C L L Y ) K 2 * e 6 q Z I u 4 j Z d g j b D Z L F Z Z F Z Z F j k h u h V L d ) U 0 d S h y _ +.K K C C h f K ..'.'.",
"'.'.'.r.K y c f z d B d K ! f % 8 Z T h 9 u b F T W W ' ` @.@.#.2.#.>.[ W U T F S F A A d W E q 9 h $.g.2.R d 7 y p e 6 e J _ '.",
"8.k.k.k.f.M.g.g.g.A.N.I.A.d 7 V R T W ` <.6.y.a.a.c.Z.G.K.T.E.)././.R.U.(.R.G.Z.S.b.z.y.e.O.) E W K S 6.~.B.k.b.r.r.r.r.9.9.8.'.",
"L e 4 t t p y u y e d f e , R -.2.6.a.a.y.y.c.S.G.F.Z.F.U.E.E.(.)././.R.I.I.T.I.F.n.n.Z.b.z.z.5.;.2.~ S L u u 0 e e 7 , 7 7 2 2 ",
"/ , 1 ; , , < < 6 7 6 d y Y <.9.a.a.c.b.b.S.U.I.F.R.R.E.U.G.S.U.U.S.G.R.T.T.T.T.z.F.c.n.c.n.a.a.0.2.4.' v 7 = , ; , , ; 2 ; > 2 ",
"X.4 , 4 < 5 4 9 7 7 9 s e.i.4. .W E E { @.' [ { ` [ @.[ #.{ ,.*.3.3.` [ [ ` ` W ` 5.2.y.<.[ O.] [  ...;.E > 7 7 6 7 6 2 e ; 2 2 ",
">.e 4 4 4 t y 5 7 d 7 L <.e.0.y.5.5.e.6.y.a.y.y.y.6.a.a.6.c.z.c.c.a.*.a.i.c.y.6.e.g.,.0.5.2.&.&.<.$.;.O.C , 6 7 e 7 e 6 % 2 e e ",
"| t s b s c N c z  .;.C k u g v C h n h n Z k h Z Z g q Z k Z h Z b u Z Z g j Z h k 0 u j k u d 6 9 y 6 6 d  .7 V z z z V z z p ",
"s t 8 t t 9 B ( C +.=.9.4.9.e.4.4.4.;.0.t.0.y.6.3.6.@.&.y.6.i.t.6.3.5.6.3.<.5.,.5.<.<.%.%.O.@.%...E .... .+...2 z Y e 7 e 7 e e ",
"v p N s p b l.q.~ b g g n g d g h c f b n g b d Z q u u x k s q 8 d u h 8 d u u u 9 d g u k u 9 t 7 < y 7 e 7 7 Q +.f B p C z z ",
"'.'.'.'.'.'.'.'.'.'.'.'.'.'.'.'.'.'.'.'.'.'.'.'.'.'.7.$.4.' ....' X.$.>.[ ..X.X.+._ -...$. .' C ' -..._ _ ! X._ _ Y L } ..<.+.o.",
"'.'.'.'.'.'.'.'.'.'.'.'.'.'.'.'.'.'.'.'.'.'.'.'.'.'.'.'.'.'.'.'.'.'.'.'.'.'.'.'.'.'.'.'.'.'.'.'.'.'.'.'.'.'.'.'.'.'.'.'.'.'.'.'.",
"'.'.'.'.'.'.'.'.'.'.'.'.'.'.'.'.'.'.'.'.'.'.'.'.'.'.'.'.'.'.'.'.'.'.'.'.'.'.'.'.'.'.'.'.'.'.'.'.'.'.'.'.'.'.'.'.'.'.'.'.'.'.'.'."
};
