/* XPM */
static char *shot_anim1739657381[] = {
/* columns rows colors chars-per-pixel */
"64 64 251 2 ",
"   c #1C152E",
".  c #16013C",
"X  c #1C023C",
"o  c #1C1535",
"O  c #1E153A",
"+  c #1D1939",
"@  c #22033E",
"#  c #230C3D",
"$  c #2A083C",
"%  c #37093D",
"&  c #221535",
"*  c #23153C",
"=  c #2B143C",
"-  c #241A3B",
";  c #281938",
":  c #33143D",
">  c #351939",
",  c #27213F",
"<  c #480B3B",
"1  c #59093B",
"2  c #47193B",
"3  c #59173B",
"4  c #77162F",
"5  c #66093B",
"6  c #740336",
"7  c #75063B",
"8  c #68183C",
"9  c #771A3A",
"0  c #4F263D",
"q  c #692439",
"w  c #783233",
"e  c #764A38",
"r  c #1E0E45",
"t  c #250341",
"y  c #2C0342",
"u  c #280B45",
"i  c #330443",
"p  c #3B0643",
"a  c #3C0D42",
"s  c #350C49",
"d  c #241642",
"f  c #2B1746",
"g  c #251845",
"h  c #26194A",
"j  c #2A1A4C",
"k  c #321442",
"l  c #371845",
"z  c #290B50",
"x  c #2C1A53",
"c  c #2F1B58",
"v  c #351B56",
"b  c #2E2645",
"n  c #2F2844",
"m  c #2E234A",
"M  c #312746",
"N  c #3A2443",
"B  c #362844",
"V  c #3B2944",
"C  c #342549",
"Z  c #39254D",
"A  c #322051",
"S  c #3E2552",
"D  c #490A43",
"F  c #540644",
"G  c #431B42",
"H  c #4A1A46",
"J  c #581545",
"K  c #491853",
"L  c #730B4A",
"P  c #681B43",
"I  c #462543",
"U  c #432B44",
"Y  c #4A2D45",
"T  c #542B44",
"R  c #5A3244",
"E  c #492D53",
"W  c #732C43",
"Q  c #673444",
"!  c #513C63",
"~  c #754749",
"^  c #6A436A",
"/  c #880B3B",
"(  c #98093C",
")  c #861A38",
"_  c #971B37",
"`  c #B81B2B",
"'  c #A7043B",
"]  c #B80839",
"[  c #A71A35",
"{  c #B61434",
"}  c #98273B",
"|  c #8E3034",
" . c #A92737",
".. c #B42E36",
"X. c #FA081D",
"o. c #E41F1E",
"O. c #CE391C",
"+. c #EA381B",
"@. c #F63C1C",
"#. c #CD092D",
"$. c #C71A2D",
"%. c #DD1D26",
"&. c #D51D29",
"*. c #DC1D2B",
"=. c #C90B35",
"-. c #D60D31",
";. c #CA1834",
":. c #D51633",
">. c #DB1C33",
",. c #E60826",
"<. c #F50D26",
"1. c #E11B26",
"2. c #E11E2A",
"3. c #E71B35",
"4. c #DC232A",
"5. c #C52735",
"6. c #D72137",
"7. c #C7383A",
"8. c #DC3937",
"9. c #E2222C",
"0. c #E72A29",
"q. c #EC3428",
"w. c #F2322E",
"e. c #E42234",
"r. c #E82937",
"t. c #EA2C35",
"y. c #E62339",
"u. c #E9243C",
"i. c #EC3538",
"p. c #F1393A",
"a. c #8D4B34",
"s. c #AD4B30",
"d. c #A86524",
"f. c #AB712D",
"g. c #CD4D17",
"h. c #F74C0C",
"j. c #FB5604",
"k. c #FC5A03",
"l. c #F85A0B",
"z. c #F44716",
"x. c #E85113",
"c. c #F45717",
"v. c #C47316",
"b. c #FC6303",
"n. c #FB6A08",
"m. c #E5780C",
"M. c #FC7B03",
"N. c #FA7708",
"B. c #EC6A10",
"V. c #F96917",
"C. c #FB7A15",
"Z. c #CF4F33",
"A. c #F44828",
"S. c #F55A27",
"D. c #EE4F32",
"F. c #F64B37",
"G. c #CB6D2E",
"H. c #EF6A2E",
"J. c #FA6626",
"K. c #FA7526",
"L. c #F87D36",
"P. c #880249",
"I. c #850F48",
"U. c #980345",
"Y. c #961A47",
"T. c #A11049",
"R. c #8C2E48",
"E. c #962645",
"W. c #B12A47",
"Q. c #CD1F49",
"!. c #C92545",
"~. c #D5254C",
"^. c #E92945",
"/. c #EE2D4D",
"(. c #EC3445",
"). c #F23947",
"_. c #F33655",
"`. c #954A4A",
"'. c #AE5044",
"]. c #956E5E",
"[. c #AE5B6D",
"{. c #C9484A",
"}. c #F1484B",
"|. c #E66567",
" X c #D98A16",
".X c #FC8303",
"XX c #FC8C03",
"oX c #FA8A08",
"OX c #EB900F",
"+X c #FC9404",
"@X c #FB9D02",
"#X c #F9990A",
"$X c #F88518",
"%X c #FA9916",
"&X c #FCA303",
"*X c #FCAB03",
"=X c #F7A509",
"-X c #FAB507",
";X c #FBBB04",
":X c #F3AD14",
">X c #CE8D2B",
",X c #F38D2E",
"<X c #D5A828",
"1X c #F6AC2A",
"2X c #FBC806",
"3X c #FAD509",
"4X c #F5D013",
"5X c #EEE808",
"6X c #FAE805",
"7X c #FCF603",
"8X c #FCF902",
"9X c #F9F30A",
"0X c #F7CC33",
"qX c #FCE82C",
"wX c #FCE334",
"eX c #BE8C58",
"rX c #CE9E5C",
"tX c #F2B852",
"yX c #F79166",
"uX c #F5AF6C",
"iX c #D7C858",
"pX c #EED34A",
"aX c #FBC559",
"sX c #FAE745",
"dX c #FAEA55",
"fX c #F4CF73",
"gX c #F9E869",
"hX c #FAEA76",
"jX c #FBFA75",
"kX c #7E778B",
"lX c #7D788B",
"zX c #81778D",
"xX c #857792",
"cX c #8A7796",
"vX c #8A7896",
"bX c #A28A90",
"nX c #D5989B",
"mX c #F1B694",
"MX c #E6ACA0",
"NX c #F2CF8E",
"BX c #FAF290",
"VX c #EEC9B2",
"CX c #F9F1AD",
"ZX c #BBB3C4",
"AX c #C0BEC7",
"SX c #F0CDC6",
"DX c #F9F3D1",
"FX c #F0E4E5",
"GX c #FBFAE5",
"HX c #FBFAF5",
"JX c #FFFFFF",
/* pixels */
"JXJXJXJXJXJXJXJXJXJXJXJXJXJXJXJXJXJXJXJXJXJXJXJXJXJXJXJXJXJXJXJXJXJXJXJXJXJXJXJXJXJXJXJXJXJXJXJXJXJXJXJXJXJXJXJXJXJXJXJXJXJXJXJX",
"JXJXJXJXJXJXJXJXJXJXJXJXJXJXJXJXJXJXJXJXJXJXJXJXJXJXJXJXJXJXJXJXJXJXJXJXJXJXJXJXJXJXJXJXJXJXJXJXJXJXJXJXJXJXJXJXJXJXJXJXJXJXJXJX",
"JXJXJXJXJXJXJXJXJXJXJXJXJXJXJXJXJXJXJXJXJXJXJXJXJXJXJXJXJXJXJXJXJXJXJXJXJXJXJXJXJXJXJXJXJXJXJXJXJXJXJXJXJXJXJXJXJXJXJXJXJXJXJXJX",
"JXJXJXJXJXJXJXJXJXJXJXJXJXJXJXJXJXJXJXJXJXJXJXJXJXJXJXJXJXJXJXJXJXJXJXJXJXJXJXJXJXJXJXJXJXJXJXJXJXJXJXJXJXJXJXJXJXJXJXJXJXJXJXJX",
"JXJXJXJXJXJXJXJXJXJXJXJXJXJXJXJXJXJXJXJXJXJXJXJXJXJXJXJXJXJXJXJXJXJXJXJXJXJXJXJXJXJXJXJXJXJXJXJXJXJXJXJXJXJXJXJXJXJXJXJXJXJXJXJX",
"JXJXJXJXJXJXJXJXJXJXJXJXJXJXJXJXJXJXJXJXJXJXJXJXJXJXJXJXJXJXJXJXJXJXJXJXJXJXJXJXJXJXJXJXJXJXJXJXJXJXJXJXJXJXJXJXJXJXJXJXJXJXJXJX",
"lXlXlXkXlXlXlXkXlXzXlXzXzXzXzXxXxXxXcXcXcXcXvXvXcXcXcXcXcXcXcXcXcXcXxXcXcXcXxXxXxXxXzXzXzXzXzXzXlXkXkXkXlXkXkXkXlXlXlXlXkXkXlXlX",
"M M b M M M M M b C C C C M Z Z C Z Z Z Z S S S S E S S E v E S S S S S Z S Z C C C N C C C M M M b b M b M n M n b M M M n M b ",
"M M M M M n M M M b M M M M C C M C C C C C C Z Z Z Z Z C S Z Z C Z C Z Z M M Z M C C b M M M b n M n M M M M M M M M M M M M M ",
"M M M M M M M M M M b M M M b M M M M Z C C Z C M Z Z C Z M Z C C C C C Z M C M M M b B M M M M m M M M M n M n C b n M M M M M ",
"n m m M M n M M M M M M M b M M M M M M M M M M M C M M M C M M b b C b M b M n b b b b M M M b M M M M n m n M n b C M M n M M ",
"M n n b b M b M b M b M M M b M n M M M M b b b b b b M b b M M b B b b M b n n b b b b M M M b n n M M n M m n M n n b b M M n ",
"M M n M M n M M M M M M M M M b b M b b M b M b , M C M M M n b b b b b , + &   o       + , 0 V n b C b m C C n b m n M b M n M ",
"Z M M b M b b b M M M M b M M C M M M M M M b m f B n M M b b M M b b + o o   &   & > 2 q 9 W.!.W M M I Q V > n b B M n m M n M ",
"2 M b j b M m b M n M M n M M M n b b b M M M b h M M M M M b C N b o     + > P E.W.~.^.^./.^.^.^.!.W...6.6._ > + - , M b b M M ",
"N J b b M M M b n M b M M n - - & & + + & & , B Z M n n b b b M l +   & 3 E.E.P 2 = & & ; 2 3 > 3 ) Q.u.u.e.4.$.2 o o & b J J M ",
"b l H b b b b n b b M b - O + + & & o o # # # & = B B B b b b G = d P E.8 > o o O O o o o O o r o - > 3 5.y.[ > ; o   & 1 5 N b ",
"M M H I b b M M b b b & O & & & = % 1 F F $ = & ; , B B B C N 5 2 E.P ; o + & & # = k a p p i y $ * & + ; ) _ - o &   1 6 > b M ",
"M M B 3 G b M M M C - - & & = 1 I.{ $.&.&.$.) > > , > V B B 3 Y.R.d o & O % 1 / ( ' U.P.L P.L L F p $ * o + 3 3 O o = 6 % O & C ",
"M M b > 5 2 N M M - ; ; ; k L ;.9.0.+.O.h.h.+.` 2 > > U V I / P O O > 4 ` &.1.1.9.%.1.%.T.P.P.U.P.L F y k &   9 ) = 1 1 & + + b ",
"b b b b G 7 6 5 G & - = > Y.6.0.0.h.k.l.k.k.k.x. .2 l > U 7 6 1 > _ $.%.2.%.2.%.o.2.%.%.1.$.U.U.U.U.U.5 a [ 9 _ e.;.$._ ; & & - ",
"O d + + - 1 6 7 5 > = > U.4.4.0.j.N.XXXXN.b.b.b.z.I.3 H 8 / 5 4 $.2.2.2.2.2.2.2.%.*.2.2.1.:.U.U.U.U.U.U.J P y.e.5.2.2.&.3 o O * ",
"d d = d * l 7 6 6 5 ; L 6.0.0.x.XX&X@X@XN.c.l.l.z.5.3 8 / 8 _ 4.9.9.4.9.2.2.2.2.9.%.2.2.$.U.] ;.=.] ' T.P.l  .3.&.[ 9.) d O - d ",
"d O = a * ; 6 6 7 6 8 { 0.t.q.N.@X&X+XB.c..X@X&XoXA._ _ 9 _ 8.e.;.] &.9.*.*.2.9.2.9.3.&.=.:.2.9.9.e.:.] ] % : [ >.) 9 [ - d O d ",
"d O d = D > 5 6 5 2 / 6.t.i.x.+X&X@XM.g.a.&X&X&X*X+X.._ } 0.t.:.=.:.e.=.4.0.+.0.9.9.>.=.4.3.9.3.9.9.9.:.=.1 k 1 < 2 * ) 8 - g - ",
"d d d d > 5 7 6 l 2 [ 6.i.i.S.@X&X@XN.B.0 m.&X&X&X*XZ.[ 8.q.6.#.=.>.:.x.C..XN.k.z.9.-.>.e.e.e.e.e.e.e.e.=.F 1 D - d - l [ = d d ",
"g g d g b G 5 1 L ;.>.u.i.(.c.@X&X&XM.M.| g.@X*X*X*Xg.7.w.i.-.-.-.-.B..Xb.N.+XM.j.q.+.z.z.@.0.3.e.e.3.6.-.L < p d d d g _ _ d d ",
"g g g f f @ $ 1 6.r.i.r.i.i.s.@X&X*X+X.Xv.e &X*X*X*XZ.D.p.r.1.3.:.+.&Xn.k.b.n.c.b.n.k.j.k.j.j.+.y.y.e.3.-.F k s d d h d 3 *.3 d ",
"g g g f # f f ( i.(.i.r.p.p.E.v.*X*X*X*X=Xf.=X-X*XOXZ.F.p.r.3.r.*.n.3Xb.n.V.H.#X@X+X.Xk.k.h.q.e.y.r.y.y.-.7 p s h d f g 2 %.` l ",
"g g h f f f a =.i.(.).t.3.i.}.G.XX&X&X=X2X;X=X&XK.8.p.S.S.i.t.p.r.;X2Xb.n.S.3X7X2XM.k.j.j.w.u.^.u.u.^.u.3.( s s g g h g l &.` > ",
"h h h g l 2 #.3./.(.).).t.w.F.F.J.C.J.4X8X8X#XA.7.8.S.@X$Xp.S.D.i.3X2XN.S.5X8X8X*Xh.z.A.@.t.u.u.u.^.u.^.,.' f h j h g h l %.9 h ",
"h h f u D I.^.3.^./.).p.S.n.V.V.$X=XK.2X8X7X:XG.7.A.%X2X-X#X;X%X8.4X2XV.2X8X7X8X-X+X+XM.k.h.w.^.u.u.^.3.,.7 z f j g h f H *.H j ",
"j j u 6 -.~.Y.!.u./.}.F.n.V.V.2X-XoX%XoX5XqXNXG.i.K.-X2X,XJ.OX$XW.<X6X$X9X8X8X7X2X+Xb.h.o.$.;.-.3.u.<.3./ D J l h x f h _ $.f j ",
"h j a -.<.A.z.9  .p.}.F.n.V.%X8X*XV.=X4XBXCXwXs.A.=X3XL.F.V.V.K._ d.4X%X8X8X8X7X;XXXB.z.B.m.V.A.3.^.3.( x G K ) v h x J 4.8 j j ",
"x x J u.A.j.j.x.9  .l.V.V.V.1X8X;XoXN.$XG.:XG.R.A.2X3XL.C.V.V.n. Xa.H.L.8X6X6X8X6X+XOXXXn.N.+X+XV.!.Y.Q.F Y.} >.5.[ ` *.) h x j ",
"x j P p.j.k.k.j. .} A.n.C.J.K.6X*X*X-X;X<X{.}.R. X6X3XK.C..XM.N.#X4Xs.D.dXwX2X3X5XG.b.b.k.k..X@Xn.P L /.W.Y.3.Y.l K K I x x j m ",
"m m J p.k.k.j.O.3 P W.c.+XA.oX;XoX-XhX4X4X$XC.a.f.6X6X-X.X.XM.XX3X8Xf.`.rXDXBXwX>X,X.Xb.b.+X&XoXA.W././.Q.L ..K x h x x x x j m ",
"b b I i.k.k.h.W 3 ..7.S.XXz.oX*X$X0XGXhXaX.XN.| e -X,X:X+XXXoXaXjXpX'.`...eXrX>XfXDXBX#X.X3X@XV._./._./.E.K C m b A m x x m M M ",
"b b b O.k.k.}.P } N.@Xm.+XN.&X;X*XiXHXFXyX.Xa.D < m.$X1X5X*XNXHXGXmX'.'.'.'.`.eXGXHXDX1XwX;Xn.)._._././.P S c A b M n b b b M b ",
"b b b w k.J.mX} ..+X@X@X XOX X:X*Xf.bXrXs.Z...p D | C.L.qXCXHXHXDXtX'.'.'.'.s.rXHXGXgXsXaXV.F._._._._.Q.K c c c m n M M C M b M ",
"b b M 0 g.J.VX| R..X#X@X#Xd.`.>X;X=X0 a s E.g.a % 3 B.C.1XHXJXHXgX>X{.Z.Z.H.Z.pXhX,XJ.J.J.F.}._.W._.u.] v v c c A n n b C M M n ",
"b b b b w B.FX[.F s.OX=X1XeX~ `.>X2Xd.p i 5 x.w 3 i q OXf.nXNXuXG.s.Z.S.,XfX,X4XC.@.S.F.F.}.}./.>.<.X.,.K v c c m b n C n M M b ",
"b b b b > | SXSX[.eX[.fXBXhXiXQ ~ R.| i i p ` g.g.D i e 3 E.......W.|.uXDXCX,XH.c.=X:X0X:X$X}._.^.X.X.,.L v c c m n b n M M M b ",
"B b b M M V [.GXDXCXmXyXhXgXdX].t y y y i i P Y.} J i i $ 9 }  .'.VXGXCXaXpX,XZ.%X0XsXqXqX4XL._.] X.X.<.L K c v b b C n M M M M ",
"M M M n M B U bXCXDXCXBXyXL.L.G.k y y y $ y D 9 ) 8 y y $ 1 } } MXFXCXBXgX,XF.D.,XdXsXwXqX4X1XR.L X.X.,.J v v M M M M M M M M m ",
"n M n M V B V Y ^ VXBXuX7...D.nX^ y y t y y $ 8 9 8 i t y % 8 ^ DXjX9X8X9XtXfXaXaXdXsXwXqX4Xa.z J ,.X.' p a l n n M M M M M n n ",
"C n n n n B V Y Y R `.} }  .7.VXFX! @ y @ t t % 8 < @ @ t t @ ! gX9X5X9X7XdXBXyX|.aXpX<X>Xf.s K ~.X.#.H S M M M M n n n M n M M ",
"C n n B n V V U Y Y ~ W ) W.W.[.HXZXu @ t t $ @ < y t t @ @ @ $ e a.`.a.f.,XuX_.{.'.| 9 8 D z 9 [ ) 0 V > k k f n M C n n n m M ",
"n M M n M B V I I 3 3 q ) } } W.nXbXr . X t @ X $ $ @ X @ @ X X f Q W W W $.W.R.9 8 5 P F s s < < % % % % $ % $ % : k k k k l ; ",
"M M M b M B N N U T T Q Q W w `.`.`.X t X . X X X @ X X X X X X X $ 0 T T Q Q Q Q R R T s z z l > l N N C b l b b b M ; b M n C ",
"M M M n n M M V V Y Y R R Q ~ Q T G $ # @ X # @ O X X X X X X X X X . X > R T T Y T Y I V Z N C N B M M m M m b C M M M b b M C ",
"M C M b M M M B V V Y Y R Y R R R R R Y Y Y U V N M > B C g X # # # # = N I Y Y Y Y U U U V V B B B B M n n M n b b b M M n b n ",
"M M M M n m M M B V V V V Y Y Y Y Y Y Y U U V B C C B B M N C V V V V U U U U U V V V V V B B M b b M M M n M n m n M M M M C M ",
"M M n m n n M M M M B B V V V V U U U V V V V B B M M M B b B B B N V V V V V V V B B V B B B C M M n M b M M M n M n M b M M M ",
"M M M M n M n n n M C M B B B V B B B B M B M M M M M M b M M M B B B B B M B B C M B M M M M M M M M M C M M M n m m M M n M M ",
"n M n M m M M M M n n M M C M M B M M C n C m n b M b M b b M M b M M M b B B M B M n C m M M M b M b M n M M M M n n M M M M M ",
"n M n M M M b M M M M M M M n M M M M n M M m n m M n M M M b M b M M M M M M M M M M M M M M n n M n M M M M M M M M M M M M M ",
"m M M M M n C n M n M M M M M M M M M M M n n M n M M M M n C n M b M M M M M M M M M M M n M n m n m M M M M n M n M M M n n M ",
"n M M M M M C n M C n M M M n m M M n M M M M M n M M M M M C n C M M M n M n M M M n M M m n m n M n M M M n C M M M M m n m n ",
"m n M M M M n M M n n M n M M M M n C M M m n M m n M M M M n M n n M M M m M M M n C M M n M n n M M M M M M M M M M M n C n n ",
"n M M n M b M M b b n b M M M n M M b M M b M M n M M n M b M M b b n b M M M n M M b M n M M b M M M M M M b M M b n b C n n C ",
"AXAXAXAXAXAXAXAXAXAXAXAXAXAXAXAXAXAXAXAXAXAXAXAXAXAXAXAXAXAXAXAXAXAXAXAXAXAXAXAXAXAXAXAXAXAXAXAXAXAXAXAXAXAXAXAXAXAXAXAXAXAXAXAX",
"JXJXJXJXJXJXJXJXJXJXJXJXJXJXJXJXJXJXJXJXJXJXJXJXJXJXJXJXJXJXJXJXJXJXJXJXJXJXJXJXJXJXJXJXJXJXJXJXJXJXJXJXJXJXJXJXJXJXJXJXJXJXJXJX",
"JXJXJXJXJXJXJXJXJXJXJXJXJXJXJXJXJXJXJXJXJXJXJXJXJXJXJXJXJXJXJXJXJXJXJXJXJXJXJXJXJXJXJXJXJXJXJXJXJXJXJXJXJXJXJXJXJXJXJXJXJXJXJXJX"
};
