/* XPM */
static char *shot1739656330[] = {
/* columns rows colors chars-per-pixel */
"64 64 218 2 ",
"   c #4E0036",
".  c #4D023A",
"X  c #47053A",
"o  c #5B0137",
"O  c #53013B",
"+  c #5B023B",
"@  c #550037",
"#  c #63013B",
"$  c #660036",
"%  c #5F0144",
"&  c #5D0450",
"*  c #6A0344",
"=  c #6C034E",
"-  c #610044",
";  c #73034C",
":  c #7A034D",
">  c #730447",
",  c #740254",
"<  c #7A0255",
"1  c #7D035B",
"2  c #780756",
"3  c #7B1247",
"4  c #8E053E",
"5  c #9F0335",
"6  c #97023D",
"7  c #A3073B",
"8  c #B80335",
"9  c #A81839",
"0  c #BD1639",
"q  c #BB1632",
"w  c #B91E28",
"e  c #982E31",
"r  c #CE321C",
"t  c #FA3E0D",
"y  c #FC3D14",
"u  c #FC3D1D",
"i  c #F03919",
"p  c #E53911",
"a  c #C71236",
"s  c #CD232E",
"d  c #C92431",
"f  c #D62639",
"g  c #D2272A",
"h  c #EC3B21",
"j  c #E63425",
"k  c #FC3B24",
"l  c #F63C2C",
"z  c #FC3E2C",
"x  c #FB342D",
"c  c #FD2E30",
"v  c #E7343C",
"b  c #E8363D",
"n  c #FC3B33",
"m  c #FB3A3B",
"M  c #F43637",
"N  c #E32C27",
"B  c #DF4B0E",
"V  c #E94D0C",
"C  c #FF4006",
"Z  c #FC5702",
"A  c #FC5B03",
"S  c #FA540A",
"D  c #FD580E",
"F  c #FB4B16",
"G  c #FE4D18",
"H  c #F8481B",
"J  c #EC5611",
"K  c #FB5A11",
"L  c #FC531A",
"P  c #F95616",
"I  c #FC6404",
"U  c #FC6C04",
"Y  c #FD6209",
"T  c #FB6C0B",
"R  c #FD7502",
"E  c #FC7B05",
"W  c #FC730B",
"Q  c #FC7A0A",
"!  c #F96D10",
"~  c #F96518",
"^  c #FD7412",
"/  c #FC7C13",
"(  c #F17415",
")  c #EC7018",
"_  c #D14125",
"`  c #CE5F20",
"'  c #C54621",
"]  c #F84729",
"[  c #E25923",
"{  c #FD5226",
"}  c #F95B29",
"|  c #FC4D33",
" . c #FB473A",
".. c #FC4D39",
"X. c #FD523B",
"o. c #FA5837",
"O. c #F96726",
"+. c #FB7C20",
"@. c #FA6833",
"#. c #FC743D",
"$. c #E76621",
"%. c #86034F",
"&. c #990647",
"*. c #840553",
"=. c #850658",
"-. c #93065D",
";. c #94095E",
":. c #930556",
">. c #A80748",
",. c #AF1343",
"<. c #BC1341",
"1. c #A20955",
"2. c #AA0B59",
"3. c #B40B5B",
"4. c #B91857",
"5. c #990762",
"6. c #9E0962",
"7. c #940860",
"8. c #A30965",
"9. c #A30764",
"0. c #B01663",
"q. c #BA0F67",
"w. c #CC1C4D",
"e. c #CC1A5C",
"r. c #C81958",
"t. c #D8125C",
"y. c #CA2144",
"u. c #D42947",
"i. c #D4265C",
"p. c #E7384E",
"a. c #FB3A44",
"s. c #FC384D",
"d. c #F9364B",
"f. c #EB305D",
"g. c #F33451",
"h. c #F63B54",
"j. c #FC3957",
"k. c #F3335D",
"l. c #F63A5A",
"z. c #FA355B",
"x. c #E22A43",
"c. c #C30F6B",
"v. c #C3136E",
"b. c #CA136D",
"n. c #C71A67",
"m. c #DC1A6B",
"M. c #D51A68",
"N. c #DE1C75",
"B. c #E61E74",
"V. c #E81F71",
"C. c #DD2863",
"Z. c #EB2B65",
"A. c #E82468",
"S. c #F02C67",
"D. c #E93063",
"F. c #F53463",
"G. c #E82972",
"H. c #F22D71",
"J. c #ED414C",
"K. c #FB4D41",
"L. c #FA464A",
"P. c #FB5746",
"I. c #FD465A",
"U. c #FC5652",
"Y. c #FC7159",
"T. c #FD456A",
"R. c #FC8504",
"E. c #FB8C0B",
"W. c #FA8906",
"Q. c #FB9B0D",
"!. c #FB9608",
"~. c #FB9413",
"^. c #FA9C13",
"/. c #F59919",
"(. c #F9AA07",
"). c #F8BC0A",
"_. c #FAA512",
"`. c #F9A716",
"'. c #E9AA17",
"]. c #FE862F",
"[. c #FC942E",
"{. c #F4AA20",
"}. c #FAB124",
"|. c #ECB531",
" X c #FDB73D",
".X c #F3A834",
"XX c #F9C705",
"oX c #FDD604",
"OX c #FCC218",
"+X c #EDCE39",
"@X c #F9CF31",
"#X c #FCEE3C",
"$X c #FAF339",
"%X c #FF974E",
"&X c #FDBF4E",
"*X c #FF9D6B",
"=X c #FABA70",
"-X c #FFD15B",
";X c #FBE641",
":X c #FDEE5B",
">X c #EED265",
",X c #FCDE62",
"<X c #FBE564",
"1X c #FCF17D",
"2X c #FCEA78",
"3X c #FDDA8D",
"4X c #F6DC98",
"5X c #FEF78F",
"6X c #F8D9B5",
"7X c #F3E4A3",
"8X c #FFEFB8",
"9X c #FAF6B8",
"0X c #FAFCA9",
"qX c #FDFACE",
"wX c #FBF7D7",
"eX c #FBFDE9",
"rX c #FCFBF7",
"tX c None",
/* pixels */
"tXtXtXtXtXtXtXtXtXtXtXtXtXtXtXtXtXtXtXtXtXtXtXtXtXtXtXtXtXtXtXtXtXtXtXtXtXtXtXtXtXtXtXtXtXtXtXtXtXtXtXtXtXtXtXtXtXtXtXtXtXtXtXtX",
"tXtXtXtXtXtXtXtXtXtXtXtXtXtXtXtXtXtXtXtXtXtXtXtXtXtXtXtXtXtXtXtXtXtXtXtXtXtXtXtXtXtXtXtXtXtXtXtXtXtXtXtXtXtXtXtXtXtXtXtXtXtXtXtX",
"tXtXtXtXtXtXtXtXtXtXtXtXtXtXtXtXtXtXtXtXtXtXtXtXtXtXtXtXtXtXtXtXtXtXtXtXtXtXtXtXtXtXtXtXtXtXtXtXtXtXtXtXtXtXtXtXtXtXtXtXtXtXtXtX",
"tXtXtXtXtXtXtXtXtXtXtXtXtXtXtXtXtXtXtXtXtXtXtXtXtXtXtXtXtXtXtXtXtXtXtXtXtXtXtXtXtXtXtXtXtXtXtXtXtXtXtXtXtXtXtXtXtXtXtXtXtXtXtXtX",
"tXtXtXtXtXtXtXtXtXtXtXtXtXtXtXtXtXtXtXtXtXtXtXtXtXtXtXtXtXtXtXtXtXtXtXtXtXtXtXtXtXtXtXtXtXtXtXtXtXtXtXtXtXtXtXtXtXtXtXtXtXtXtXtX",
"tXtXtXtXtXtXtXtXtXtXtXtXtXtXtXtXtXtXtXtXtXtXtXtXtXtXtXtXtXtXtXtXtXtXtXtXtXtXtXtXtXtXtXtXtXtXtXtXtXtXtXtXtXtXtXtXtXtXtXtXtXtXtXtX",
"tXtXtXtXtXtXtXtXtXtXtXtXtXtXtXtXtXtXtXtXtXtXtXtXtXtXtXtXtXtXtXtXtXtXtXtXtXtXtXtXtXtXtXtXtXtXtXtXtXtXtXtXtXtXtXtXtXtXtXtXtXtXtXtX",
"tXtXtXtXtXtXtXtXtXtXtXtXtXtXtXtXtXtXtXtXtXtXtXtXtXtXtXtXtXtXtXtXtXtXtXtXtXtXtXtXtXtXtXtXtXtXtXtXtXtXtXtXtXtXtXtXtXtXtXtXtXtXtXtX",
"tXtXtXtXtXtXtXtXtXtXtXtXtXtXtXtXtXtXtXtXtXtXtXtXtXtXtXtXtXtXtXtXtXtXtXtXtXtXtXtXtXtXtXtXtXtXtXtXtXtXtXtXtXtXtXtXtXtXtXtXtXtXtXtX",
"tXtXtXtXtXtXtXtXtXtXtXtXtXtXtXtXtXtXtXtXtXtXtXtXtXtXtXtXtXtXtXtXtXtXtXtXtXtXtXtXtXtXtXtXtXtXtXtXtXtXtXtXtXtXtXtXtXtXtXtXtXtXtXtX",
"tXtXtXtXtXtXtXtXtXtXtXtXtXtXtXtXtXtXtXtXtXtXtXtXtXtXtXtXtXtXtXtXtXtXtXtXtXtXtXtXtXtXtXtXtXtXtXtXtXtXtXtXtXtXtXtXtXtXtXtXtXtXtXtX",
"tXtXtXtXtXtXtXtXtXtXtXtXtXtXtXtXtXtXtXtXtXtXtXtXtXtXtXtXtXtXtXtXtXtXtXtXtXtXtXtXtXtXtXtXtXtXtXtXtXtXtXtXtXtXtXtXtXtXtXtXtXtXtXtX",
"tXtXtXtXtXtXtXtXtXtXtXtXtXtXtXtXtXtXtXtXtXtXtXtXtXtXtXtXtXtXtXtXtXtXtXtXtXtXtXtXtXtXtXtXtXtXtXtXtXtXtXtXtXtXtXtXtXtXtXtXtXtXtXtX",
"tXtXtXtXtXtXtXtXtXtXtXtXtXtXtXtXtXtXtXtXtXtXtXtXtXtXtXtXtXtXtXtXtXtXtXtXtXtXtXtXtXtXtXtXtXtXtXtXtXtXtXtXtXtXtXtXtXtXtXtXtXtXtXtX",
"tXtXtXtXtXtXtXtXtXtXtXtXtXtXtXtXtXtXtXtXtXtXtXtXtXtXtXtXtXtXtXtXtXtXtXtXtXtXtXtXtXtXtXtXtXtXtXtXtXtXtXtXtXtXtXtXtXtXtXtXtXtXtXtX",
"tXtXtXtXtXtXtXtXtXtXtXtXtXtXtXtXtXtXtXtXtXtXtXtXtXtXtXtXtXtXtXtXtXtXtXtXtXtXtXtXtXtXtXtXtXtXtXtXtXtXtXtXtXtXtXtXtXtXtXtXtXtXtXtX",
"tXtXtXtXtXtXtXtXtXtXtXtXtXtXtXtXtXtXtXtXtXtXtXtXtXtXtXtXtXtXtXtXtXtXtXtXtXtXtXtXtXtXtXtXtXtXtXtXtXtXtXtXtXtXtXtXtXtXtXtXtXtXtXtX",
"tXtXtXtXtXtXtXtXtXtXtXtXtXtXtXtXtXtXtXtXtXtXtXtXtXtXtXtXtXtXtXtXtXtXtXtXtXtXtXtXtXtXtXtXtXtXtXtXtXtXtXtXtXtXtXtXtXtXtXtXtXtXtXtX",
"tXtXtXtXtXtXtXtXtXtXtXtXtXtXtXtXtXtXtXtXtXtXtXtXtXtXtXtXtXtXtXtXtXtXtXtXtXtXtXtXtXtXtXtXtXtXtXtXtXtXtXtXtXtXtXtXtXtXtXtXtXtXtXtX",
"tXtXtXtXtXtXtXtXtXtXtXtXtXtXtXtXtXtXtXtXtXtXtXtXtXtXtXtXtXtXtXtXtXtXtXtXtXtXtXtXtXtXtXtXtXtXtXtXtXtXtXtXtXtXtXtXtXtXtXtXtXtXtXtX",
"tXtXtXtXtXtXtXtXtXtXtXtXtXtXtXtXtXtXtXtXtXtXtXtXtXtXtXtXtXtXtXtXtXtXtXtXtXtXtXtXtXtXtXtXtXtXtXtXtXtXtXtXtXtXtXtXtXtXtXtXtXtXtXtX",
"tXtXtXtXtXtXtXtXtXtXtXtXtXtXtXtXtXtXtXtXtXtXtXtXtXtXtXtXtXtXtXtXtXtXtXtXtXtXtXtXtXtXtXtXtXtXtXtXtXQ /.tXtXtXtXtXtXtXtXtXtXtXtXtX",
"tXtXtXtXtXtXtXtXtXtXtXtXtXtXtXtXtXtXtXtXtXtXtXtXtXtXtXtXtXtXtXtXtXtXtXtXtXtXtXtXtXtXtXtXtXtXtXtX^ W.OX@XtXtXtXtXtXtXtXtXtXtXtXtX",
"tXtXtXtXtXtXtXtXtXtXtXtXtXtXtXtXtXtXtXtXtXtXtXtXtXtXtXtXtXtXtXtXtXtXtXtXtXtXtXtXtXtXtXtXtXtXtXtX/ ).}.7XtXtXtXtXtXtXtXtXtXtXtXtX",
"tXtXtXtXtXtXtXtXtXtXtXtXtXtXtXtXtXtXtXtXtXtXtXtXtXtXtXtXtXtXtXtXtXtXtXtXtXtXtXtXtXtXtXtXtXtXtXtX$.K ~..XtXtXtXtXtXtXtXtXtXtXtXtX",
"tXtXtXtXtXtXtXtXtXtXtXtXtXtXtXtXtXtXtXtXtXtXtXtXtXtXtXtXtXtXtXtXtXtXtXtXtXtXtXtXtXtXtXtXz.I.U.P.@.O./ ~./././.tXtXtXtXtXtXtXtXtX",
"tXtXtXtXtXtXtXtXtXtXtXtXtXtXtXtXtXtXtXtXtXtXtXtXtXtXtXtXtXtXtXtXtXtXtXtXtXtXtXtXtXtXtXtXm.B.S.F.L...@.+.^.^.E.`.}.tXtXtXtXtXtXtX",
"tXtXtXtXtXtXtXtXtXtXtXtXtXtXtXtXtXtXtXtXtXtXtXtXtXtXtXtXtXtXtXtXtXtXtXtXtXtXtXtXtXtXtXtXtXv.m.V.k.{ K K I T I U Q /.|.tXtXtXtXtX",
"tXtXtXtXtXtXtXtXtXtXtXtXtXtXtXtXtXtXtXtXtXtXtXtXtXtXtXtXtXtXtXtXtXtXtXtXtX8 8 tXtXtXtXtXtX& 2 n.B.f.| { Y W U U U U ^.#X;XtXtXtX",
"tXtXtXtXtXtXtXtXtXtXtXtXtXtXtXtXtXtXtXtXtXtXtXtXtXtXtXtXtXtXtXtXtXtXtXtXtX5 &.e.h V V V B ' e 3 4.N.l.X.| @.Q Q R E E  X9X5XtXtX",
"tXtX  . . . . . O + tXtXtXtXtXtX# * : %.%.=.:.tXtXtXtXtXtXtXtXtXtXtXtXtXtX>.c.m.G Z Z A A A A ` 9 4.H...} L.P.~.R.R.R.Q.1XeX8XtX",
"tXtXtXX . O O + % + + # tXtX# + > -.-.;.5.6.9.8.9.2.tXtXtXtXtXtXtXtXtXtXtXc.b.v Z Z Z A A W ! / $.,.G.K.~ W U.#.(.W.!.!.:X9XwXtX",
"tXtXtXX X X O , < < 2 2 2 * + # > *.;.7.5.5.6.8.8.8.8.3.tXtXf a 8 5 6 6 &.b.Z.a.F A Z A Z Y A T ( y.F.K.I.@.O.Y.(.!.(.OX9XqX6XtX",
"tXtXtXtXX % % , 1 < 1 1 =.=.: > %.< =.;.;.9.0.e.i.r.r.r.u.f f j w 4 1.&.&.b.Z.F.g.F Z Z A A A ! [ A.l.P.K.T.U.Y.~.(.XX;X8X=X*XtX",
"      O . % = , , , = ; , * 2 tXtX2 =.;.5.n.l.j.s.a.m M k k i j h ,.1.3.q.v.b.M.t. .S F F A I ) 0 0 D.X.o.U.#.].[.OX$X#X-X-X%XtX",
"tXtXtXtXtXtXtX- O . + o O + tXtXtXtXtXtXtXC.F.j.a.a.m n k k y t N 0 tXtX>.2.c.b.A.m F H g r r u.<.w.h.X.Q ~.!.W._.,X9X0XeXqX-XtX",
"tXtXtXtXtXtXtXtXtXo tX# # $ tXtXtXtXtXtXtXC.F.h.s.a.m n k u y t p tXtXtXtXtX3.m.d.m ] ] q 7 e.A.f.h.| L U W.R R R.`.2XeXrX9X3XtX",
"tXtXtXtXtXtXtXtXtXtXtXtXtXtXtXtXtXtXtXtXtXtXk.h.j.a.m n k k u y C tXtXtXtXtXtXt.g.m m z s 7 m.Z.L.L { | Y U U R E E.<XwX7X4XtXtX",
"tXtXtXtXtXtXtXtXtXtXtXtXtXtXtXtXtXtXtXtXtXtXtXtXx.a.m n k k y y tXtXtXtXtXtXtXtXt.] l d 9 4.G.V.L.P  ...Y I Q ~.^._.+X>XtXtXtXtX",
"tXtXtXtXtXtXtXtXtXtXtXtXtXtXtXtXtXtXtXtXtXtXtXtXtXr.r.x.l x c tXtXtXtXtXtXtXtXtXtXv S V J { p.f.L A D D I Q Q W ).'.tXtXtXtXtXtX",
"tXtXtXtXtXtXtXtXtXtXtXtXtXtXtXtXtXtXtXtXtXtXtXtXtXtXt.tXtXtXtXtXtXtXtXtXtXtXtXtXtXb S Z I T ^ p.] A A T E.A D ~.oXtXtXtXtXtXtXtX",
"tXtXtXtXtXtXtXtXtXtXtXtXtXtXtXtXtXtXtXtXtXtXtXtXtXtXtXtXtXtXtXtXtXtXtXtXtXtXtXtXtXtXF Z Z A ! O.g.| ~ E.E.Q._.oXoXtXtXtXtXtXtXtX",
"tXtXtXtXtXtXtXtXtXtXtXtXtXtXtXtXtXtXtXtXtXtXtXtXtXtXtXtXtXtXtXtXtXtXtXtXtXtXtXtXtXtXF A Z A ^ ) tXo.) ).XXXX).tXtXtXtXtXtXtXtXtX",
"tXtXtXtXtXtXtXtXtXtXtXtXtXtXtXtXtXtXtXtXtXtXtXtXtXtXtXtXtXtXtXtXtXtXtXtXtXtXtXtXtXtXtXtXP ! ^ tXtXtXtXtXtXtXtXtXtXtXtXtXtXtXtXtX",
"tXtXtXtXtXtXtXtXtXtXtXtXtXtXtXtXtXtXtXtXtXtXtXtXtXtXtXtXtXtXtXtXtXtXtXtXtXtXtXtXtXtXtXtXtXtXtXtXtXtXtXtXtXtXtXtXtXtXtXtXtXtXtXtX",
"tXtXtXtXtXtXtXtXtXtXtXtXtXtXtXtXtXtXtXtXtXtXtXtXtXtXtXtXtXtXtXtXtXtXtXtXtXtXtXtXtXtXtXtXtXtXtXtXtXtXtXtXtXtXtXtXtXtXtXtXtXtXtXtX",
"tXtXtXtXtXtXtXtXtXtXtXtXtXtXtXtXtXtXtXtXtXtXtXtXtXtXtXtXtXtXtXtXtXtXtXtXtXtXtXtXtXtXtXtXtXtXtXtXtXtXtXtXtXtXtXtXtXtXtXtXtXtXtXtX",
"tXtXtXtXtXtXtXtXtXtXtXtXtXtXtXtXtXtXtXtXtXtXtXtXtXtXtXtXtXtXtXtXtXtXtXtXtXtXtXtXtXtXtXtXtXtXtXtXtXtXtXtXtXtXtXtXtXtXtXtXtXtXtXtX",
"tXtXtXtXtXtXtXtXtXtXtXtXtXtXtXtXtXtXtXtXtXtXtXtXtXtXtXtXtXtXtXtXtXtXtXtXtXtXtXtXtXtXtXtXtXtXtXtXtXtXtXtXtXtXtXtXtXtXtXtXtXtXtXtX",
"tXtXtXtXtXtXtXtXtXtXtXtXtXtXtXtXtXtXtXtXtXtXtXtXtXtXtXtXtXtXtXtXtXtXtXtXtXtXtXtXtXtXtXtXtXtXtXtXtXtXtXtXtXtXtXtXtXtXtXtXtXtXtXtX",
"tXtXtXtXtXtXtXtXtXtXtXtXtXtXtXtXtXtXtXtXtXtXtXtXtXtXtXtXtXtXtXtXtXtXtXtXtXtXtXtXtXtXtXtXtXtXtXtXtXtXtXtXtXtXtXtXtXtXtXtXtXtXtXtX",
"tXtXtXtXtXtXtXtXtXtXtXtXtXtXtXtXtXtXtXtXtXtXtXtXtXtXtXtXtXtXtXtXtXtXtXtXtXtXtXtXtXtXtXtXtXtXtXtXtXtXtXtXtXtXtXtXtXtXtXtXtXtXtXtX",
"tXtXtXtXtXtXtXtXtXtXtXtXtXtXtXtXtXtXtXtXtXtXtXtXtXtXtXtXtXtXtXtXtXtXtXtXtXtXtXtXtXtXtXtXtXtXtXtXtXtXtXtXtXtXtXtXtXtXtXtXtXtXtXtX",
"tXtXtXtXtXtXtXtXtXtXtXtXtXtXtXtXtXtXtXtXtXtXtXtXtXtXtXtXtXtXtXtXtXtXtXtXtXtXtXtXtXtXtXtXtXtXtXtXtXtXtXtXtXtXtXtXtXtXtXtXtXtXtXtX",
"tXtXtXtXtXtXtXtXtXtXtXtXtXtXtXtXtXtXtXtXtXtXtXtXtXtXtXtXtXtXtXtXtXtXtXtXtXtXtXtXtXtXtXtXtXtXtXtXtXtXtXtXtXtXtXtXtXtXtXtXtXtXtXtX",
"tXtXtXtXtXtXtXtXtXtXtXtXtXtXtXtXtXtXtXtXtXtXtXtXtXtXtXtXtXtXtXtXtXtXtXtXtXtXtXtXtXtXtXtXtXtXtXtXtXtXtXtXtXtXtXtXtXtXtXtXtXtXtXtX",
"tXtXtXtXtXtXtXtXtXtXtXtXtXtXtXtXtXtXtXtXtXtXtXtXtXtXtXtXtXtXtXtXtXtXtXtXtXtXtXtXtXtXtXtXtXtXtXtXtXtXtXtXtXtXtXtXtXtXtXtXtXtXtXtX",
"tXtXtXtXtXtXtXtXtXtXtXtXtXtXtXtXtXtXtXtXtXtXtXtXtXtXtXtXtXtXtXtXtXtXtXtXtXtXtXtXtXtXtXtXtXtXtXtXtXtXtXtXtXtXtXtXtXtXtXtXtXtXtXtX",
"tXtXtXtXtXtXtXtXtXtXtXtXtXtXtXtXtXtXtXtXtXtXtXtXtXtXtXtXtXtXtXtXtXtXtXtXtXtXtXtXtXtXtXtXtXtXtXtXtXtXtXtXtXtXtXtXtXtXtXtXtXtXtXtX",
"tXtXtXtXtXtXtXtXtXtXtXtXtXtXtXtXtXtXtXtXtXtXtXtXtXtXtXtXtXtXtXtXtXtXtXtXtXtXtXtXtXtXtXtXtXtXtXtXtXtXtXtXtXtXtXtXtXtXtXtXtXtXtXtX",
"tXtXtXtXtXtXtXtXtXtXtXtXtXtXtXtXtXtXtXtXtXtXtXtXtXtXtXtXtXtXtXtXtXtXtXtXtXtXtXtXtXtXtXtXtXtXtXtXtXtXtXtXtXtXtXtXtXtXtXtXtXtXtXtX",
"tXtXtXtXtXtXtXtXtXtXtXtXtXtXtXtXtXtXtXtXtXtXtXtXtXtXtXtXtXtXtXtXtXtXtXtXtXtXtXtXtXtXtXtXtXtXtXtXtXtXtXtXtXtXtXtXtXtXtXtXtXtXtXtX",
"tXtXtXtXtXtXtXtXtXtXtXtXtXtXtXtXtXtXtXtXtXtXtXtXtXtXtXtXtXtXtXtXtXtXtXtXtXtXtXtXtXtXtXtXtXtXtXtXtXtXtXtXtXtXtXtXtXtXtXtXtXtXtXtX",
"tXtXtXtXtXtXtXtXtXtXtXtXtXtXtXtXtXtXtXtXtXtXtXtXtXtXtXtXtXtXtXtXtXtXtXtXtXtXtXtXtXtXtXtXtXtXtXtXtXtXtXtXtXtXtXtXtXtXtXtXtXtXtXtX"
};
