/* XPM */
static char *result[] = {
/* columns rows colors chars-per-pixel */
"64 61 240 2 ",
"   c #1F0804",
".  c #1F0F0B",
"X  c #1A090F",
"o  c #1F1016",
"O  c #250401",
"+  c #240702",
"@  c #280401",
"#  c #280701",
"$  c #2D0501",
"%  c #270C03",
"&  c #2B0904",
"*  c #2F0C05",
"=  c #230B0A",
"-  c #240C0B",
";  c #240C0C",
":  c #2C0F08",
">  c #3E0602",
",  c #310802",
"<  c #370D05",
"1  c #3A0802",
"2  c #2A120B",
"3  c #2B171C",
"4  c #241C19",
"5  c #29181C",
"6  c #29191D",
"7  c #2B181C",
"8  c #321614",
"9  c #271D28",
"0  c #3E2F33",
"q  c #420C02",
"w  c #480E02",
"e  c #441104",
"r  c #4E1004",
"t  c #4C170C",
"y  c #491B0D",
"u  c #401510",
"i  c #46241C",
"p  c #592010",
"a  c #672719",
"s  c #7B2F19",
"d  c #78321A",
"f  c #7D311E",
"g  c #482C28",
"h  c #5E2D21",
"j  c #57322D",
"k  c #5C3D36",
"l  c #752E21",
"z  c #773626",
"x  c #7D3624",
"c  c #7E3B2D",
"v  c #633E31",
"b  c #633B35",
"n  c #693933",
"m  c #644036",
"M  c #6E483F",
"N  c #7F4837",
"B  c #764C3F",
"V  c #764F44",
"C  c #7B4E43",
"Z  c #6D5149",
"A  c #765548",
"S  c #7C5048",
"D  c #645555",
"F  c #695C5F",
"G  c #6F5F63",
"H  c #833422",
"J  c #803524",
"K  c #803624",
"L  c #853E2D",
"P  c #8E3D2A",
"I  c #953D2B",
"U  c #8A4533",
"Y  c #8D4D35",
"T  c #954733",
"R  c #934932",
"E  c #904B33",
"W  c #974D37",
"Q  c #A4462D",
"!  c #B34E26",
"~  c #BE4C29",
"^  c #BF512E",
"/  c #BD522E",
"(  c #A64932",
")  c #A44E35",
"_  c #A94D31",
"`  c #AF4F33",
"'  c #AB4F35",
"]  c #B04C33",
"[  c #BB4F30",
"{  c #BF4F31",
"}  c #AD5538",
"|  c #B45133",
" . c #B75037",
".. c #B75337",
"X. c #B35437",
"o. c #BC5237",
"O. c #B95435",
"+. c #BE5636",
"@. c #B85D3C",
"#. c #C74D23",
"$. c #C74F24",
"%. c #C44E26",
"&. c #C74E26",
"*. c #CA4E22",
"=. c #CD4E23",
"-. c #CD4A26",
";. c #CB4C25",
":. c #CA4F25",
">. c #C84C27",
",. c #CD4E27",
"<. c #C64D2B",
"1. c #C64F2E",
"2. c #CA4B2A",
"3. c #CB4D29",
"4. c #C94E29",
"5. c #CE4F29",
"6. c #CD4D2B",
"7. c #CF4C2B",
"8. c #C94D2C",
"9. c #C94F2F",
"0. c #CC4E2F",
"q. c #C55323",
"w. c #C35124",
"e. c #C75124",
"r. c #C55026",
"t. c #CB5025",
"y. c #CA5125",
"u. c #C1502A",
"i. c #C4502A",
"p. c #C7522E",
"a. c #C85028",
"s. c #C35331",
"d. c #C45030",
"f. c #C65134",
"g. c #C65D3A",
"h. c #C85B39",
"j. c #CA5E3C",
"k. c #814E43",
"l. c #9E5846",
"z. c #875B50",
"x. c #B55E46",
"c. c #BC5C46",
"v. c #976251",
"b. c #B26344",
"n. c #B86147",
"m. c #BE614A",
"M. c #B9644C",
"N. c #B9664F",
"B. c #BC674D",
"V. c #BF6A4E",
"C. c #A66252",
"Z. c #BF6C52",
"A. c #BA6D5B",
"S. c #966E64",
"D. c #A97C71",
"F. c #CD5D40",
"G. c #C46140",
"H. c #CD6543",
"J. c #D16244",
"K. c #D06747",
"L. c #D8795F",
"P. c #D97B5E",
"I. c #D87E5D",
"U. c #DF7E5F",
"Y. c #C57B61",
"T. c #C67B63",
"R. c #C37866",
"E. c #AD8278",
"W. c #BD8376",
"Q. c #BD8974",
"!. c #BE8A78",
"~. c #CA8067",
"^. c #CF846C",
"/. c #D68161",
"(. c #C48677",
"). c #CB8473",
"_. c #D18A74",
"`. c #CD917A",
"'. c #D29278",
"]. c #E58C6D",
"[. c #E8896C",
"{. c #EB886C",
"}. c #EF9C7B",
"|. c #F29E7F",
" X c #B99383",
".X c #CA8F80",
"XX c #D08F82",
"oX c #CA9383",
"OX c #CF9683",
"+X c #DC9682",
"@X c #D29C8D",
"#X c #EE9F88",
"$X c #F49D82",
"%X c #DAA291",
"&X c #E5A78F",
"*X c #F4A081",
"=X c #F3A288",
"-X c #F7A38E",
";X c #F5A68E",
":X c #F1AB8F",
">X c #F7AB8E",
",X c #FBA98D",
"<X c #EFA790",
"1X c #EBA991",
"2X c #EEAA90",
"3X c #E9AD9B",
"4X c #FEA790",
"5X c #F6AA99",
"6X c #F0AC99",
"7X c #F4AE9A",
"8X c #EDB098",
"9X c #ECB69A",
"0X c #F1B699",
"qX c #F2B49C",
"wX c #F0B49F",
"eX c #D0AFA8",
"rX c #D9B2A5",
"tX c #C8B7B6",
"yX c #E1B5A7",
"uX c #EAB5A2",
"iX c #E9B5A4",
"pX c #F5B4A4",
"aX c #F7BDA5",
"sX c #FBBFB3",
"dX c #FCC2A9",
"fX c #F9C6AB",
"gX c #FBC3AF",
"hX c #FCC2AC",
"jX c #FEC3AE",
"kX c #F3C3B3",
"lX c #F3C5B2",
"zX c #F0C3B4",
"xX c #F7C5B4",
"cX c #F5CFC2",
"vX c #FCD5C4",
"bX c #F8DDD3",
"nX c #FFE1D3",
"mX c #FFE4D8",
"MX c #FFE6DF",
"NX c None",
/* pixels */
"mXbXcXxXdXdXfXfXhXsXlXgXfXfXfXfXfXfXfXfXfXfXfXxXxXxXfXfXdXdXdXfXxXxXxXxXxXiXD.A A A  XiXfXdXxXxXzXzXgXhXhXhXhXgXgXgXgXzXzXzXcXMX",
"NXNXkXiX0X0X0X0XqX3X8XqX9X9X9X9XwXwX0X0X0X9X9XwXwXwXwX0X0X0X0XwXiXiXiXiXiX@Xz.g i i S.%X9X8XwXiXiXiXqXqXqXqXqXqXqXwXwXiXiXzXcXnX",
"NXNXrX3X:X:X:X:X1X<X:X:X:X:X8X2X:X:X:X:X:X:X:X:X5X:X:X:X:X>X:X6X2X6X6X6X1XoXC 8 O * z.@X:X:X1X6X7X6X6X:X;X>X:X:X:X:X2X6X8XiXzXbX",
"NXNXNX+X}.}.}.}.}.$X$X*X*X*X*X*X*X*X*X*X|.|.|.$X$X$X$X|.$X$X$X#X#X=X=X=X#X_.N < @ , z.'.=X*X|.=X=X=X$X$X$X$X|.|.|.|.|.}.#X&XyXvX",
"NXNXNX).U.U.U.U.U.U.U.U.U.I.I.U.U.U.U.U.U.U.U.U.L.U.U.U.U.U.U.U.U.U.U.U.L.Z.z < $ 1 N T./.U.U.U.U.P.P.U.U.U.U.U.U.U.U.U./._.%XvX",
"NXNXNXM.G.g.g.g.h.F.F.F.j.j.j.j.F.F.j.j.j.j.j.F.F.F.F.F.F.F.F.F.G.J.j.j.+.' a 1 , 1 z } G.j.j.j.j.h.j.h.h.h.g.g.g.g.g.g.G.Z.'.lX",
"NXNXn.O./ u.u.u.1.1.9.9.1.d.s.d.1.d.1.i.i.i.i.8.8.8.1.1.1.d.d.f.f.p.p.d.[ Q a , $ > l ) / u.u.i.p.1.%.&.r.u.^ ^ ^ u.i.u./ x.).sX",
"NXNXN.| [ ~ %.<.8.2.2.2.8.a.<.<.<.<.<.%.%.%.%.2.2.2.2.<.<.<.<.1.<.>.4.a.[ Q a , @ 1 l ) / w.%.$.:.&.#.#.&.%.u.u.u.%.$.$./ @.).kX",
"NXNXN.O.^ u.%.<.8.2.2.6.3.4.&.8.8.8.4.&.r.r.a.6.7.7.3.8.9.1.1.1.8.>.=.y.{ ( a * @ 1 l ) / e.a.:.:.*.#.*.$.r.u.^ u.r.$.$.u.@.~.uX",
"NXNXV.+.s.i.%.&.8.2.-.-.;.>.&.3.3.3.>.#.%.r.#.-.-.-.;.>.<.<.1.1.8.;.=.t.~ Q a * # 1 l Q [ y.t.*.*.*.=.*.*.r.u.u.i.r.$.#.u.@.~.jX",
"NXNXV.+.s.e.&.>.2.6.-.-.;.4.&.3.3.3.;.*.#.%.#.-.-.-.;.>.<.<.1.8.>.;.=.*.~ ( a * @ 1 l ( ^ y.:.;.=.5.=.*.*.&.u.u.i.$.*.*.i.@.~.jX",
"NXNXV.O.u.r.&.>.2.6.-.-.;.#.>.4.3.;.;.*.#.%.#.-.-.-.>.>.<.<.<.<.4.=.=.*.~ Q a < $ > l ( ^ &.=.=.=.5.=.*.*.r.u.u.i.$.:.*.u.@.Y.aX",
"NXNXN.O.~ %.a.4.0.2.2.;.>.&.&.>.>.2.#.#.r.r.%.2.-.2.>.<.<.<.%.<.a.t.=.*.~ Q a < , > l ( { #.3.:.,.,.;.>.#.%.u.u.i.&.&.#.u.@.Y.aX",
"NXNXN.O.u.i.p.p.9.<.2.>.<.i.u.<.<.<.%.%.i.i.i.<.>.<.<.i.i.i.u.~ i.a.$.r.~ Q a 1 , > l ( { %.a.<.<.<.<.&.%.u.^ ^ u.i.%.%.^ @.Y.aX",
"NXNXN.O.+.s.s.s.s.{ { { ^ / / / { { / / / / / { { { / / / / / o.+./ / / o.( a 1 $ > l ) o.^ ^ { [ [ / ^ ^ / o.../ ^ ^ / ..x.Y.aX",
"NXNXN.) ' ` _ ' ' ] ] _ _ _ ) _ _ _ _ _ _ _ _ _ ' ' _ _ _ _ _ ' } ' _ _ ' T a < , 1 a T _ ( _ _ ( ( ' _ _ _ _ ) _ _ _ _ ) l.Y.aX",
"NXNXM l s f f s f f s s d d d d f f f d d d d f f f d d d d d d x d d s s a t * & , y a s s f f l l s s s s s s s s s s d c v.aX",
"NXG j q w r r w w w w w e e e e e w e e e e e e e e e e e e e e e e q q w q &       * e w w w e e q q w w w e w w w w e e y Z uX",
"NXG 0 @ $ , , $ $ $ $ $ # # # # # $ $ # # # + O O # % % & & # + + # # @ $ #   . . . ; & , $ $ & & # # $ $ $ $ $ $ $ $ # # 8 Z eX",
"NXG 0 & , < * * * * & & & % % % & & & % % %       ; 2 2 2 : : : : : : * , * : . . . ; & * , & & : : : * * * * * * * * * % 8 Z eX",
"NXNXF B N C B B V S C C C V V V C C V V V k 2 ;   8 k A A A A A S S S S k.k.S A A A V C k.k.C C C S S k.k.k.k.k.k.k.k.k.C z.E.lX",
"NXNX`..X.X.X.X.X.X.X.X.X.X.X.X.X.X.XoXoX XS.i ; O g S. XoXoXoXoXoXoXoXXXXXXXXXoXoXoXoX.X.X.X.X.X.X.X.XXXXXXXXXXXXXXXXXXXoXoXyXbX",
"NXNXaX:X:X2X6X6X6X6X5X5X5X6X6X6X6X7X8X8XiXE.i + @ b W.3X8X8X8X7X7X7X7X5X5X5X5X5X6X7X7X7X6X6X7X5X5X5X5X5X5X5X5X5X5X5X5X5X6X8XzXnX",
"NXNXaX<X=X*X=X;X;X=X-X-X-X;X;X;X;X;X;X:X&XD.i & $ n W.&X2X:X>X;X;X;X;X;X-X-X-X;X;X;X;X-X-X-X-X-X-X-X-X-X-X-X-X-X-X-X-X-X-X1XzXnX",
"NXNX`./.I.I.P.L.P.I.P.P.P.P.I.I.I.I.I./.T.l.y , , h C.T./././.I.I.I.I.P.L.L.L.P.P.P.L.L.L.L.L.L.L.L.L.L.L.L.L.L.L.L.L.L.L.^.%XcX",
"NXNXV.@.j.j.j.h.h.h.h.h.h.g.g.g.j.j.h.G.x.U r 1 , p T c.G.G.j.g.g.g.g.g.h.h.h.g.g.h.h.h.h.h.h.h.h.h.h.h.h.h.h.h.h.h.h.g.@.M._.dX",
"NXNXb.! i.p.9.8.8.>.4.:.a.i.i.i.a.4.8.f. .P r 1 , p I  .s.d.i.i.u.u.i.i.8.8.1.i.i.a.a.a.a.a.r.r.r.r.r.r.r.r.r.r.r.r.r.i./ @.^.dX",
"NXNXb.! %.>.3.6.7.;.=.=.t.r.r.$.:.,.6.9.o.I r $ $ p I [ 1.<.a.a.a.e.y.y.5.5.5.t.y.y.t.t.t.t.t.t.y.y.y.y.y.y.y.y.y.y.y.e.^ @._.dX",
"NXNXb.! w.#.;.5.5.5.*.*.$.w.w.w.#.*.;.<. .P w @ # p I  .u.%.r.r.q.e.e.e.:.t.t.y.y.:.:.:.&.$.&.&.%.&.$.$.$.$.r.r.r.r.r.w./ @._.dX",
"NXNXb.! q.a.;.;.,.=.=.*.q.q.q.q.$.*.;.1. .P r # % y P  .^ %.%.w.w.w.e.$.:.:.:.t.t.t.a.:.$.&.&.&.r.r.r.r.r.r.r.w.w.w.w.w./ @.^.gX",
"NXNXb.! q.y.;.-.=.=.=.y.q.q.q.q.y.:.,.1...P e %   y P ..^ %.%.w.w.w.e.$.:.:.:.t.=.,.:.:.:.:.:.$.a.a.e.e.e.e.e.e.r.r.r.r./ @.^.hX",
"NXNXb.! q.a.;.;.,.=.=.t.e.q.q.q.:.:.,.1...P e %   y P ..^ %.r.r.r.r.$.:.;.;.,.=.=.=.:.:.:.:.:.:.:.a.a.a.a.a.e.e.e.e.r.r./ @.^.pX",
"NXNXb.! %.>.2.6.7.-.;.*.$.w.w.%.&.;.;.1. .P r * + y P ..d.p.p.%.%.$.$.:.;.3.;.;.;.;.;.;.;.;.:.:.:.&.&.#.#.&.$.a.e.e.r.%.^ @.^.pX",
"NXNXb.! %.>.2.0.0.2.;.,.a.p.i.a.4.3.0.f. .P r , , p I  .~ <.<.1.1.4.4.3.6.7.6.3.,.5.5.,.,.,.4.4.4.>.&.&.:.a.a.a.a.a.a.r.^ c.).sX",
"NXNXb...s.d.d.f.f.1.9.1.d.s.s.s.f.f.f.o.X.P r $ $ p I ..+.s.f.s.s.s.s.f.9.9.9.d.d.p.p.p.p.p.p.p.p.d.s.s.s.s.s.s.s.s.s.s.o.x.).sX",
"NXNXb.) ` _ ] ] ] ] ] ] ] ' ' ` ` ] ] ' ) c t $ # y L ) } X.` ` ` ` ` ` ] ] ] ` ` ` ` ` ` ` ` ` ` ` ` ` ` ` ` ' ' ' ` ' ) l.).sX",
"NXNXM z K J f f f H H H H K K K K H K x z h u + & u a z x x J K K K x K H H J x x x J J J J J J K K K x x x K x x x x x z c S.sX",
"NXD g 1 q q q > > q > > > > > > > > > 1 < * +     & < 1 1 1 > > > 1 1 > > > 1 1 1 1 > > > > > > > 1 1 1 1 1 1 1 1 1 1 1 1 u S eX",
"NXD g @ , $ # # @ $ $ $ $ $ $ $ $ $ # # % % ; X o ; # @ # & & $ $ # # # $ $ & % % # # # # # # # # # # # # & & # O + # # # 8 Z eX",
"NXD g % : : : : % : * , * * * * * * : : : 2 2 o o 2 : * : : : : : 2 2 2 : : 2 2 2 2 : : : : : : : : : : 2 2 2 ;     ; % : 8 Z eX",
"NXG Z v v v v v b m n n n b b v v v v v v m m k m m m m m v v m m m m m m m m m m m m m v m v v v v v m m k g 8 ; ; 8 k k m S.kX",
"NXNXOXQ.Q.Q.Q.Q.W.(.(.(.(.(.Q.Q.Q.Q.Q.Q.!.!.!.!.!.!.Q.Q.Q.Q.!.!.!.!.!.!.!.!.Q.Q.Q.(.(.Q.Q.Q.(.(.(.(.(.!.!.E.z.i + + g E.!.).eXvX",
"NXNXuX&X&X&X&X1X<X<X-X-X;X<X1X1X1X1X1X1X2X2X2X1X1X1X1X1X1X1X1X1X1X1X1X1X<X<X<X<X<X<X<X<X2X2X<X;X;X<X<X2X6X%XD.i # : b @X3XpXkXmX",
"NXNXuX:X>X>X>X>X4X4X4X4X4X,X>X>X>X>X>X>X,X,X,X,X,X,X,X,X,X,X,X,X,X,X,X,X,X4X4X4X4X,X,X>X>X>X,X,X,X,X,X>X7X&XE.i # : b %X6XpXkXmX",
"NXNXOX].].].].].{.{.{.{.[.].].].].].].].[.[.[.{.[.[.[.[.[.[.[.[.[.[.{.{.{.{.{.{.{.[.[.].].].[.[.[.].].].]._.C.y # % h W._.+XuXmX",
"NXNXY.H.K.K.K.J.K.J.J.J.J.H.H.H.H.J.H.H.J.J.J.J.J.J.J.J.J.J.J.J.J.J.J.J.J.J.J.J.J.H.H.H.H.H.H.H.H.H.H.H.Z.M.Y y @ & p C.M.A.+XkX",
"NXNXm.[ 1.9.0.0.0.0.0.0.9.p.p.9.9.0.9.9.9.9.9.9.9.9.9.1.9.9.9.9.9.9.9.9.9.0.0.0.9.p.p.p.p.p.9.9.p.p.s.^ +.} c t $ $ p ) X.x.).sX",
"NXNXm.~ 2.7.7.7.7.7.6.6.,.:.:.3.7.7.6.3.6.6.6.3.2.2.2.8.3.4.4.3.3.3.3.3.6.6.6.6.3.3.3.,.6.6.6.0.3.:.a.a.s.X.c e @ , p ' ..c.).sX",
"NXNXB.{ 0.-.7.7.7.2.3.:.:.$.:.,.7.7.6.3.3.4.4.4.4.4.<.&.4.4.a.4.4.4.4.4.4.4.4.4.3.=.=.;.7.7.7.6.3.;.:.&.s.X.L e @ * p ' o.c.).kX",
"NXNXB.[ 0.-.-.7.6.>.:.y.e.e.e.:.6.6.,.:.:.a.a.a.r.&.&.r.a.a.r.&.&.&.&.r.a.a.a.a.t.=.=.=.7.7.6.6.3.:.:.:.p.X.L e # * p _ o.c.~.jX",
"NXNXB.[ 9.-.-.-.6.4.a.e.q.q.e.t.,.,.5.t.t.a.a.a.a.a.a.a.a.a.a.a.a.a.a.a.a.a.a.a.y.t.=.=.7.7.6.0.5.t.t.:.p.X.L e # : p ( o.c.Y.aX",
"NXNXB.[ 8.5.-.-.5.4.a.q.q.q.q.t.,.,.,.:.:.,.,.,.,.,.,.t.,.t.t.5.5.5.5.,.t.t.t.t.t.t.=.=.5.6.0.0.4.t.y.:.p...L e # * p ' o.c.R.NX",
"NXNXB.[ <.5.,.6.5.4.r.e.q.q.q.a.3.3.3.4.3.,.,.,.,.,.5.5.5.5.5.,.,.,.,.,.4.4.4.:.:.t.t.,.0.0.9.9.a.y.y.#.p...L e & * p _  .c.R.NX",
"NXNXB.[ <.5.3.0.9.<.i.r.w.w.w.&.8.2.8.8.3.3.4.3.3.3.4.4.4.4.3.3.3.4.4.4.4.4.4.<.a.a.$.a.1.1.d.d.i.w.r.a.s...L w $ , p _  .x.R.NX",
"NXNXB.o.d.p.1.d.f.d.d.^ ^ / / s.d.1.1.d.d.d.d.d.d.d.d.d.d.d.d.d.d.d.d.d.d.d.d.^ ^ ^ ^ ^ ^ / o./ / / / s.+.X.L w $ , p ) X.x.R.NX",
"NXNXB.} ..............X.X.X.X.X...........X.X.X...................X.X.X.X.X.X.X.X.X.X.} } } } } } } X.X.X.) L e # * y W } C.R.NX",
"NXNXv.U R R R R R R T R R E E E T T T T R E E E E E E E R R R E E E E E Y Y Y Y E E E E Y Y Y Y E E E R R U n < + % y N Y k.b.NX",
"NXG j t t t y t t t t t t y y y t t t t t y y y y y y y t t t y y y y y y y y y y t t y y y y y y y y t t y u & . . 2 y y i M NX",
"NXF g O O + + + O O @ $ @ + + + O @ @ @ @ # # # # # # # @ @ @ @ # O O + + + + + O @ @ O       + + # @ $ $ $ + X X X X % O 2 M rX",
"NXF 0 ; . . . . . ; ; ; ; . . . . . ; ; ; ; ; ; ; ; ; ; ; - = = = - ; . . . . . ; ; ; . . . . . . ; ; : & ; X o o o o o ; 8 M tX",
"NXF 0 o 4 4 4 4 6 6 6 6 6 4 4 4 6 6 6 6 6 6 6 6 6 6 6 6 6 7 3 3 3 5 6 6 6 6 6 6 6 6 6 6 4 4 4 4 4 6 6 8 8 8 6 9 9 9 9 6 6 9 Z tX"
};
